ncols 206
nrows 204
xllcorner 4432837.5
yllcorner 5724937.5
cellsize 200.0
NODATA_value -9999.0

93.1000 89.6000 90.4000 88.1000 87.2000 82.0000 75.8000 74.1000 74.2000 74.3000 74.2000 73.9000 74.0000 73.9000 74.2000 73.9000 74.1000 74.1000 74.3000 74.9000 74.5000 74.3000 76.0000 74.3000 73.7000 73.8000 73.9000 73.2000 73.1000 71.8000 72.4000 72.0000 72.6000 72.6000 72.7000 72.7000 72.6000 71.4000 71.3000 70.9000 70.0000 69.9000 69.7000 69.8000 69.8000 69.7000 69.6000 69.7000 69.9000 70.0000 69.8000 69.3000 69.3000 69.1000 68.7000 68.7000 68.0000 69.5000 68.7000 69.4000 70.0000 69.7000 69.2000 68.8000 69.2000 69.3000 69.6000 68.9000 28.7677 19.6115 21.0957 1.4110 5.2163 9.2509 20.3279 16.1266 23.5703 68.4000 68.8000 67.9000 68.5000 68.2000 67.6000 68.6000 65.7000 68.4000 68.3000 69.1000 70.7000 71.6000 72.5000 74.5000 76.6000 77.2000 79.1000 78.7000 76.9000 71.6000 70.0000 68.8000 68.6000 68.4000 68.0000 68.1000 72.5000 78.7000 82.4000 84.1000 84.6000 85.5000 86.3000 87.5000 89.5000 91.7000 94.8000 92.7000 91.0000 89.9000 88.5000 86.7000 84.1000 80.6000 86.2000 89.4000 92.9000 93.9000 95.0000 96.5000 96.3000 94.9000 92.4000 86.3000 80.1000 77.1000 77.4000 74.4000 72.5000 72.3000 71.4000 71.7000 71.1000 71.3000 74.6000 83.1000 82.3000 80.6000 77.6000 79.1000 83.1000 84.4000 86.4000 87.4000 89.9000 90.9000 91.3000 91.4000 92.7000 92.0000 91.0000 88.5000 86.7000 83.3000 81.2000 79.5000 79.4000 79.9000 79.6000 79.2000 80.0000 80.5000 81.8000 83.3000 85.2000 87.3000 89.6000 90.7000 90.2000 85.4000 78.1000 72.8000 72.5000 65.7000 68.5000 55.1000 70.1000 69.2000 68.7000 62.0000 69.9000 69.6000 68.1000 68.5000 68.7000 66.8000 63.7000 69.6000 70.5000 70.6000 70.9000 70.7000 70.8000 70.8000 69.5000 69.0000 70.2000 71.8000
98.1000 92.8000 93.4000 90.6000 90.2000 81.6000 75.8000 75.0000 73.7000 74.6000 74.6000 74.6000 74.3000 74.4000 74.6000 74.3000 74.4000 74.8000 75.6000 76.1000 76.3000 76.4000 76.3000 75.0000 76.1000 76.9000 75.5000 75.7000 75.3000 77.7000 76.5000 76.1000 75.8000 74.5000 79.4000 75.6000 76.7000 76.1000 74.1000 73.6000 72.5000 70.6000 70.3000 70.1000 70.2000 70.0000 69.8000 69.8000 69.8000 70.2000 70.7000 69.7000 69.5000 69.3000 69.7000 69.5000 69.4000 68.8000 68.8000 69.4000 68.8000 68.7000 68.5000 68.7000 69.0000 69.0000 69.4000 69.6000 33.2616 33.4299 33.9089 26.1963 26.2184 17.2952 30.6560 28.5185 24.1426 25.4934 22.4727 67.8000 68.1000 67.3000 67.9000 67.4000 67.6000 68.3000 68.5000 69.5000 70.6000 71.0000 71.9000 72.9000 73.6000 74.7000 75.9000 76.6000 76.6000 76.0000 71.7000 68.5000 68.2000 67.8000 67.4000 71.3000 75.0000 78.1000 80.7000 82.3000 85.5000 87.2000 88.9000 89.5000 90.6000 92.5000 91.2000 89.1000 87.4000 85.5000 83.7000 80.9000 79.0000 80.4000 84.2000 87.6000 90.9000 92.7000 94.6000 96.3000 95.6000 92.0000 90.4000 86.5000 81.6000 76.8000 73.2000 72.0000 70.3000 70.2000 70.3000 70.9000 74.0000 75.3000 78.6000 81.6000 83.5000 81.9000 79.3000 80.4000 83.8000 85.2000 87.2000 88.8000 90.2000 90.1000 89.5000 88.9000 91.1000 92.6000 92.6000 92.5000 90.8000 86.8000 84.0000 82.7000 81.5000 80.8000 80.0000 79.7000 80.5000 82.5000 82.7000 84.6000 85.9000 86.9000 87.8000 87.0000 84.3000 81.8000 75.4000 72.4000 69.0000 67.1000 56.2000 71.5000 71.1000 71.8000 70.5000 68.9000 66.7000 70.3000 72.3000 72.1000 70.5000 70.1000 68.8000 69.0000 68.5000 70.0000 71.8000 71.8000 72.1000 71.9000 70.8000 70.6000 71.4000 72.2000
95.4000 99.2000 96.4000 92.2000 89.0000 82.8000 77.0000 75.5000 75.8000 75.7000 75.6000 75.1000 75.0000 74.7000 74.7000 75.8000 75.9000 75.8000 76.3000 77.3000 78.0000 77.8000 77.6000 78.0000 78.3000 81.0000 83.1000 80.5000 77.7000 79.2000 84.6000 85.6000 85.0000 78.9000 78.9000 84.4000 79.0000 79.3000 77.7000 76.7000 76.2000 75.0000 73.5000 70.6000 70.1000 70.1000 70.0000 69.9000 70.0000 70.1000 70.9000 70.7000 69.7000 69.7000 69.6000 69.6000 69.8000 69.5000 69.4000 69.0000 68.5000 68.7000 68.5000 68.6000 70.3000 68.8000 68.7000 33.1861 35.0633 34.9891 35.2735 35.8269 12.1189 25.9018 31.3557 31.0104 22.0135 19.2347 22.6900 17.9806 67.9000 67.5000 67.4000 67.2000 67.2000 67.0000 67.3000 68.1000 68.8000 70.4000 71.4000 72.4000 72.6000 72.9000 74.4000 75.1000 75.5000 73.4000 71.4000 69.9000 68.3000 67.6000 67.1000 74.3000 80.2000 82.5000 84.0000 85.9000 87.9000 87.8000 88.3000 89.5000 90.2000 89.3000 88.3000 86.9000 83.3000 79.8000 78.4000 76.9000 80.5000 84.5000 87.3000 89.2000 90.8000 91.9000 93.2000 94.4000 93.1000 88.9000 82.9000 80.8000 77.7000 71.7000 70.3000 69.9000 69.7000 70.3000 73.0000 75.9000 76.9000 78.4000 82.2000 82.9000 83.8000 82.9000 80.0000 81.6000 83.3000 84.5000 86.6000 87.3000 87.3000 88.6000 88.3000 88.3000 88.7000 91.1000 92.8000 92.2000 90.6000 87.9000 85.3000 84.6000 83.4000 82.3000 81.8000 82.0000 82.0000 82.7000 83.4000 84.5000 85.3000 85.8000 84.9000 83.3000 81.7000 77.6000 72.7000 67.8000 67.2000 55.5000 66.9000 71.0000 73.3000 73.3000 72.0000 71.9000 72.1000 72.0000 70.7000 72.2000 72.0000 70.9000 71.0000 70.8000 69.7000 70.0000 72.9000 72.4000 72.2000 72.2000 71.5000 71.6000 72.9000 72.8000
88.3000 91.5000 95.5000 93.1000 86.4000 81.8000 78.0000 76.2000 76.4000 76.1000 76.3000 75.7000 76.0000 75.8000 75.4000 76.6000 78.3000 78.4000 78.7000 78.8000 78.8000 79.5000 79.6000 78.4000 79.1000 81.2000 85.6000 85.5000 83.2000 80.9000 82.8000 86.7000 87.0000 84.1000 79.5000 85.1000 82.8000 82.6000 84.9000 85.6000 84.3000 84.7000 81.2000 75.5000 72.2000 70.8000 70.9000 71.4000 70.6000 70.4000 70.5000 70.9000 70.2000 70.0000 69.8000 69.6000 69.9000 69.6000 69.5000 68.6000 69.3000 68.5000 68.5000 69.0000 69.7000 69.5000 69.2000 32.3456 32.0740 31.8450 31.7154 23.8147 27.5568 21.7057 23.1003 23.2409 20.9731 12.4801 13.3940 17.8576 11.8971 67.7000 66.6000 67.4000 66.9000 67.1000 66.8000 67.0000 69.6000 71.1000 70.9000 70.8000 71.4000 73.4000 73.7000 74.7000 74.0000 72.0000 70.3000 70.1000 69.3000 67.5000 67.2000 68.8000 73.3000 77.5000 81.9000 84.7000 86.2000 86.7000 86.7000 87.8000 87.2000 86.4000 85.8000 83.6000 79.7000 76.8000 73.6000 80.7000 85.2000 86.8000 87.4000 88.5000 89.6000 90.9000 91.8000 92.0000 90.0000 86.0000 83.4000 79.4000 70.4000 69.3000 69.7000 72.9000 76.7000 75.5000 78.8000 80.7000 81.5000 83.8000 84.1000 86.0000 86.1000 83.8000 83.7000 85.2000 84.8000 85.4000 86.0000 88.0000 89.3000 89.7000 88.7000 90.1000 88.8000 87.7000 88.5000 88.5000 89.0000 87.7000 85.5000 84.0000 82.5000 82.3000 82.5000 82.6000 82.8000 83.2000 83.5000 83.7000 82.7000 82.9000 81.1000 78.0000 76.4000 73.3000 72.6000 65.5000 58.8000 70.0000 73.3000 71.2000 73.4000 74.0000 73.9000 73.4000 72.3000 72.0000 72.1000 71.4000 71.9000 72.1000 72.6000 71.8000 71.7000 72.1000 72.1000 73.3000 73.2000 73.3000 72.5000 73.2000 74.1000 75.0000
85.2000 87.4000 84.9000 80.6000 79.7000 79.2000 78.2000 77.7000 77.4000 77.4000 76.3000 76.5000 76.4000 76.4000 76.0000 76.5000 77.4000 77.0000 78.2000 79.5000 82.8000 79.4000 79.4000 80.4000 79.8000 83.4000 84.8000 86.6000 86.9000 86.1000 85.0000 86.6000 88.3000 86.2000 82.8000 85.4000 87.8000 84.5000 83.9000 86.0000 87.8000 87.5000 88.2000 85.2000 76.2000 72.0000 70.9000 71.5000 70.7000 70.7000 70.4000 70.7000 70.8000 70.5000 69.9000 69.8000 69.9000 69.8000 69.3000 69.5000 69.3000 69.7000 69.1000 69.5000 69.5000 69.4000 24.6792 25.8336 25.2798 24.7260 19.0998 27.6143 27.0117 21.8463 12.5952 12.3333 13.6822 13.8572 6.4373 8.3574 9.4764 5.6152 1.8301 -5.0278 -11.6981 -17.2919 67.2000 66.8000 66.8000 66.2000 67.3000 68.3000 70.4000 70.6000 73.4000 75.0000 73.9000 70.3000 69.6000 68.4000 68.6000 67.4000 66.5000 68.4000 71.9000 74.9000 79.1000 82.5000 83.4000 83.3000 83.9000 85.0000 84.5000 83.8000 82.1000 81.3000 77.2000 73.0000 77.7000 84.7000 83.5000 84.7000 85.8000 87.6000 88.6000 88.6000 88.8000 85.1000 83.3000 83.6000 83.6000 79.6000 69.9000 69.3000 75.5000 78.1000 81.1000 82.8000 83.5000 86.3000 88.4000 88.6000 89.4000 87.8000 86.3000 86.8000 85.0000 85.0000 87.0000 87.3000 87.7000 89.8000 90.1000 89.6000 87.7000 88.1000 88.9000 88.7000 87.4000 85.5000 83.7000 82.7000 83.7000 82.8000 82.4000 81.4000 83.0000 81.5000 82.7000 82.8000 82.4000 81.4000 80.1000 78.1000 75.9000 74.1000 69.3000 66.6000 61.2000 66.1000 66.7000 71.9000 72.7000 70.9000 70.8000 71.7000 74.1000 72.9000 72.3000 72.2000 72.5000 72.9000 72.9000 72.9000 73.5000 73.0000 72.6000 73.5000 74.2000 75.4000 74.7000 74.9000 74.4000 74.7000 75.6000 76.4000
83.6000 87.6000 84.4000 83.7000 83.9000 81.8000 79.4000 78.7000 77.5000 77.4000 77.0000 77.3000 76.9000 77.0000 77.2000 77.3000 77.2000 78.4000 80.4000 82.8000 80.6000 82.6000 82.3000 80.8000 81.8000 82.1000 86.7000 88.0000 88.5000 88.7000 88.4000 89.0000 90.0000 91.5000 86.7000 86.4000 90.5000 89.1000 87.4000 87.6000 88.7000 89.2000 88.5000 87.8000 84.4000 76.7000 71.7000 71.4000 71.2000 70.8000 70.7000 71.0000 70.7000 70.9000 70.9000 70.0000 69.9000 70.1000 69.6000 69.5000 69.5000 69.8000 69.4000 69.5000 69.6000 69.7000 20.6122 19.9253 18.9239 16.0813 24.5131 23.2486 22.6881 16.4441 5.4736 5.1048 7.9651 10.7592 11.1361 3.3968 5.6838 4.6252 2.6754 -1.8102 -15.9485 -17.3357 -18.5915 -20.1150 67.0000 66.4000 66.9000 66.5000 67.2000 67.4000 67.0000 66.5000 65.8000 66.0000 65.3000 66.6000 67.5000 66.5000 65.9000 70.2000 75.7000 77.0000 78.4000 79.7000 80.5000 79.7000 81.8000 81.6000 82.3000 82.1000 81.1000 78.1000 72.2000 70.0000 77.2000 80.4000 79.1000 80.8000 86.2000 85.9000 84.0000 82.3000 83.5000 79.1000 78.0000 82.9000 83.4000 81.6000 72.7000 68.4000 74.4000 86.5000 84.8000 86.4000 88.2000 89.9000 90.7000 90.8000 90.1000 89.7000 89.0000 87.8000 88.6000 87.1000 86.0000 87.0000 88.2000 89.2000 90.4000 89.4000 86.6000 85.3000 85.2000 86.1000 84.5000 84.1000 83.9000 81.6000 79.6000 80.0000 80.6000 80.5000 78.3000 84.9000 80.2000 80.1000 79.6000 77.6000 75.4000 73.5000 70.7000 68.7000 68.1000 62.6000 59.2000 63.2000 69.4000 72.0000 70.9000 69.2000 69.5000 69.9000 71.1000 70.7000 71.3000 73.1000 73.7000 74.5000 74.1000 74.5000 74.5000 74.0000 73.8000 73.7000 74.0000 74.6000 75.5000 76.3000 76.4000 77.0000 77.7000 78.6000
91.2000 95.8000 99.9000 102.5000 98.2000 86.6000 81.6000 78.8000 77.8000 78.0000 77.5000 77.7000 77.9000 77.5000 77.7000 77.8000 78.3000 79.0000 79.5000 79.7000 81.5000 84.2000 83.6000 86.3000 85.4000 83.9000 87.5000 88.6000 89.0000 90.2000 90.5000 91.8000 94.0000 96.6000 93.1000 88.9000 87.2000 88.4000 88.8000 90.7000 95.7000 89.9000 85.9000 83.5000 81.3000 77.3000 73.5000 72.6000 71.8000 71.3000 71.0000 71.0000 71.2000 70.9000 71.4000 71.0000 70.5000 70.7000 69.8000 70.0000 69.8000 69.8000 69.5000 69.7000 69.6000 18.4777 17.4051 17.5100 24.0522 23.7883 21.8830 21.2279 19.3838 11.1440 1.2316 1.1929 3.1017 6.4184 9.4423 9.9289 1.7002 3.7927 0.3574 -3.5946 -2.2328 -18.3073 -19.6880 -20.5371 -21.6434 -20.7286 66.9000 66.6000 65.9000 66.1000 66.1000 66.1000 67.4000 67.2000 68.2000 65.7000 65.0000 66.2000 66.1000 66.7000 67.9000 70.1000 75.4000 74.6000 74.9000 75.5000 78.1000 75.4000 77.1000 77.6000 77.5000 75.3000 73.5000 68.1000 75.3000 80.9000 82.0000 75.6000 83.0000 84.0000 82.4000 75.2000 74.4000 73.7000 71.9000 75.3000 81.0000 80.5000 71.2000 69.7000 70.6000 84.1000 85.6000 88.1000 89.3000 90.2000 90.7000 90.9000 91.2000 91.2000 90.7000 89.9000 89.8000 88.9000 87.7000 87.3000 88.1000 88.7000 89.5000 90.3000 88.5000 86.8000 85.5000 84.1000 82.6000 82.8000 80.0000 78.3000 78.2000 78.3000 77.1000 79.6000 77.6000 77.0000 76.8000 77.7000 76.8000 72.6000 71.2000 69.4000 66.1000 63.8000 62.0000 63.9000 62.9000 62.6000 60.4000 63.5000 67.0000 67.1000 67.5000 67.9000 67.8000 69.9000 73.2000 73.9000 74.6000 75.3000 77.0000 76.6000 76.7000 76.3000 75.9000 75.5000 75.6000 76.3000 76.9000 77.7000 78.4000 79.2000 80.4000 81.5000
102.5000 107.7000 108.8000 105.1000 98.0000 89.7000 87.4000 87.7000 86.6000 79.2000 78.6000 78.1000 78.5000 78.0000 78.8000 78.2000 80.8000 79.2000 79.0000 82.8000 83.3000 84.6000 87.6000 87.9000 87.3000 87.2000 84.7000 87.6000 89.9000 91.1000 91.8000 93.0000 96.3000 100.1000 98.3000 96.5000 93.6000 91.5000 91.0000 91.9000 96.0000 94.2000 89.2000 85.0000 79.2000 77.1000 75.6000 73.8000 72.5000 71.4000 71.3000 70.9000 71.0000 71.1000 71.3000 71.6000 71.0000 70.5000 70.5000 70.3000 70.3000 69.9000 69.7000 69.5000 30.3538 18.2448 17.6486 23.5502 20.6363 22.9370 22.1415 19.9937 16.9905 10.2558 1.7014 1.3980 2.5146 4.5441 8.0395 9.5642 9.9118 2.0256 -2.1628 -3.5942 -2.7297 -1.3298 -17.2392 -19.0978 -19.8961 -20.6462 -24.2949 66.5000 66.4000 65.9000 65.5000 65.2000 66.4000 65.5000 65.4000 65.3000 66.3000 66.3000 65.9000 66.4000 66.4000 66.3000 67.1000 70.0000 75.9000 71.6000 71.4000 71.1000 69.9000 74.1000 70.1000 68.8000 67.9000 67.0000 67.9000 69.0000 69.9000 69.1000 68.5000 70.9000 71.0000 69.7000 68.9000 68.2000 68.8000 70.8000 70.8000 72.0000 68.3000 68.1000 78.2000 82.3000 86.2000 85.4000 88.1000 88.8000 90.3000 91.2000 92.2000 93.0000 92.6000 91.9000 91.9000 90.0000 89.7000 89.5000 89.6000 90.3000 90.9000 90.1000 90.7000 89.8000 88.5000 86.7000 84.8000 83.7000 83.3000 81.8000 78.8000 75.9000 74.7000 76.6000 75.7000 74.7000 74.6000 74.2000 71.7000 69.7000 67.4000 64.5000 63.4000 68.6000 71.6000 70.4000 70.0000 68.6000 67.2000 61.5000 63.2000 64.7000 66.5000 66.2000 67.3000 70.1000 72.0000 72.3000 73.3000 74.0000 76.4000 77.4000 78.5000 78.5000 78.6000 78.5000 78.8000 79.1000 79.8000 79.6000 80.8000 80.9000 81.4000 81.9000
111.2000 111.3000 104.7000 90.6000 86.4000 84.3000 81.7000 81.8000 79.2000 79.4000 79.4000 80.0000 80.7000 81.1000 80.1000 79.3000 79.5000 79.6000 81.4000 82.2000 85.0000 86.2000 87.5000 89.0000 89.1000 89.3000 87.0000 87.6000 90.8000 91.9000 93.0000 96.0000 98.8000 100.2000 99.8000 97.8000 96.3000 93.3000 93.1000 95.9000 97.9000 95.1000 92.6000 86.6000 79.7000 76.9000 75.1000 73.5000 72.7000 71.8000 71.5000 71.3000 71.2000 71.5000 71.4000 71.9000 71.2000 70.9000 70.6000 70.5000 70.3000 69.9000 69.8000 69.7000 26.0966 15.1477 20.4907 18.6384 24.4636 23.8268 21.5916 18.3905 15.3401 11.1702 3.0555 2.8060 2.7566 4.1104 5.2615 5.7144 7.8245 6.6663 -2.1452 -2.2015 -2.9870 -1.9949 -0.3241 1.7428 -17.2567 -27.8995 -24.3391 -6.2720 0.0493 0.6427 -9.8062 -41.9197 -12.8497 -5.0099 -8.1249 65.6000 66.0000 67.0000 67.4000 66.3000 67.2000 66.0000 65.7000 64.6000 66.0000 66.3000 66.1000 66.9000 66.8000 68.6000 66.4000 64.8000 65.2000 65.5000 65.2000 65.2000 66.6000 65.7000 65.5000 65.7000 65.9000 66.0000 66.6000 66.7000 67.1000 67.2000 67.6000 67.6000 68.0000 69.3000 71.6000 75.1000 78.8000 79.3000 83.3000 88.0000 89.8000 91.4000 93.2000 93.8000 92.1000 93.6000 93.4000 91.9000 90.7000 90.7000 90.3000 90.7000 91.5000 91.5000 91.3000 91.1000 91.5000 91.1000 89.6000 86.8000 84.5000 82.3000 80.5000 78.0000 75.8000 74.9000 72.3000 72.0000 70.4000 68.6000 67.1000 66.5000 68.5000 73.6000 73.6000 74.1000 68.8000 66.1000 66.6000 64.7000 62.7000 66.9000 68.8000 68.4000 66.4000 66.2000 67.2000 68.1000 70.3000 71.8000 72.4000 73.3000 74.9000 76.5000 78.3000 78.9000 80.0000 80.7000 81.2000 81.5000 81.7000 82.6000 82.2000 82.6000 82.4000 82.6000
91.4000 88.0000 85.7000 83.9000 82.9000 83.6000 81.6000 82.0000 82.7000 82.3000 83.4000 86.1000 86.5000 83.4000 81.0000 81.6000 80.5000 81.3000 82.0000 82.4000 83.2000 84.8000 87.8000 89.8000 89.6000 90.2000 90.2000 90.5000 90.2000 90.5000 93.6000 96.6000 99.6000 99.8000 99.0000 96.7000 95.5000 95.5000 99.4000 100.6000 99.5000 96.7000 95.0000 86.6000 81.2000 78.4000 76.5000 73.8000 72.2000 71.7000 71.7000 72.0000 72.1000 71.6000 71.0000 71.7000 71.4000 71.0000 70.8000 70.3000 70.3000 70.3000 70.0000 29.2652 17.4074 10.2637 10.5430 14.0208 14.6505 20.0509 17.4723 16.3508 15.5492 13.8119 4.5933 4.2569 3.6964 2.5437 3.0341 4.0849 5.9558 4.1073 3.0665 -3.5796 -3.0043 -2.1921 -0.9794 1.1438 4.4114 8.3701 -0.0173 -0.7183 -0.0130 -3.8524 -0.4075 -4.5173 -3.0291 -5.2034 -6.7970 -15.7345 -10.4537 -12.0328 -14.9001 -18.4947 -21.8506 64.9000 66.3000 64.7000 64.7000 64.8000 64.7000 64.5000 64.6000 65.1000 64.5000 64.6000 64.6000 64.8000 64.8000 64.8000 65.5000 65.5000 65.9000 66.1000 66.0000 66.4000 66.6000 66.8000 67.3000 67.4000 67.7000 67.7000 69.7000 70.6000 72.8000 73.4000 74.3000 79.6000 85.4000 88.6000 89.3000 90.2000 91.7000 93.9000 93.9000 93.6000 93.3000 91.5000 91.6000 91.6000 91.1000 91.7000 91.7000 91.7000 91.5000 91.8000 91.7000 90.9000 89.1000 87.0000 84.0000 80.9000 77.1000 75.0000 74.6000 74.4000 71.8000 69.6000 68.3000 68.9000 69.9000 67.5000 73.2000 70.3000 68.9000 70.8000 67.1000 72.6000 74.2000 71.2000 67.4000 66.0000 71.0000 70.3000 68.6000 67.8000 69.0000 70.3000 70.1000 73.4000 74.5000 74.6000 75.8000 76.6000 77.9000 79.9000 80.4000 81.1000 81.0000 81.9000 82.0000 82.7000 83.3000 83.7000 84.2000 83.6000
85.6000 85.2000 84.7000 84.1000 83.7000 83.5000 85.1000 88.3000 90.4000 88.4000 88.5000 88.4000 89.6000 87.4000 82.5000 85.2000 87.1000 85.8000 83.5000 84.9000 83.8000 87.1000 86.9000 88.3000 90.4000 91.6000 92.3000 92.6000 93.4000 93.2000 92.4000 96.3000 99.7000 100.4000 100.6000 99.3000 97.4000 95.5000 95.6000 96.4000 97.1000 97.3000 97.5000 92.0000 88.6000 84.0000 79.5000 75.6000 73.7000 72.8000 72.4000 72.4000 72.6000 72.2000 71.8000 70.9000 71.1000 71.0000 71.0000 70.4000 70.4000 70.3000 70.3000 15.4998 12.7196 9.4218 20.0612 16.9685 13.8509 11.2477 9.4688 8.0533 7.3469 6.7063 6.4822 6.1009 4.9560 4.0439 3.2335 3.4213 3.2010 2.6046 3.1309 -3.4030 -3.0920 -2.3879 -1.4396 1.9274 6.2102 5.9025 7.2402 -0.3326 -2.0952 -5.8355 -5.3140 -1.6665 -1.9302 -2.3787 -4.2883 -5.1124 -9.7228 -11.2450 -15.1305 -18.3248 -22.0288 -25.1981 -12.3434 -6.7327 -7.1314 -6.1019 64.5000 69.5000 64.7000 64.3000 64.4000 64.0000 64.3000 70.2000 73.8000 72.7000 79.1000 70.9000 67.4000 66.2000 66.2000 66.4000 67.7000 68.4000 67.2000 68.1000 70.7000 70.1000 71.8000 73.5000 76.7000 82.4000 81.2000 79.8000 82.5000 85.4000 85.2000 86.9000 88.4000 87.7000 87.0000 87.6000 87.1000 91.2000 93.2000 92.6000 92.7000 91.7000 90.9000 89.6000 87.5000 84.7000 82.7000 81.6000 81.4000 80.4000 80.0000 76.2000 74.8000 73.3000 73.5000 70.4000 70.0000 71.8000 73.3000 74.5000 73.9000 73.2000 75.6000 75.1000 72.4000 67.7000 67.3000 74.4000 79.0000 68.8000 71.8000 68.4000 64.8000 73.2000 71.7000 71.8000 72.0000 72.6000 73.2000 73.1000 74.1000 76.3000 76.9000 77.5000 78.2000 78.1000 79.1000 80.3000 81.5000 82.3000 82.6000 82.8000 83.3000 83.3000 83.0000 82.6000
86.4000 86.5000 86.3000 85.9000 87.5000 88.7000 91.9000 92.5000 92.0000 91.2000 92.0000 92.0000 91.4000 87.6000 85.1000 84.0000 88.4000 88.9000 89.3000 89.1000 86.8000 85.3000 86.2000 88.0000 90.9000 91.2000 93.2000 94.2000 95.2000 95.6000 94.4000 95.7000 99.6000 102.2000 104.2000 102.9000 99.3000 96.5000 96.6000 96.4000 97.2000 97.9000 99.1000 94.3000 94.0000 89.5000 89.6000 85.6000 78.1000 73.8000 72.6000 72.9000 72.6000 72.8000 71.7000 71.3000 71.3000 71.0000 71.3000 70.8000 70.4000 70.2000 70.7000 18.0531 16.3725 18.6855 21.5498 20.7089 15.2489 11.3696 10.3059 9.9593 9.3331 8.8421 8.4131 7.9088 6.9490 5.7235 4.3361 3.2258 2.1433 1.2288 1.2763 -2.9843 -3.1954 -2.7101 2.6432 2.4843 1.9074 1.9724 4.2075 7.6891 3.6777 -4.1277 -1.1970 -0.1944 -1.4821 -2.5625 -3.3051 -3.9889 -2.7792 -7.9979 -3.1504 -9.0520 -14.0593 -10.3766 -7.4983 -6.3006 -6.3993 -8.6942 -3.2121 9.6651 20.1795 26.1163 64.1000 63.9000 64.1000 65.6000 69.2000 78.7000 83.5000 80.0000 77.6000 73.8000 72.1000 69.8000 67.1000 67.2000 67.2000 69.2000 70.6000 72.0000 73.6000 78.5000 82.0000 82.7000 84.6000 83.4000 83.1000 84.5000 85.5000 86.4000 86.9000 87.2000 86.0000 85.2000 84.6000 87.7000 89.6000 91.0000 91.2000 91.5000 89.4000 85.1000 79.8000 79.1000 78.0000 77.9000 77.2000 76.4000 74.6000 73.6000 72.8000 72.9000 73.1000 72.5000 72.4000 72.4000 74.9000 76.0000 75.3000 74.2000 74.4000 75.4000 73.6000 72.2000 69.4000 74.7000 72.8000 75.2000 75.3000 74.2000 70.0000 66.5000 70.8000 72.4000 73.4000 73.8000 74.8000 76.1000 76.9000 77.4000 76.8000 76.8000 78.1000 79.2000 79.4000 80.1000 80.8000 81.8000 82.4000 82.7000 83.4000 83.6000 83.0000 82.3000
87.5000 87.5000 92.4000 93.8000 93.6000 92.8000 92.0000 92.8000 92.7000 91.7000 90.9000 89.9000 88.7000 86.9000 85.5000 85.6000 88.3000 88.9000 90.0000 90.8000 90.0000 90.0000 88.3000 91.5000 92.4000 93.8000 94.4000 95.2000 96.2000 96.8000 95.2000 97.5000 99.0000 100.4000 102.0000 102.3000 100.5000 98.8000 97.9000 97.7000 98.0000 96.3000 92.8000 89.5000 88.1000 84.8000 82.9000 84.2000 81.0000 77.5000 73.4000 73.0000 72.7000 73.0000 72.2000 71.7000 71.8000 71.3000 71.2000 71.1000 70.9000 70.8000 70.7000 21.8750 21.2455 20.1476 21.3811 21.7161 16.2376 15.0090 11.9720 11.7101 11.3753 10.8943 10.4109 9.9661 8.9709 7.2883 5.4786 5.0166 2.3486 0.6741 -0.9545 -3.0277 -3.0497 0.4108 -0.0478 -1.1136 -1.6156 -0.3196 2.3413 -5.3373 -10.2636 -8.1144 3.0331 -5.7956 -4.6100 -3.4576 -4.8880 -4.0033 -7.0870 -6.5227 -18.2008 -4.8065 -4.7826 -9.5563 -3.3286 -3.4343 -7.6364 2.0971 7.5220 13.9039 20.4466 26.1879 31.7144 36.3250 43.5638 49.9750 50.6844 66.0000 74.4000 76.6000 77.1000 80.2000 77.1000 73.9000 71.1000 69.8000 68.0000 67.1000 68.5000 70.9000 74.5000 78.1000 80.9000 83.2000 83.7000 85.3000 85.6000 85.8000 85.6000 84.1000 82.6000 83.7000 79.1000 78.7000 78.2000 81.9000 86.3000 87.1000 86.2000 82.4000 78.5000 76.2000 75.8000 75.6000 75.3000 75.5000 74.9000 74.1000 74.6000 74.3000 75.3000 76.0000 77.1000 77.5000 76.5000 74.1000 72.3000 73.3000 74.4000 74.1000 75.5000 74.2000 74.6000 71.5000 72.5000 75.2000 75.1000 74.7000 76.0000 76.7000 74.3000 74.7000 69.5000 68.8000 69.7000 70.3000 71.1000 74.4000 76.9000 76.9000 77.8000 78.0000 78.3000 79.2000 79.8000 80.6000 81.9000 82.4000 83.1000 84.2000 83.9000 83.0000 83.6000 83.4000
89.3000 89.0000 91.1000 93.4000 93.6000 93.9000 93.9000 93.4000 93.1000 92.7000 91.7000 90.5000 89.1000 88.2000 87.4000 87.1000 90.3000 91.8000 92.8000 93.1000 93.4000 93.3000 91.5000 93.8000 95.7000 96.8000 97.2000 97.2000 97.2000 98.5000 96.8000 98.1000 98.4000 100.8000 101.3000 100.6000 103.8000 104.3000 101.9000 97.2000 98.1000 92.9000 88.4000 85.3000 83.5000 82.8000 80.1000 77.2000 75.5000 74.4000 73.8000 73.0000 73.2000 72.4000 71.9000 72.3000 72.4000 71.9000 71.9000 70.9000 71.3000 71.2000 26.9599 30.4201 28.3309 21.9422 26.7702 24.1730 18.8450 17.5012 14.1937 14.0560 13.7572 13.5403 13.2671 12.8729 11.5254 9.4828 7.8545 6.9782 3.7407 0.5975 -1.6755 -1.5078 -0.7905 -1.6902 -3.2969 -4.1324 -3.1762 -1.5853 -6.6655 -7.7531 -7.0100 -7.0337 -12.5752 -8.4968 -3.0671 -3.4267 -4.3684 -3.1636 -3.0911 -11.9471 -8.7162 -7.7915 -9.3749 -8.2115 1.9143 5.4476 -4.3948 -3.1742 10.2290 17.3839 22.5848 27.1641 32.2592 37.8577 43.4689 49.3650 47.2210 50.1804 48.1479 69.5000 76.1000 75.9000 76.2000 74.8000 72.8000 71.5000 70.5000 69.3000 68.4000 70.8000 73.3000 79.0000 83.1000 82.7000 83.9000 86.1000 86.4000 86.2000 84.6000 81.6000 80.1000 76.4000 74.0000 73.7000 74.1000 77.3000 82.3000 82.4000 77.1000 73.5000 72.7000 73.6000 74.5000 74.7000 75.1000 75.0000 76.4000 75.6000 76.5000 80.4000 79.2000 78.7000 77.7000 77.2000 76.5000 75.0000 73.3000 72.6000 73.2000 73.6000 74.9000 73.8000 71.9000 73.1000 74.6000 75.4000 76.6000 75.3000 76.4000 76.9000 76.8000 75.9000 75.2000 71.4000 73.9000 74.4000 72.2000 74.9000 78.6000 77.6000 78.9000 79.8000 79.7000 80.2000 79.8000 80.9000 82.1000 81.7000 82.7000 83.0000 84.0000 84.5000 85.3000 85.5000
90.6000 90.1000 90.1000 91.6000 95.5000 95.9000 96.1000 96.0000 95.9000 95.6000 94.3000 93.6000 92.5000 91.1000 91.4000 89.7000 90.5000 93.3000 94.2000 94.8000 94.8000 94.0000 93.1000 95.6000 98.1000 98.7000 98.8000 98.5000 98.2000 99.2000 98.3000 100.4000 101.1000 100.2000 99.9000 100.5000 105.6000 104.2000 100.8000 96.5000 91.9000 90.8000 89.7000 84.9000 81.4000 79.5000 78.6000 78.0000 76.2000 75.3000 73.8000 73.3000 73.0000 73.0000 72.5000 72.8000 72.6000 72.3000 71.7000 71.7000 71.5000 71.1000 30.0020 28.5846 29.6812 30.3635 29.6245 27.8486 22.8828 20.0210 20.4373 16.6773 16.2495 16.0844 16.7180 15.8751 14.4603 11.9643 12.5937 9.4566 5.2815 1.3593 0.9876 -0.5244 -2.6374 -4.6100 -5.7604 -5.5454 -4.1807 -1.9332 -6.1427 -6.1006 -6.3183 -7.7386 -8.2626 -3.3636 -3.4051 -4.9154 -4.7052 -4.4571 -3.6300 -2.6510 -3.1484 -2.0870 -1.5210 1.4819 3.4413 5.7581 9.1960 11.7380 19.3999 19.3405 23.5496 27.9043 32.8291 37.7646 42.4383 46.3974 45.9006 47.3188 46.9445 44.8456 74.0000 73.5000 75.1000 76.9000 73.8000 70.6000 68.0000 66.9000 69.7000 71.9000 76.4000 83.0000 83.5000 84.1000 84.3000 85.7000 86.0000 86.7000 84.3000 81.6000 77.2000 74.6000 73.4000 72.2000 71.6000 72.4000 71.4000 71.6000 71.5000 71.0000 71.7000 73.3000 71.3000 72.4000 70.9000 72.7000 74.8000 75.5000 78.9000 81.1000 81.7000 80.5000 78.3000 76.5000 74.9000 74.4000 73.4000 73.5000 75.2000 74.4000 74.3000 74.4000 73.8000 72.6000 77.0000 77.5000 77.2000 75.9000 76.1000 76.8000 76.6000 77.1000 75.9000 72.8000 74.8000 75.1000 75.1000 72.2000 74.5000 76.2000 79.4000 79.1000 80.7000 79.4000 78.2000 79.6000 81.0000 81.7000 83.5000 83.0000 84.0000 85.2000 87.9000 89.3000
92.8000 92.4000 91.8000 92.2000 95.4000 98.0000 98.3000 98.4000 98.4000 97.5000 96.6000 95.8000 95.1000 94.5000 94.2000 92.5000 92.5000 93.8000 95.7000 96.6000 97.1000 95.8000 96.4000 96.1000 98.4000 99.9000 100.0000 99.7000 100.5000 100.7000 101.3000 100.9000 103.3000 102.6000 101.7000 102.0000 104.1000 108.2000 104.9000 97.6000 92.7000 89.8000 85.2000 82.8000 80.9000 78.6000 77.3000 76.7000 75.6000 74.5000 73.7000 73.7000 73.3000 73.2000 73.1000 73.5000 73.2000 72.5000 71.9000 71.9000 72.2000 71.8000 31.8968 31.0013 31.2242 36.8307 35.6286 32.7163 27.2411 22.4066 22.9751 22.3905 22.6407 21.3427 19.4542 18.6199 17.7113 17.4906 15.5943 11.8985 7.0059 3.0175 0.8333 -2.0523 -5.0894 -6.7209 -6.7537 -6.0044 -4.4183 -4.6878 -4.8629 -5.0728 -5.7621 -5.7137 -4.3963 -5.1996 -6.4350 -6.3566 -5.7616 -4.5252 -5.6397 -4.7829 6.9690 11.7331 10.4067 8.7874 10.4147 12.9200 12.9912 14.6282 21.5095 28.0486 25.0126 29.2439 33.3194 37.2601 38.3936 41.1315 42.0742 44.0142 43.7061 43.8056 44.9263 45.9173 71.4000 70.8000 71.9000 68.2000 66.3000 67.5000 69.4000 72.1000 76.3000 74.2000 77.4000 78.5000 79.9000 81.0000 80.2000 81.8000 80.7000 82.6000 79.4000 77.4000 73.0000 72.0000 71.7000 71.6000 70.9000 70.5000 70.6000 70.1000 70.1000 70.2000 70.3000 70.0000 70.6000 73.2000 72.7000 78.0000 83.3000 83.3000 81.8000 79.7000 77.3000 75.6000 74.4000 74.2000 74.2000 74.9000 75.0000 76.0000 76.0000 76.0000 76.1000 73.9000 75.2000 77.7000 76.9000 76.3000 76.9000 76.3000 76.4000 76.7000 75.4000 76.2000 76.1000 77.2000 78.4000 76.6000 79.3000 78.5000 75.1000 75.8000 76.2000 77.4000 78.3000 80.2000 80.8000 83.1000 84.1000 84.2000 84.6000 87.8000 90.5000 91.7000
94.8000 93.8000 93.4000 94.0000 98.7000 100.0000 100.1000 100.4000 101.2000 100.9000 100.1000 98.5000 97.9000 97.5000 97.0000 94.7000 95.6000 97.2000 97.4000 98.5000 99.3000 97.9000 99.0000 99.8000 98.6000 99.4000 100.0000 101.3000 102.0000 103.0000 103.4000 103.8000 104.3000 104.2000 103.6000 104.7000 106.4000 105.3000 101.4000 96.5000 92.7000 89.8000 88.0000 88.3000 86.0000 82.7000 82.1000 79.2000 75.6000 74.3000 73.9000 73.4000 73.7000 72.5000 72.6000 72.4000 73.4000 72.1000 71.5000 72.0000 71.4000 71.1000 36.0793 35.9353 38.6542 38.1651 39.6542 37.2336 33.3014 25.2346 25.6624 26.0973 25.9035 24.6660 21.2628 21.0610 21.3697 21.2684 19.2575 15.0463 9.6275 4.4519 0.1813 -4.1700 -6.8159 -7.4365 -6.9913 -5.8847 -5.3886 -3.8160 -3.9297 -4.2940 -4.9968 -5.1609 -6.5149 -7.3289 -7.0290 -7.3974 -5.6015 -5.2853 5.8913 7.0062 11.0534 19.0890 21.0427 19.6278 20.0279 20.1749 20.8611 23.6159 27.8771 33.4089 35.3126 30.1407 34.4244 33.4625 35.8072 37.4288 37.0295 39.1128 42.9898 44.0776 45.1494 47.6762 49.7419 66.8000 65.8000 64.3000 65.0000 68.1000 66.4000 64.8000 65.4000 66.4000 68.7000 73.2000 76.3000 75.4000 72.8000 74.3000 73.4000 74.0000 73.0000 71.1000 71.1000 69.8000 69.8000 70.7000 70.1000 70.0000 69.9000 69.9000 69.8000 70.1000 73.2000 76.7000 70.7000 70.9000 74.5000 81.8000 83.9000 83.1000 81.2000 79.3000 77.7000 76.3000 75.8000 76.7000 75.6000 75.9000 77.2000 77.6000 77.5000 75.9000 74.2000 74.5000 75.1000 78.6000 77.6000 76.5000 76.6000 76.8000 77.7000 78.5000 75.6000 77.9000 77.3000 77.8000 78.6000 75.8000 79.2000 79.3000 78.7000 77.8000 80.1000 79.3000 78.8000 79.9000 82.5000 83.8000 84.5000 85.4000 87.0000 89.9000 91.5000 92.7000
97.9000 97.1000 96.6000 96.3000 97.1000 101.2000 103.5000 106.1000 107.5000 109.4000 107.4000 104.2000 101.8000 99.4000 98.1000 97.5000 99.2000 99.1000 99.5000 100.6000 101.1000 100.6000 101.0000 102.2000 102.0000 101.7000 102.0000 102.5000 103.9000 104.6000 105.6000 106.1000 106.4000 106.7000 106.3000 111.9000 109.4000 107.8000 104.8000 98.2000 94.7000 92.1000 89.2000 87.8000 85.7000 84.9000 80.7000 80.3000 76.0000 74.4000 74.3000 73.6000 73.4000 72.8000 72.7000 72.2000 72.4000 72.6000 71.7000 71.9000 40.6231 39.1645 42.3956 40.0639 43.4497 44.6122 42.9807 41.8857 38.4594 28.8233 30.8660 31.6654 29.1120 25.3786 23.6653 23.4463 25.0670 25.7370 24.2266 19.6478 12.5677 5.4597 -0.9121 -5.0512 -7.1239 -7.4007 -6.6401 -6.5499 -5.1455 -3.0323 -3.5858 -4.1454 -5.5938 -4.6989 -6.5957 11.3780 5.7377 2.3747 -5.4824 -2.1682 0.3718 5.7696 28.4074 31.4969 30.7707 41.4486 32.0347 31.2852 32.4783 29.1437 30.9951 36.2490 38.9625 41.9709 28.8874 33.1079 33.8431 37.3120 37.6492 39.2778 42.0536 44.6187 45.8350 48.2407 53.3089 53.0298 63.9000 63.8000 63.5000 63.8000 64.4000 63.9000 64.2000 64.1000 65.9000 68.3000 67.1000 69.6000 69.9000 68.0000 67.9000 67.6000 67.9000 68.3000 68.8000 69.0000 69.4000 69.1000 69.6000 71.0000 69.7000 69.9000 69.9000 69.9000 71.4000 73.4000 73.1000 74.2000 78.4000 84.4000 86.0000 82.0000 81.2000 81.2000 79.5000 78.0000 77.5000 77.4000 77.5000 77.5000 77.0000 77.4000 76.3000 75.5000 73.9000 77.8000 78.1000 77.2000 76.7000 76.8000 76.4000 77.3000 79.2000 79.2000 76.5000 79.7000 79.2000 79.8000 79.0000 78.4000 78.4000 79.6000 80.0000 80.4000 80.8000 81.5000 81.6000 81.8000 81.7000 81.7000 84.4000 85.8000 88.4000 89.9000 90.8000 93.5000
103.6000 101.9000 100.7000 99.0000 98.7000 99.6000 104.1000 118.7000 124.5000 124.0000 117.1000 109.1000 104.6000 102.1000 101.3000 101.0000 101.9000 101.8000 102.4000 103.0000 103.3000 102.9000 103.9000 104.3000 104.4000 104.0000 104.7000 104.9000 105.9000 106.6000 108.1000 108.5000 109.1000 109.6000 109.4000 111.4000 115.5000 113.6000 108.5000 103.1000 97.5000 95.1000 96.6000 92.7000 90.5000 87.0000 83.9000 80.0000 77.3000 74.8000 74.0000 73.4000 72.6000 73.2000 72.8000 72.4000 72.3000 72.1000 72.2000 44.0797 40.9032 41.8016 44.9858 46.6443 48.8334 51.5464 49.6162 46.2585 43.6148 36.6636 35.5979 35.4996 29.8703 28.2420 26.2620 26.3287 28.2647 29.8814 28.9968 24.0969 15.2252 7.0276 -0.0819 -3.9555 -5.9921 -6.5521 -7.0341 -5.8201 -4.3684 -2.0951 -3.6788 -3.3606 -3.6976 -8.0968 -7.6639 -8.9855 7.9923 -0.3866 -5.1747 -0.0691 4.2594 10.0780 16.1664 37.3722 49.1319 52.5827 52.9097 43.1143 42.7132 40.9697 37.0998 39.1214 43.8892 43.3540 44.7703 43.1151 34.7304 38.5925 40.8822 41.6212 42.3545 44.5820 45.3001 49.0222 53.9024 51.8779 53.2675 62.9000 64.5000 65.1000 67.9000 74.7000 71.3000 68.5000 67.2000 65.0000 65.9000 67.9000 70.2000 68.8000 68.4000 68.5000 70.1000 70.7000 69.2000 69.0000 68.3000 68.6000 68.7000 69.1000 70.2000 72.0000 70.5000 70.3000 71.4000 73.0000 73.3000 74.5000 76.4000 81.0000 82.5000 80.5000 80.9000 81.5000 80.2000 79.9000 79.1000 79.7000 79.6000 78.3000 77.1000 76.4000 76.9000 74.4000 76.1000 78.5000 78.3000 78.0000 77.4000 77.4000 77.4000 78.3000 79.9000 80.5000 77.5000 80.1000 80.8000 80.3000 79.2000 79.8000 80.2000 79.6000 81.3000 82.1000 81.7000 81.1000 83.0000 83.8000 83.7000 85.1000 84.2000 85.6000 87.7000 89.8000 92.2000 92.8000
108.1000 105.8000 103.3000 102.1000 102.7000 103.9000 104.4000 109.2000 119.4000 115.2000 111.7000 108.4000 106.3000 105.1000 104.8000 103.5000 104.8000 105.3000 106.1000 106.3000 106.4000 106.1000 106.5000 107.4000 107.2000 106.9000 106.9000 108.5000 108.7000 108.7000 109.7000 111.2000 112.0000 112.5000 114.5000 116.1000 116.2000 110.7000 111.6000 107.4000 102.3000 100.6000 97.3000 96.1000 99.3000 97.5000 94.0000 91.0000 84.3000 76.7000 74.3000 73.5000 73.0000 72.8000 72.8000 72.3000 72.4000 72.4000 50.8075 46.8446 44.4912 45.3821 48.7485 51.9381 53.3863 56.5082 57.2938 53.5425 48.8053 42.4645 38.6911 36.1349 32.4776 30.2343 28.9604 29.0414 30.4075 32.5249 32.0825 27.1270 19.3418 9.7554 2.8259 -1.3684 -3.6305 -6.0867 -5.7589 -4.8426 -3.0950 -0.7229 -2.7474 -2.1010 -4.5886 -5.2427 -10.3295 -11.3358 -13.9945 -1.4291 0.0467 6.5221 11.4088 19.6523 24.3627 27.7905 47.5396 54.1192 52.2399 49.6028 46.9843 47.5664 42.7021 44.2069 45.0193 46.2202 46.1593 40.1412 44.6827 40.6605 42.4056 42.9910 43.2157 42.1049 44.6645 49.7505 52.5255 55.1270 54.7271 51.3378 51.2784 68.0000 70.9000 73.3000 72.5000 69.8000 67.8000 65.9000 66.6000 67.7000 69.2000 68.9000 72.0000 71.7000 69.4000 70.1000 69.7000 71.4000 72.5000 73.2000 72.2000 71.9000 70.6000 73.5000 79.0000 76.3000 75.7000 76.4000 77.2000 77.9000 76.9000 81.6000 79.3000 80.6000 81.8000 83.1000 82.3000 80.7000 79.6000 79.0000 78.2000 77.0000 77.5000 76.7000 75.7000 75.2000 78.9000 79.8000 79.1000 78.1000 78.5000 78.1000 78.4000 79.5000 80.6000 80.5000 78.1000 80.1000 80.9000 80.2000 80.2000 80.6000 81.0000 80.9000 81.5000 82.4000 82.0000 81.8000 83.6000 85.5000 85.3000 86.4000 86.3000 86.5000 90.0000 91.4000 91.9000 92.4000
111.5000 109.9000 109.2000 108.9000 106.7000 106.5000 107.3000 106.2000 107.4000 110.4000 108.6000 109.8000 109.5000 109.8000 109.3000 108.8000 110.0000 110.0000 111.5000 110.8000 110.4000 110.6000 110.9000 112.0000 112.3000 111.6000 110.9000 111.7000 112.0000 112.4000 112.1000 114.1000 117.1000 117.4000 120.0000 118.5000 117.1000 117.8000 116.0000 108.4000 102.3000 98.8000 97.5000 97.0000 93.0000 92.0000 92.5000 91.2000 91.3000 82.8000 74.0000 73.5000 73.1000 73.0000 72.7000 73.1000 72.5000 57.9284 53.9863 51.5555 49.0296 49.9992 52.2359 55.6384 57.0067 61.1256 62.9382 60.8903 57.3403 45.5329 36.9103 39.4401 35.1416 32.7882 32.3477 31.4729 32.4225 31.7725 33.1396 29.3540 19.4183 12.7578 6.6789 1.1287 -1.9342 -3.4678 -3.9158 -2.8980 -0.7657 -1.9539 -3.2332 -2.1903 -16.5547 14.3155 9.1165 -6.5512 -5.2526 -5.7482 11.3619 11.7513 21.6177 24.1150 27.7384 32.5978 38.4146 43.3628 55.0334 55.2819 55.1289 53.0296 51.9826 49.2015 47.0591 49.3330 49.0738 47.5661 44.6365 46.2182 43.1496 43.5882 43.3212 41.5104 43.4696 49.3624 51.0605 56.7282 51.3213 51.0079 48.9827 50.9168 64.3000 65.0000 67.1000 71.4000 73.9000 74.0000 73.9000 70.8000 68.9000 69.0000 68.8000 69.4000 69.2000 68.8000 71.1000 73.8000 77.5000 81.0000 81.8000 81.2000 77.1000 75.7000 73.9000 76.6000 81.4000 82.0000 82.2000 85.1000 85.1000 85.0000 83.6000 86.9000 87.5000 85.0000 82.2000 81.9000 81.5000 79.5000 77.9000 77.6000 75.8000 75.8000 76.0000 75.7000 79.2000 80.5000 79.5000 79.1000 79.6000 78.7000 79.7000 79.8000 80.4000 79.5000 78.5000 80.4000 80.9000 80.7000 81.3000 81.8000 82.2000 82.2000 83.0000 83.7000 83.9000 84.8000 84.3000 86.4000 87.0000 87.4000 86.6000 88.9000 90.3000 92.2000 92.6000 94.0000
117.4000 115.4000 114.8000 114.3000 113.2000 113.2000 113.2000 111.5000 112.6000 112.2000 113.5000 115.6000 115.6000 114.6000 114.4000 114.9000 117.4000 117.4000 118.4000 118.8000 116.3000 116.5000 115.5000 117.1000 118.4000 116.7000 115.5000 116.4000 117.0000 117.7000 117.3000 119.1000 124.7000 123.1000 125.4000 125.6000 123.5000 121.2000 115.9000 106.6000 102.9000 100.2000 98.7000 99.4000 96.0000 91.4000 85.4000 84.3000 83.8000 75.7000 73.6000 73.0000 73.5000 73.3000 73.0000 72.8000 62.1941 59.2316 60.2130 59.1657 58.8571 58.3255 54.0498 55.6736 61.2782 63.2419 61.7236 61.3727 61.6257 49.5808 40.4184 41.0939 39.8304 36.9075 35.9147 35.2674 33.6721 31.2331 30.4122 22.9478 15.1159 8.5391 6.0536 2.0250 -0.8904 26.3241 25.3528 25.7253 25.6747 19.0233 15.0628 15.0589 19.1316 15.6627 12.3415 3.3323 -7.4536 -1.7176 14.0415 19.0603 23.7955 30.4238 37.3755 42.3754 45.7038 49.9364 55.6786 60.9786 58.4036 58.1403 52.9472 45.8773 48.7365 51.7075 51.4562 52.4189 49.4303 47.4894 44.5553 42.3759 42.0115 41.7933 41.9372 42.5272 48.4747 48.7532 46.4928 48.0891 46.1440 49.1722 48.4721 64.8000 70.0000 68.2000 69.3000 69.3000 69.7000 69.4000 69.2000 69.3000 68.7000 69.0000 69.1000 71.0000 74.8000 78.8000 79.8000 80.9000 83.2000 85.9000 84.9000 84.2000 80.1000 80.0000 78.0000 77.9000 80.0000 83.5000 84.4000 86.0000 85.6000 82.8000 84.2000 85.4000 82.6000 80.0000 80.9000 79.6000 78.5000 77.1000 76.3000 77.2000 75.8000 76.1000 78.6000 80.3000 79.9000 80.0000 80.0000 79.7000 80.1000 80.5000 80.7000 79.8000 79.2000 80.4000 80.9000 81.8000 82.7000 83.6000 82.7000 82.7000 82.9000 83.0000 84.8000 86.5000 85.2000 88.0000 89.0000 89.2000 89.1000 90.3000 90.6000 91.9000 93.5000 96.2000
125.4000 125.8000 126.0000 124.8000 125.0000 127.2000 125.4000 122.2000 124.4000 127.0000 124.7000 124.0000 123.2000 124.7000 125.9000 126.2000 126.7000 127.5000 127.7000 127.4000 125.9000 126.8000 126.4000 127.3000 126.5000 126.3000 127.3000 124.5000 123.8000 122.8000 121.7000 120.8000 123.3000 124.3000 124.5000 127.5000 124.1000 118.2000 112.2000 106.7000 103.7000 101.0000 101.7000 101.3000 98.6000 94.0000 87.0000 79.2000 76.0000 73.5000 73.3000 73.5000 73.3000 73.2000 73.4000 66.7277 63.6567 63.6940 65.4005 61.1791 58.7828 67.6456 74.9400 84.1000 84.0000 82.4000 68.0672 65.3951 58.9577 50.5416 43.9650 44.7670 43.8267 37.1101 37.6978 36.7790 34.1559 31.3280 25.4962 23.0814 12.8016 9.4647 5.8366 2.6680 31.0443 33.7298 31.5686 25.5546 23.6781 21.0877 16.7250 17.6167 18.8158 14.4035 4.1303 2.7586 1.1220 1.4352 6.3193 16.8388 20.3401 26.7250 33.7635 41.0109 46.5414 52.0710 58.3866 64.9409 61.9039 60.3338 57.5564 47.4962 45.8248 48.1768 47.5082 49.2639 51.3286 51.6379 45.0950 39.5620 39.3479 40.5257 39.5456 37.4123 44.7763 42.4477 39.6756 43.3700 44.5103 43.2206 48.4521 48.2677 47.7956 63.5000 65.1000 64.9000 65.8000 67.0000 67.9000 66.7000 67.8000 69.7000 74.3000 77.8000 81.0000 84.1000 84.2000 84.3000 84.4000 86.1000 84.9000 84.8000 88.0000 87.6000 85.4000 83.9000 83.5000 82.8000 83.4000 82.7000 80.5000 79.5000 79.1000 79.4000 80.3000 84.0000 83.5000 82.0000 80.7000 79.1000 78.1000 77.2000 77.3000 78.3000 79.0000 80.6000 81.2000 80.4000 80.4000 80.9000 80.4000 80.9000 80.5000 80.3000 80.4000 81.1000 81.9000 83.4000 84.0000 84.7000 84.7000 84.6000 85.2000 83.8000 85.3000 86.2000 87.3000 88.2000 88.6000 89.9000 90.9000 91.7000 91.2000 93.0000 94.5000 97.2000
136.8000 138.6000 140.7000 139.8000 142.0000 141.0000 140.4000 140.3000 136.0000 142.5000 138.2000 139.2000 128.1000 136.8000 141.9000 141.5000 142.7000 144.0000 143.6000 145.4000 144.7000 142.5000 142.1000 143.9000 141.7000 138.8000 138.6000 136.7000 134.8000 135.0000 133.0000 129.6000 128.3000 129.7000 127.7000 129.3000 124.9000 120.6000 117.4000 109.9000 104.8000 102.4000 101.1000 101.9000 97.6000 92.4000 88.6000 78.5000 74.5000 73.9000 73.6000 73.6000 75.2000 73.9000 69.3039 66.6725 66.7097 66.7909 67.3586 75.2836 73.7494 77.8000 81.4000 81.1000 80.9000 81.9000 81.0000 78.8000 77.0000 76.1000 59.8287 60.8938 44.8950 48.0231 38.2810 37.7577 34.2979 28.4284 25.5537 23.2734 36.0614 28.4804 30.5771 30.0634 30.3075 31.5499 27.7688 26.7245 26.1826 26.1654 22.2838 18.3832 18.4562 9.6708 6.8975 8.3471 5.2029 0.2809 12.7383 15.4227 18.3166 21.9629 28.9156 39.1665 41.8092 47.0402 55.5224 65.9380 66.8271 61.5710 57.1397 52.7131 43.8039 46.9715 46.8069 50.5242 51.2669 53.2610 47.9380 34.9321 36.9251 39.5495 40.3070 39.8497 42.6976 38.6559 39.4378 39.6469 43.4182 37.1028 39.7569 44.3665 45.9770 64.0000 63.9000 64.3000 63.7000 64.9000 65.5000 68.5000 74.9000 79.1000 81.1000 83.6000 86.6000 89.5000 88.7000 88.0000 87.3000 87.0000 86.6000 86.1000 86.6000 86.3000 86.5000 88.4000 89.0000 88.3000 88.5000 86.0000 84.7000 83.8000 80.5000 79.2000 79.3000 79.7000 82.5000 82.1000 80.6000 80.6000 80.4000 78.9000 78.2000 77.7000 79.1000 80.8000 81.2000 80.8000 80.8000 81.4000 80.9000 81.2000 80.9000 80.7000 81.4000 82.1000 83.6000 84.4000 84.6000 85.9000 86.1000 86.8000 86.4000 86.1000 87.1000 89.1000 89.4000 90.1000 90.8000 91.9000 92.4000 93.5000 93.5000 93.2000 97.0000 98.2000
154.2000 156.9000 155.1000 158.9000 164.0000 162.6000 161.5000 163.6000 153.2000 163.8000 161.0000 157.8000 139.2000 167.4000 169.6000 169.0000 169.2000 168.2000 167.0000 168.8000 169.8000 166.8000 165.6000 163.0000 163.9000 158.6000 156.9000 156.2000 153.2000 154.3000 152.3000 145.9000 141.2000 137.3000 131.9000 129.1000 123.7000 120.2000 120.7000 111.7000 102.3000 99.4000 99.4000 97.2000 95.9000 90.0000 80.8000 75.7000 74.5000 74.1000 73.7000 73.7000 74.0000 73.9000 68.1444 68.1279 67.3777 68.2161 75.4491 74.7153 77.4000 76.9000 76.0000 76.8000 78.0000 78.8000 80.6000 81.5000 81.7000 81.8000 76.4000 74.1000 53.7270 51.3343 40.0503 38.7768 34.8023 30.8005 33.4344 38.2356 36.4535 34.1330 34.7739 28.4591 28.8689 28.1610 28.0342 26.2438 30.5905 26.2475 22.9573 20.9671 16.4398 9.5702 8.7296 8.6319 4.4985 1.0221 -1.0235 16.8795 21.9308 25.5243 28.6158 35.8448 41.6986 46.4832 53.0263 61.7941 63.8984 62.6226 58.6333 52.4801 47.6145 45.6308 51.5942 53.9510 53.4612 55.0894 50.3893 35.0850 35.3652 35.4218 37.6338 36.9010 34.4517 35.2443 31.5246 32.8540 33.1600 21.9922 30.4042 31.8177 29.5566 29.0835 65.7000 67.0000 67.9000 68.5000 70.1000 77.8000 82.9000 86.3000 87.5000 87.4000 88.0000 88.2000 88.0000 90.2000 89.0000 89.0000 87.4000 87.6000 89.2000 90.5000 90.7000 89.7000 88.5000 88.0000 87.8000 87.0000 86.3000 86.4000 85.1000 83.2000 81.3000 79.2000 79.5000 79.0000 79.6000 79.9000 80.0000 78.7000 79.8000 78.7000 77.7000 79.3000 80.5000 80.9000 81.7000 81.8000 81.8000 82.1000 82.2000 82.2000 82.9000 83.2000 84.2000 84.5000 85.4000 87.0000 87.8000 88.6000 89.1000 89.2000 90.0000 90.9000 91.2000 92.5000 93.1000 94.8000 94.7000 94.7000 95.6000 94.5000 96.4000 98.8000
174.7000 181.8000 180.2000 182.7000 185.3000 186.0000 182.2000 182.5000 183.3000 177.7000 178.8000 157.5000 164.6000 186.5000 186.7000 186.8000 187.6000 185.2000 184.7000 186.9000 185.3000 182.4000 180.1000 177.9000 179.5000 177.0000 176.4000 174.3000 171.5000 168.1000 165.8000 159.9000 149.7000 142.2000 134.5000 127.2000 122.2000 118.2000 115.4000 105.5000 97.3000 93.5000 90.8000 89.2000 83.6000 81.4000 77.6000 75.6000 75.2000 74.3000 74.1000 74.4000 74.5000 74.3000 70.4455 70.7727 69.0892 72.0006 74.4465 77.6000 80.0000 81.6000 83.4000 79.7000 78.8000 79.5000 80.0000 80.4000 82.4000 82.4000 80.3000 80.9000 55.6133 61.8235 54.8238 32.8484 30.7571 35.2856 37.6364 37.3927 34.3321 35.0868 38.6790 42.4758 30.2819 24.9949 24.8441 24.8983 29.8320 27.6632 24.1040 22.1574 7.4275 11.3454 12.1828 9.8803 6.0471 2.8622 1.5252 18.1447 22.6581 28.6961 31.2543 36.0521 38.6647 43.2354 49.9589 57.9316 58.2211 58.2617 58.2315 55.2050 49.1859 53.9312 57.1506 55.9083 58.1239 57.4524 51.4753 41.4546 38.9100 36.5672 33.8727 35.4008 35.7610 31.0801 27.6373 29.0410 28.0655 22.4588 23.6161 20.1566 18.3065 22.4940 17.4115 66.9000 66.0000 68.1000 72.3000 79.0000 83.7000 86.5000 88.6000 87.8000 87.0000 88.2000 88.6000 87.4000 88.2000 88.1000 87.6000 88.2000 89.2000 91.1000 93.1000 92.2000 92.9000 91.6000 90.2000 87.9000 87.1000 85.4000 83.5000 84.2000 84.1000 82.2000 80.9000 79.8000 78.7000 78.6000 78.5000 79.4000 80.0000 78.9000 78.0000 79.3000 80.9000 81.0000 82.3000 82.6000 82.4000 83.0000 83.2000 82.8000 84.3000 83.5000 84.3000 85.0000 86.9000 88.8000 89.9000 90.8000 91.5000 92.0000 92.4000 93.1000 93.7000 94.0000 95.2000 96.8000 97.1000 96.8000 96.9000 96.4000 98.0000 99.3000
202.2000 206.4000 206.9000 206.3000 205.5000 207.4000 206.1000 200.2000 201.4000 192.0000 188.2000 167.8000 150.4000 175.7000 181.2000 182.8000 180.5000 179.8000 179.9000 177.3000 180.9000 182.4000 177.5000 176.3000 177.9000 177.2000 174.9000 171.3000 170.3000 167.8000 164.1000 159.3000 149.0000 136.7000 124.1000 122.9000 124.8000 119.2000 112.1000 98.7000 91.5000 86.5000 82.5000 80.9000 78.4000 76.7000 76.2000 76.1000 74.7000 74.8000 74.7000 74.7000 74.7000 74.8000 71.0939 70.1928 70.0939 78.1166 82.0000 78.2000 78.7000 80.1000 84.2000 86.2000 80.3931 80.2857 81.4000 80.9000 82.3000 76.6951 76.7159 57.3768 63.6716 45.6236 44.9777 43.2983 32.0185 35.9706 38.7016 45.5004 45.6349 40.7015 41.9867 41.1433 34.3614 34.1937 31.2928 30.1609 32.3232 26.8924 24.4474 10.3970 13.9396 15.6298 12.3527 10.8884 8.2226 3.7839 2.3510 18.8505 23.7515 25.9934 31.5927 33.3128 36.4694 40.4008 45.2375 52.2853 53.7343 53.6776 52.2637 50.8344 48.3582 58.0536 57.3762 55.9119 60.6820 59.7476 54.3341 50.5922 41.6435 43.5666 31.5051 30.4096 33.8798 33.5647 27.7072 27.3457 20.7029 21.1569 13.6387 9.7156 6.5331 12.1035 17.6370 62.9000 63.3000 66.2000 68.2000 78.1000 82.3000 82.2000 82.9000 84.9000 86.0000 86.0000 86.7000 86.1000 85.3000 85.5000 86.5000 89.3000 90.6000 92.1000 93.4000 94.4000 94.3000 93.7000 92.3000 92.3000 90.5000 89.1000 86.6000 83.8000 82.7000 82.5000 81.5000 81.5000 80.3000 79.2000 80.0000 80.3000 80.0000 79.5000 78.7000 80.2000 80.6000 81.7000 83.0000 82.9000 82.8000 83.1000 84.1000 83.8000 85.7000 84.7000 85.7000 86.8000 88.8000 90.9000 92.4000 93.1000 93.6000 94.4000 95.0000 95.9000 96.3000 96.4000 97.1000 97.8000 98.6000 98.5000 97.6000 98.1000 99.2000 101.5000
218.9000 221.7000 221.4000 217.8000 216.8000 211.9000 208.3000 203.9000 191.7000 178.7000 155.4000 155.6000 175.7000 186.0000 183.4000 185.4000 181.3000 177.7000 171.0000 174.4000 176.3000 176.1000 175.2000 167.9000 174.1000 171.0000 165.1000 157.2000 153.0000 151.0000 146.2000 141.0000 136.5000 124.8000 115.8000 115.8000 119.0000 116.0000 108.4000 99.1000 91.1000 86.7000 82.4000 79.1000 77.4000 77.2000 76.4000 75.6000 74.8000 75.1000 74.7000 74.6000 74.4000 74.7000 73.8000 67.8430 76.1701 76.7976 75.4838 77.6651 79.4000 79.1000 80.1000 79.8178 80.6445 79.8195 80.0070 79.4733 76.4012 76.6051 58.6464 56.8384 51.6202 46.7258 46.2091 45.3456 35.7721 38.5171 42.4850 42.1970 44.8258 46.6795 43.1648 37.4376 35.4548 35.1883 33.9536 29.7448 32.6572 27.4738 20.0082 16.8339 17.2389 14.8405 13.1128 11.1218 9.1998 6.1597 3.7439 2.6897 21.9634 21.9432 28.4500 28.5099 31.3296 33.9938 37.3200 46.0500 50.0006 49.6825 45.9600 43.2723 47.5421 49.2988 53.2126 51.3297 60.4976 61.3507 57.5337 52.5723 49.8915 49.2094 46.8881 36.4116 34.3535 38.8765 24.2067 26.7348 19.5643 16.4353 5.6632 -2.0066 -6.3698 -1.2944 6.5558 4.8652 63.0000 65.2000 66.3000 71.1000 74.8000 78.7000 79.9000 81.1000 81.3000 82.0000 83.2000 84.2000 83.8000 84.7000 88.1000 90.1000 91.2000 92.3000 92.3000 93.4000 94.1000 93.3000 94.0000 93.2000 92.4000 90.8000 89.4000 87.9000 88.2000 86.6000 84.7000 82.9000 82.3000 81.7000 80.1000 79.2000 80.2000 79.8000 79.5000 79.8000 80.6000 82.3000 82.8000 82.6000 82.6000 83.2000 84.4000 84.6000 86.2000 85.8000 87.3000 89.2000 90.8000 92.4000 93.9000 94.9000 96.1000 97.1000 97.9000 98.7000 98.9000 98.7000 98.7000 99.0000 99.4000 99.5000 99.4000 99.9000 100.0000 103.1000
222.2000 219.1000 215.4000 212.1000 207.5000 202.3000 197.8000 194.0000 167.2000 176.1000 186.0000 188.0000 190.5000 187.4000 184.8000 180.7000 172.4000 168.6000 163.6000 160.3000 162.1000 165.0000 165.0000 160.9000 160.3000 160.9000 156.6000 155.2000 147.8000 133.0000 136.9000 127.2000 122.1000 119.1000 111.2000 109.3000 113.9000 109.7000 101.8000 93.4000 88.8000 90.7000 87.0000 79.9000 78.2000 77.2000 76.7000 76.1000 75.8000 74.8000 75.0000 74.7000 75.1000 74.4000 74.5000 70.5295 71.1182 71.8171 75.4321 77.8884 79.6748 77.1018 75.8644 77.1841 78.4156 79.0256 80.6918 80.4910 62.6233 64.2661 59.4731 54.0079 50.3313 51.2615 48.2013 47.3159 47.6131 37.3926 38.8544 40.4953 42.2858 45.3983 45.4521 42.8292 36.2386 36.0157 35.5001 31.5105 32.8881 33.9573 19.7434 16.6534 17.2815 14.6398 14.0921 13.4903 10.3549 6.8274 4.0462 4.0917 19.5568 21.6978 23.5377 25.7681 26.0092 26.2923 30.5509 35.8642 38.6584 36.7094 36.0503 38.3317 41.8990 41.9822 43.4002 44.7342 58.1785 56.0217 60.2417 55.2294 49.4171 49.4589 46.4959 36.9743 35.3556 12.6282 26.5745 16.1718 5.5939 -2.5703 -11.6235 -18.9177 -22.4245 -16.5879 -8.1858 -3.4462 11.7650 63.9000 66.7000 69.6000 -0.3201 73.7000 75.5000 76.9000 77.2000 77.4000 78.8000 80.3000 83.9000 85.6000 86.7000 88.9000 91.1000 90.6000 91.0000 91.5000 91.8000 92.1000 93.0000 92.2000 92.3000 91.8000 91.6000 90.0000 89.6000 88.9000 87.1000 85.5000 84.3000 82.8000 81.4000 80.6000 80.3000 80.8000 80.4000 79.5000 81.0000 82.5000 82.7000 82.2000 82.6000 83.2000 83.8000 84.6000 85.4000 86.8000 89.5000 90.5000 91.7000 92.7000 93.2000 94.3000 95.0000 96.8000 97.9000 98.9000 100.0000 99.5000 100.3000 100.7000 101.1000 100.5000 101.9000 102.6000 103.0000 104.1000
212.4000 209.8000 205.2000 199.8000 197.1000 194.3000 187.7000 177.2000 185.5000 192.1000 189.1000 189.0000 185.3000 190.2000 187.5000 181.7000 174.5000 165.2000 156.4000 154.8000 163.2000 160.0000 163.6000 165.2000 157.1000 149.9000 140.7000 136.3000 127.7000 124.6000 126.5000 127.0000 121.2000 110.9000 105.8000 102.3000 100.2000 100.2000 97.1000 94.5000 87.2000 85.2000 85.4000 81.4000 80.7000 77.9000 77.2000 76.5000 76.4000 75.4000 74.8000 74.3000 74.4000 74.1000 74.9000 72.4028 73.4582 73.0800 74.5436 76.0406 76.9723 76.5902 75.1699 75.8331 75.8573 77.8546 78.9763 62.2911 60.6483 62.9556 58.8405 54.3401 53.2043 50.8573 49.2327 48.4260 48.4096 39.8696 39.3181 40.8373 44.2767 43.2652 40.8837 37.9651 34.5581 30.2334 31.1999 27.3808 32.8681 28.3205 23.6744 20.1816 17.8461 17.9031 15.1803 14.7928 13.0925 10.2635 6.2290 3.4166 18.3763 19.0824 20.7310 22.6243 19.8515 20.5327 21.6792 24.2045 28.8147 26.8365 28.6574 35.3826 35.7121 34.7537 37.5899 45.7743 50.0612 54.7060 56.4976 54.0271 52.6739 46.4284 45.6089 44.8771 14.3794 9.2664 2.0436 -5.3274 -9.8330 -25.5248 -29.8330 -36.9668 -43.6722 -48.9769 -54.5983 -56.9609 -42.3628 -44.8195 -8.3328 3.5595 -1.2158 -3.3040 -22.7772 70.8000 72.5000 77.0000 81.4000 81.7000 82.1000 84.4000 86.3000 89.8000 88.0000 86.8000 86.8000 86.9000 89.5000 90.3000 90.2000 90.5000 90.8000 90.8000 90.9000 90.2000 90.7000 89.8000 88.5000 86.9000 85.5000 84.8000 84.0000 82.7000 81.3000 81.6000 80.9000 80.4000 81.5000 81.4000 82.2000 82.4000 82.6000 83.0000 84.1000 84.7000 86.3000 86.3000 87.7000 89.2000 89.7000 91.0000 92.2000 92.4000 93.6000 94.9000 95.6000 96.9000 98.7000 100.2000 101.5000 103.6000 104.0000 103.6000 104.4000 105.5000 106.3000 108.0000
205.3000 201.0000 197.9000 193.2000 188.1000 185.0000 180.2000 175.1000 181.7000 190.6000 182.2000 178.2000 177.9000 177.1000 177.5000 167.9000 157.4000 152.2000 147.1000 141.0000 138.1000 137.8000 137.9000 145.2000 140.0000 139.1000 132.3000 127.2000 124.2000 121.7000 115.5000 125.3000 113.5000 111.4000 105.0000 99.9000 97.1000 98.0000 91.1000 87.5000 85.5000 83.8000 82.5000 81.2000 79.6000 78.6000 77.3000 76.7000 75.9000 75.7000 75.0000 74.5000 74.9000 75.2000 74.7000 73.1000 74.5055 73.4196 74.0994 74.7270 73.7539 74.5741 75.6144 74.0958 74.6168 74.2033 63.5918 63.7732 62.4518 60.3427 56.5575 54.8834 52.5044 51.2577 50.1175 49.4127 49.1412 49.9442 41.8065 43.1364 43.6528 44.5624 44.1562 38.7981 33.5067 35.2833 30.4693 33.9544 32.7619 29.5546 26.9238 21.7921 19.7799 18.4539 19.1721 16.4340 15.3291 13.8579 8.6348 5.0504 7.2109 17.5133 19.7832 16.4990 15.7124 14.5874 15.8960 19.1294 21.5513 22.0568 25.5875 25.9137 32.9960 33.1398 34.7527 46.3074 48.8546 50.1033 59.5938 56.6023 52.5734 49.8747 49.3682 27.6249 23.8676 10.0043 -8.8211 -21.2686 -29.5866 -39.0572 -50.8951 -56.3092 -66.4593 -81.8448 -98.5730 -90.2452 -103.8606 -92.0785 -21.4565 -7.1014 -18.4341 -29.2578 -29.2790 -29.2681 -23.9316 -13.4739 77.7000 80.0000 83.6000 85.6000 86.2000 86.9000 87.0000 86.0000 85.1000 84.5000 82.6000 85.4000 87.1000 88.3000 89.2000 89.6000 89.2000 89.9000 90.3000 90.1000 89.2000 88.6000 87.3000 86.4000 85.8000 84.9000 83.8000 82.7000 81.0000 80.7000 81.4000 81.8000 82.0000 82.7000 83.1000 83.8000 84.5000 85.7000 86.7000 87.1000 87.6000 87.9000 89.4000 90.3000 90.7000 92.2000 93.3000 94.3000 95.0000 96.7000 98.2000 100.7000 101.7000 103.7000 104.5000 105.0000 106.6000 107.5000 108.2000 108.5000
194.5000 191.0000 187.9000 185.8000 183.9000 188.6000 193.6000 184.7000 181.0000 182.0000 175.9000 169.5000 167.2000 162.7000 158.3000 164.0000 156.1000 159.6000 153.3000 149.3000 144.1000 138.3000 132.0000 128.9000 124.5000 122.2000 121.1000 120.9000 125.5000 129.0000 117.2000 107.8000 103.5000 100.6000 99.9000 97.3000 94.7000 93.1000 91.7000 95.3000 92.8000 88.5000 87.9000 86.6000 81.6000 78.6000 77.7000 77.1000 75.9000 75.8000 75.6000 75.2000 74.9000 74.8000 75.4000 74.5000 75.3663 74.9065 75.0658 73.5723 72.3225 72.9491 73.7908 75.0457 73.4041 73.6897 63.0319 63.9704 60.6944 59.8867 55.5428 54.7295 53.5698 51.2747 51.5445 50.9085 50.2971 50.2016 49.9642 45.2730 44.2239 46.0922 45.6551 44.1744 37.4723 39.1314 41.8530 38.5312 32.1191 30.0057 26.3556 23.9934 22.6375 21.0541 19.3974 18.7747 18.1637 15.8283 12.8245 14.5888 9.0983 6.9026 18.1219 17.5703 15.7308 12.7009 13.5294 14.6561 17.3869 21.3940 22.4608 24.5362 24.9690 33.5275 43.7225 44.1856 49.1610 53.2945 57.4370 60.1939 54.7695 55.0119 54.2295 37.3091 21.6979 -2.2915 -15.6296 -27.4842 -41.6090 -59.3273 -72.1150 -86.1255 -94.5890 -113.2973 -126.0081 -128.8284 -127.6192 -94.4715 -107.2089 -14.3532 -14.1030 -23.0531 -22.7391 -22.4161 -22.1370 -21.9051 3.6205 7.7263 79.6000 83.1000 84.1000 82.7000 82.9000 82.7000 82.4000 81.5000 81.0000 79.2000 80.8000 81.9000 84.4000 86.7000 87.2000 89.0000 89.4000 89.0000 88.9000 89.3000 88.5000 87.5000 86.5000 85.9000 85.4000 84.0000 81.8000 81.3000 81.0000 81.6000 82.1000 82.7000 83.5000 84.3000 85.6000 86.7000 87.6000 87.7000 87.8000 88.4000 88.6000 89.6000 90.5000 91.6000 93.3000 93.9000 95.3000 96.8000 98.0000 99.6000 100.8000 102.1000 103.2000 104.9000 106.6000 108.0000 109.5000 109.0000
198.4000 196.3000 195.2000 191.3000 190.4000 191.2000 191.3000 189.8000 186.7000 184.2000 179.4000 180.2000 180.0000 174.6000 176.7000 163.8000 167.6000 167.0000 161.4000 154.1000 148.5000 141.7000 140.1000 135.5000 130.5000 124.7000 120.4000 116.1000 114.2000 112.3000 107.6000 106.6000 107.5000 108.6000 104.8000 103.8000 101.0000 98.7000 96.8000 94.5000 94.6000 94.4000 93.3000 91.9000 86.9000 80.1000 77.5000 76.7000 75.7000 76.9000 76.2000 75.8000 75.2000 74.9000 75.4000 75.4000 74.6000 74.9167 74.4850 73.1543 71.9836 72.5029 73.7514 75.8465 77.5385 66.8626 64.7470 65.2691 63.3419 61.9681 57.0678 55.7688 54.2150 52.3539 52.2726 52.4182 52.3111 51.5441 52.0117 46.5963 46.9072 46.5811 47.3141 44.4418 42.4873 45.6076 44.1437 43.1525 36.3422 32.7640 26.6527 29.4175 26.9756 24.7659 23.3355 21.0441 19.2258 18.4815 17.6757 17.6107 15.5581 8.6703 18.2119 17.6740 16.1767 15.6496 11.8801 14.5402 17.5476 20.9563 23.4723 24.5186 26.5435 28.5619 38.1897 43.7560 50.1218 57.2569 63.7596 61.4351 59.2798 58.0681 46.9505 47.8706 32.0482 12.8681 -1.8155 -23.3943 -44.6016 -64.5643 -91.1949 -114.0971 -131.5741 -143.1001 -145.5789 -138.1926 -130.2222 -113.2062 -113.9491 -111.7149 -14.1225 -19.8047 -18.8940 -18.2668 7.5155 7.4558 7.3895 7.3255 12.5697 -1.3801 78.2000 80.8000 81.0000 80.1000 79.3000 77.9000 77.6000 77.4000 76.8000 84.7000 83.0000 83.3000 86.4000 87.3000 87.0000 87.5000 88.4000 88.8000 88.6000 88.0000 87.7000 87.1000 87.0000 85.5000 83.6000 82.2000 81.5000 81.9000 82.2000 82.9000 84.3000 85.2000 86.8000 87.8000 88.9000 89.0000 88.6000 88.6000 88.9000 89.6000 90.7000 91.7000 93.5000 95.1000 95.9000 96.9000 98.2000 99.2000 100.2000 101.0000 101.7000 103.0000 105.2000 106.1000 107.6000 108.9000
216.7000 214.6000 207.1000 202.6000 203.6000 202.0000 198.3000 193.1000 192.5000 189.7000 187.1000 187.7000 190.9000 179.1000 179.0000 175.8000 179.5000 171.2000 162.2000 158.1000 156.6000 152.9000 145.8000 138.8000 134.3000 129.3000 126.5000 125.9000 126.0000 128.6000 120.8000 116.9000 111.9000 111.8000 107.4000 104.3000 103.0000 101.2000 99.5000 97.2000 95.9000 95.9000 94.8000 93.8000 90.5000 84.7000 80.9000 77.1000 77.0000 75.9000 75.9000 76.3000 75.4000 75.3000 75.5000 75.3000 74.4000 73.9282 71.8252 71.3117 72.9122 73.2896 74.2780 77.2841 80.3077 72.2595 67.4121 66.8002 67.7461 64.9636 61.8041 58.3557 56.7199 54.3806 54.5371 54.6716 54.1931 53.3321 54.3748 53.4465 48.8444 48.9201 47.9352 45.7794 46.2357 45.5756 45.0574 39.0949 37.1887 38.0132 34.1841 32.3710 31.1503 27.7571 26.5370 24.3906 23.4197 21.3953 20.8508 22.2243 19.1591 24.6851 25.8181 20.8955 21.2491 19.5127 13.5865 13.1445 19.6645 23.1356 24.9594 29.3979 29.2075 35.2910 36.9103 37.2818 45.3630 50.5165 59.3363 61.2096 58.9247 60.6101 55.8082 55.6719 42.6050 27.1191 7.3438 -13.8934 -37.5371 -62.6958 -82.4820 -114.5633 -135.7945 -126.9319 -97.1993 -133.7609 -129.8502 -125.8134 -127.8862 -93.3095 -87.2651 -7.9083 -8.6329 -8.1430 -8.0585 -8.0962 -8.1686 -8.2467 -8.3211 -8.3889 72.7000 73.0000 75.2000 77.0000 79.4000 79.1000 75.9000 74.7000 73.8000 76.3000 79.3000 85.0000 82.9000 84.9000 86.8000 87.1000 86.9000 87.7000 87.7000 88.5000 88.4000 88.8000 88.5000 87.8000 86.6000 83.1000 81.8000 81.7000 82.3000 83.3000 84.3000 84.7000 86.3000 87.8000 89.5000 89.8000 89.4000 89.1000 89.7000 90.1000 90.9000 92.3000 93.9000 95.0000 96.6000 98.5000 98.2000 99.4000 99.6000 99.3000 99.8000 101.2000 103.5000 105.6000 107.0000 107.7000
261.6000 250.4000 231.3000 221.7000 218.7000 215.8000 207.8000 205.4000 202.5000 203.0000 202.0000 204.4000 214.6000 196.9000 184.3000 177.6000 180.5000 171.0000 168.5000 164.4000 162.3000 159.0000 154.3000 148.1000 141.0000 131.3000 135.5000 135.3000 133.1000 131.9000 127.2000 122.7000 118.5000 113.4000 109.6000 109.4000 105.8000 103.2000 100.3000 99.6000 96.2000 94.5000 95.0000 93.8000 91.5000 87.2000 84.1000 80.6000 77.9000 76.3000 75.8000 76.9000 75.5000 75.3000 75.8000 75.8000 75.9000 73.4770 74.6775 74.9948 74.1063 74.6333 75.9520 76.9484 71.0790 71.8824 71.4938 69.8470 72.2019 67.8743 65.2033 61.3631 58.5681 58.0864 56.1087 56.3726 56.1478 56.3116 56.7193 55.6292 54.8799 50.7905 48.1988 48.4303 48.4403 46.0632 46.0413 40.4707 38.4228 41.6653 37.6545 35.0721 33.7710 32.2860 30.6468 27.5531 26.5549 26.2446 24.6450 24.5266 23.9548 27.9531 26.2714 24.8945 20.4547 20.5125 16.2169 16.7264 20.3703 24.5064 27.9513 28.0214 28.9654 32.6191 33.5698 34.3557 37.0336 43.9572 50.0702 51.9675 55.7279 64.1008 58.1545 63.8822 54.0820 39.6615 30.3737 14.6712 -5.4341 -45.2852 -59.5767 -80.2620 -101.0275 -76.7720 -85.2934 -97.9087 -126.2693 -123.7757 -120.7462 -95.0843 -73.4014 12.7350 14.2628 15.4509 15.9204 10.5995 10.5758 10.5576 10.5433 10.5318 17.8108 73.1000 74.0000 74.7000 73.6000 74.0000 72.4000 73.1000 76.2000 75.1000 74.5000 75.8000 80.9000 82.7000 81.2000 85.4000 87.1000 87.4000 87.3000 88.5000 89.1000 89.1000 88.6000 87.4000 84.5000 81.3000 80.3000 80.9000 82.2000 83.0000 84.0000 84.5000 85.5000 87.6000 89.4000 90.3000 90.0000 90.0000 90.1000 90.1000 90.8000 90.9000 92.5000 93.8000 95.8000 97.8000 99.4000 98.1000 98.0000 97.8000 99.2000 101.4000 104.8000 106.3000 105.5000 104.8000
264.5000 264.9000 264.1000 263.4000 260.0000 251.0000 247.7000 248.2000 224.8000 246.9000 240.7000 237.5000 229.2000 211.7000 192.5000 182.7000 179.8000 174.8000 168.4000 164.8000 160.2000 156.0000 150.2000 145.5000 140.6000 145.7000 146.0000 144.0000 142.9000 140.4000 134.3000 127.0000 121.3000 114.8000 111.0000 105.6000 103.5000 100.0000 97.2000 96.9000 94.3000 91.7000 89.3000 88.1000 86.9000 84.7000 81.7000 83.1000 82.9000 77.3000 76.3000 77.5000 76.0000 75.6000 76.1000 76.0000 76.0000 76.3000 74.1981 72.9219 75.5353 77.2823 77.0187 77.6555 76.4221 69.0953 72.9183 74.1820 69.7218 64.9514 63.2153 58.9549 59.3375 59.5777 58.1125 57.0626 57.0066 56.7004 56.4328 56.5195 55.1204 54.8780 50.8354 49.6080 49.1733 47.0643 43.5067 42.3687 42.3524 41.5777 39.5643 37.7628 36.0291 34.5745 32.3646 31.4828 29.9381 29.8314 30.1699 28.6487 28.3061 28.5840 26.3799 25.9311 24.2787 24.6449 23.0678 23.9161 23.3593 25.0055 27.6529 28.5387 27.2032 28.2871 29.7443 31.4157 32.9865 35.7121 35.7020 48.2054 58.6404 65.5409 69.6240 54.9094 56.4561 51.4443 49.3520 31.8553 23.2521 8.2318 -26.4709 -27.7195 -31.3998 -37.1024 -52.2760 -73.3850 -85.1660 -112.2713 -90.5967 -89.7654 -81.6292 -75.8026 24.0367 25.1688 25.4096 25.0349 22.5453 22.5634 24.5133 24.5970 25.1996 37.1146 37.1146 74.5000 73.8000 72.6000 70.4000 69.9000 72.4000 73.1000 74.6000 74.9000 73.6000 76.8000 76.9000 78.8000 85.5000 86.0000 87.8000 88.5000 88.8000 88.1000 86.6000 84.6000 82.4000 80.0000 78.3000 80.3000 81.6000 82.6000 83.5000 84.2000 85.0000 86.3000 87.5000 89.5000 89.5000 89.9000 89.5000 88.2000 88.1000 88.1000 88.6000 90.4000 92.8000 94.6000 96.5000 96.7000 96.9000 96.6000 100.1000 101.6000 104.4000 106.6000 107.2000 105.0000
237.7000 243.2000 240.6000 237.3000 236.6000 235.6000 238.8000 235.6000 231.5000 236.2000 228.0000 229.6000 223.2000 216.0000 216.5000 206.5000 188.7000 184.6000 165.6000 178.6000 169.4000 164.9000 142.9000 154.9000 151.8000 151.5000 152.3000 151.8000 148.6000 143.1000 135.9000 128.5000 123.3000 117.8000 112.2000 108.0000 105.4000 102.7000 100.4000 96.3000 91.8000 87.5000 85.4000 84.4000 83.7000 81.5000 80.0000 79.9000 83.7000 82.4000 78.2000 76.9000 76.8000 76.7000 75.9000 76.2000 76.1000 76.2000 76.3000 75.6353 78.4489 77.7833 79.8173 79.2935 75.4232 73.4790 74.8439 74.4065 72.5250 67.9450 64.5732 63.2016 61.4655 60.8078 59.3513 58.0868 57.1946 55.7265 52.4791 56.0166 54.5400 54.8721 53.7940 50.2380 49.3186 48.2304 44.7937 45.1668 43.6243 43.2595 40.8458 39.5474 38.9767 36.3963 35.9529 34.0942 34.2320 33.7250 32.7554 32.5098 30.7355 30.5420 29.8908 29.7759 29.8235 30.5812 29.9089 28.3678 28.5673 28.1467 29.5278 28.2237 28.3367 28.4874 28.6480 33.5982 36.8270 36.8071 31.1226 53.8972 59.2936 64.6332 63.1017 51.0376 48.7936 47.1970 43.1824 45.8526 40.2180 18.9284 2.5170 8.2064 6.9880 -2.8306 -26.6048 -45.8475 -67.7218 -87.3728 -77.4126 -66.9892 -72.3771 -63.9824 35.5383 35.9378 35.5461 34.4780 34.6320 34.6456 34.6521 35.0090 35.0540 37.1146 37.1146 35.0856 70.5000 67.7000 68.0000 68.0000 71.0000 69.6000 70.4000 71.6000 75.4000 73.7000 74.5000 78.6000 79.3000 82.4000 86.5000 88.2000 87.4000 86.3000 85.0000 82.2000 80.6000 77.7000 78.0000 79.5000 82.0000 83.6000 83.6000 83.4000 83.9000 86.3000 86.8000 87.4000 87.7000 88.2000 88.6000 88.4000 87.7000 88.6000 85.2000 90.6000 92.1000 94.1000 94.6000 95.1000 95.2000 97.3000 101.2000 102.9000 104.4000 104.6000 106.7000 107.2000
230.0000 217.8000 221.3000 219.7000 214.6000 220.1000 220.2000 217.2000 210.4000 210.5000 209.2000 204.2000 202.4000 202.9000 205.2000 207.7000 203.6000 197.4000 175.8000 174.1000 185.7000 174.3000 169.3000 164.4000 154.2000 162.3000 160.9000 157.3000 150.8000 147.1000 141.9000 134.1000 127.3000 121.0000 115.4000 111.3000 107.2000 103.2000 100.7000 97.9000 94.8000 91.6000 89.6000 94.3000 89.7000 84.5000 81.3000 80.0000 80.9000 81.0000 77.8000 78.1000 77.4000 76.6000 76.8000 76.2000 76.0000 76.4000 75.4000 76.1000 75.1000 76.9000 78.2576 78.2649 75.7064 76.5804 77.0585 78.6984 77.5021 71.6032 67.9325 66.6989 68.7431 63.4303 62.1765 61.4440 60.1816 58.5879 56.1316 53.5249 49.6493 50.6813 53.6144 51.8713 50.0344 48.1149 48.1956 46.9733 45.0785 44.0962 43.1105 41.0398 40.3092 39.1641 38.3788 37.8571 36.8482 35.9107 34.9516 36.4770 34.8102 35.3541 32.4645 34.2912 37.0765 37.3765 36.5486 34.8122 31.5435 31.8903 25.6324 29.1228 32.5291 32.8989 30.0702 32.1798 37.7115 43.4943 44.0873 46.9582 62.1159 63.6766 62.8649 28.3477 41.7474 39.4110 44.7712 39.5904 34.4140 33.2888 17.1997 11.9942 7.6850 -4.6029 -4.8921 -28.4973 -48.0925 -62.8709 -57.0499 -48.5736 -37.9409 -44.3568 37.9911 37.6174 37.0664 36.3040 37.0503 37.0520 37.3396 37.3340 37.3309 37.1146 34.0712 34.0712 34.0712 70.2000 72.4000 70.2000 69.6000 69.7000 71.2000 71.7000 74.0000 74.0000 73.4000 76.3000 79.5000 82.5000 86.3000 84.9000 83.7000 83.5000 81.1000 79.4000 76.7000 76.2000 80.3000 78.8000 82.3000 84.8000 84.9000 83.9000 83.1000 84.6000 85.3000 85.5000 86.4000 86.7000 87.4000 88.8000 86.0000 90.7000 91.2000 90.3000 90.3000 92.1000 92.7000 93.6000 94.0000 95.5000 98.0000 100.5000 101.7000 102.2000 102.9000 103.2000
218.6000 200.4000 214.9000 210.6000 204.0000 198.1000 203.3000 213.0000 216.0000 203.2000 189.8000 185.0000 183.9000 185.5000 187.9000 188.7000 186.0000 186.9000 183.5000 177.3000 174.9000 170.0000 167.2000 164.9000 164.9000 167.9000 167.3000 160.4000 154.1000 147.6000 142.3000 135.2000 129.0000 124.2000 117.5000 111.7000 107.3000 103.3000 99.8000 96.2000 92.9000 91.0000 89.2000 89.7000 91.7000 90.3000 85.4000 81.0000 80.1000 79.6000 78.0000 78.4000 76.8000 76.8000 76.6000 76.8000 76.0000 76.1000 76.1000 76.3000 76.9000 75.9657 73.2479 76.9669 79.6964 79.0484 77.8389 78.1610 76.7945 72.3886 68.5716 70.2176 72.3875 64.6905 64.4696 60.6348 59.8609 58.1488 57.9330 55.2435 53.5411 53.5762 52.8635 51.7258 50.3512 49.6034 47.6220 47.3794 45.1586 44.6365 44.3914 44.9074 43.4224 43.7708 43.1402 42.8753 40.5377 39.3252 35.3078 37.5169 35.7033 38.7488 35.9458 40.2561 44.8143 44.5511 42.4788 39.9227 36.6329 31.8381 32.7891 30.8424 30.9849 40.8692 42.8585 41.1878 43.2129 50.0191 59.8368 56.1025 61.8287 64.1417 62.5789 29.0912 14.2046 15.7165 7.7347 12.3012 10.7253 18.2784 9.2004 18.3764 17.5109 6.6777 4.3252 -14.7077 -27.7519 -38.6309 -34.4003 -30.8971 -22.7524 -19.0572 37.4278 37.7187 37.1655 36.3511 37.5142 37.4928 37.4813 37.4761 37.4748 34.0712 34.0712 34.0712 34.0712 23.6932 66.6000 67.4000 71.0000 72.9000 71.1000 71.9000 72.4000 75.5000 76.2000 77.8000 77.9000 80.4000 81.8000 83.3000 82.2000 79.7000 78.3000 76.8000 75.1000 76.0000 78.3000 80.3000 83.9000 83.7000 84.9000 83.7000 82.5000 83.4000 84.1000 84.2000 85.0000 86.4000 87.1000 88.1000 88.3000 88.8000 88.7000 88.7000 89.5000 90.7000 91.0000 92.1000 92.5000 93.8000 95.2000 96.8000 97.6000 98.4000 99.9000 100.0000
197.3000 190.7000 196.1000 194.0000 193.4000 184.4000 199.5000 190.0000 194.7000 193.1000 185.8000 177.9000 176.8000 182.4000 180.4000 177.8000 175.3000 174.0000 172.5000 169.9000 167.5000 165.0000 163.3000 161.2000 166.3000 172.5000 167.9000 161.6000 156.4000 149.5000 141.9000 135.5000 127.5000 120.8000 116.5000 112.1000 107.9000 104.4000 101.6000 97.9000 95.6000 94.9000 91.0000 90.6000 91.5000 90.4000 89.4000 86.0000 82.2000 79.2000 78.1000 78.5000 76.9000 77.3000 75.3000 78.6000 76.5000 75.9000 76.4000 76.6000 75.9000 76.7000 74.9603 76.2179 78.5706 79.6205 78.1599 76.5441 74.0484 71.6144 70.4134 68.5314 67.4466 66.0857 65.1300 64.8283 63.9302 60.6467 59.6381 62.8430 67.1756 63.1888 56.8494 53.5077 50.6623 47.3891 49.5557 46.2773 45.2582 43.1931 45.0269 46.0389 48.0379 47.4511 48.4660 47.3012 45.2092 39.9415 37.5288 34.1382 33.3884 32.8090 45.0846 43.8106 47.3024 47.1786 46.7545 43.8227 37.3171 36.5312 33.7195 42.2331 35.8559 36.9387 45.1062 44.8337 42.8273 46.2735 56.7944 52.3650 48.9799 61.8009 22.3285 23.0143 4.4901 -3.2592 -13.1440 -8.3649 -3.6975 5.0667 3.4158 13.5564 20.5999 12.4189 0.2505 -0.9003 -9.7992 -17.9596 -15.3642 -13.5207 -9.6444 -5.8910 34.9534 35.2464 34.8239 36.0543 36.8593 36.8734 36.8793 36.8806 35.1016 35.0979 34.0712 34.0712 34.0712 13.9430 12.6875 12.6875 72.0000 72.5000 71.5000 72.0000 72.0000 74.3000 79.5000 79.2000 80.4000 79.8000 79.1000 78.5000 78.0000 77.5000 78.1000 78.1000 75.7000 73.7000 76.4000 78.8000 82.0000 83.5000 83.2000 82.2000 80.6000 82.0000 82.0000 83.9000 84.8000 86.0000 86.7000 87.6000 87.8000 88.0000 88.0000 88.6000 89.1000 89.8000 90.0000 91.2000 91.1000 92.4000 94.1000 94.6000 95.3000 96.3000 98.3000 97.6000
181.8000 180.0000 180.6000 180.5000 182.3000 180.0000 176.1000 175.8000 176.9000 178.3000 178.3000 173.0000 180.3000 182.8000 183.5000 181.2000 179.5000 174.8000 172.5000 169.4000 167.4000 165.0000 163.3000 164.9000 168.0000 165.7000 163.4000 158.0000 152.7000 147.5000 138.2000 133.6000 127.9000 121.8000 115.3000 110.4000 104.5000 100.2000 99.4000 96.9000 94.7000 92.6000 91.3000 92.8000 94.0000 92.6000 90.4000 87.0000 82.4000 79.5000 79.1000 78.8000 77.7000 77.2000 84.9000 85.3000 80.9000 75.3000 75.3000 75.4000 77.1000 76.7000 76.5000 77.7000 79.8000 81.4000 76.3378 74.4531 75.6985 73.0624 69.8830 65.7891 66.6433 72.0958 72.7817 72.5953 68.6666 64.7653 63.1224 63.1948 64.4025 63.0801 65.1066 60.6953 50.3791 48.2616 47.1668 48.6782 47.8094 39.8490 48.2926 49.6303 51.5581 54.0109 52.7772 53.4018 50.0231 44.9702 39.0253 38.7233 37.4906 38.8831 38.3524 42.3396 46.7331 46.7735 48.5794 47.7354 42.2296 38.6926 50.1693 43.2700 38.9854 35.5806 28.3561 38.8243 39.3178 36.9576 28.2498 36.2576 39.6562 55.5492 15.1261 14.8800 -5.6442 -15.5536 -19.8830 -16.4772 -3.3332 2.1007 -0.8019 8.1524 12.4657 12.2848 4.4622 2.5455 4.6065 1.2548 -0.4608 -1.5781 -2.5631 -0.5050 5.7184 34.1378 33.2325 34.4449 33.8232 33.7194 33.5310 31.5944 30.4705 29.2209 25.3787 24.6810 24.0692 13.3172 12.6875 12.6875 12.6875 11.0529 73.0000 74.0000 75.8000 76.6000 76.4000 76.9000 79.2000 80.5000 80.8000 81.0000 79.2000 80.5000 79.6000 79.2000 76.9000 72.3000 73.3000 74.9000 79.1000 81.9000 84.7000 79.9000 77.8000 82.4000 85.2000 86.1000 85.9000 85.4000 85.9000 86.8000 86.9000 87.2000 87.3000 87.9000 87.8000 88.3000 89.2000 89.8000 90.3000 91.9000 93.0000 94.0000 93.7000 94.1000 94.9000 95.2000
171.9000 169.4000 177.1000 169.9000 169.1000 168.4000 165.8000 165.0000 163.5000 163.6000 163.9000 160.6000 169.6000 173.5000 175.7000 175.1000 175.2000 175.1000 176.4000 175.9000 173.1000 169.6000 168.4000 165.6000 164.1000 162.2000 159.2000 152.1000 141.6000 137.4000 132.0000 128.1000 122.1000 118.0000 112.8000 108.4000 104.9000 101.5000 97.6000 93.0000 91.4000 91.4000 91.5000 91.8000 95.0000 93.4000 90.8000 83.9000 78.5000 79.2000 79.3000 77.9000 77.9000 80.8000 85.8000 83.0000 90.5000 79.8000 75.4000 75.4000 75.4000 75.3000 77.6000 77.1000 76.6000 72.6865 72.5725 74.3289 74.4227 71.2660 67.7494 70.4336 71.4254 70.7365 72.4909 72.8972 77.5454 71.1940 66.3606 88.2786 90.3778 89.3270 86.3163 58.4211 57.5035 58.0687 57.4974 58.1072 54.6520 59.2742 62.5744 56.0510 57.3063 60.1452 61.4149 59.9156 54.2764 48.2008 43.2988 43.5643 43.8746 42.0341 39.7293 36.8738 41.3629 50.3365 50.2989 46.9384 47.2990 59.8853 52.9209 48.8340 46.8850 44.5307 41.0420 36.6105 46.1287 38.1989 28.3233 33.4209 41.5336 36.6617 8.6582 7.4839 -15.4663 -18.6229 -22.7978 -18.9719 -11.3513 -3.2603 -3.8134 -6.6906 -1.2926 2.0020 1.9389 12.7039 16.2750 15.4269 12.5640 7.9126 7.6812 7.4364 21.8331 9.2027 37.2144 35.3108 34.8410 34.5510 32.6681 32.1838 30.9747 29.6215 25.2184 24.4071 17.1975 13.3177 11.4577 8.8146 6.1490 12.6875 12.6875 5.7428 72.2000 73.8000 75.7000 77.3000 79.2000 80.4000 80.8000 80.4000 81.6000 80.1000 79.8000 77.3000 74.0000 70.5000 70.1000 70.6000 75.0000 80.7000 83.6000 78.6000 79.9000 81.9000 84.0000 82.7000 87.8000 87.1000 85.0000 85.5000 85.5000 85.9000 86.5000 86.6000 87.1000 87.9000 88.8000 89.1000 90.0000 90.6000 91.5000 91.9000 92.3000 92.9000 92.3000 92.0000
164.3000 160.0000 160.2000 156.8000 154.4000 155.0000 154.7000 153.0000 153.3000 152.6000 153.8000 151.6000 153.3000 157.4000 160.4000 165.1000 167.1000 170.1000 172.2000 171.0000 168.9000 169.0000 166.3000 163.2000 159.8000 159.1000 156.2000 148.0000 141.9000 134.7000 125.8000 117.8000 113.3000 110.1000 105.8000 102.0000 100.2000 98.4000 96.7000 93.9000 91.8000 88.2000 89.7000 93.5000 94.5000 93.3000 89.9000 85.7000 81.2000 79.3000 78.3000 78.0000 78.6000 85.3000 87.8000 87.2000 82.9000 83.1000 78.4000 77.0000 77.1000 77.3000 77.8000 82.5000 71.4590 72.7362 72.9781 72.5439 73.8168 71.1460 69.8163 69.8695 75.0690 87.4000 87.3000 82.7264 81.7016 81.9203 86.0644 93.1237 90.9923 87.2023 85.8083 84.1374 81.7859 57.6899 57.8911 59.4046 67.3619 69.1428 72.4761 68.9378 69.0203 70.8130 70.5212 65.8942 61.0244 52.9633 53.1108 50.6401 49.2591 56.7462 51.9323 52.4344 60.2078 53.6591 52.3125 52.2928 51.6972 59.7179 57.7565 56.3269 55.1596 55.2504 62.1131 60.6045 50.7376 49.2671 47.2981 45.1988 41.7789 42.8450 13.2276 -0.9588 -5.5361 -12.0261 -20.5082 -22.4602 -19.0298 -14.6675 -16.7871 -22.5755 -20.4692 -9.7405 3.2094 12.0462 26.7247 26.6016 20.1836 15.0111 9.3676 7.8745 3.6485 2.1266 10.0646 35.3237 34.8564 34.2674 32.3376 31.7962 30.5205 29.0815 26.6578 17.2826 17.1867 13.3184 11.4690 8.8453 6.1779 5.3742 1.8871 2.6540 4.2005 71.8000 74.2000 75.3000 78.5000 79.8000 79.9000 80.1000 79.6000 77.5000 76.0000 73.8000 71.9000 69.5000 68.6000 66.6000 67.6000 70.3000 71.5000 80.3000 80.4000 76.5000 77.5000 80.7000 83.8000 85.4000 84.7000 82.9000 85.1000 83.8000 85.9000 86.1000 86.9000 88.2000 88.7000 88.4000 89.0000 89.5000 90.3000 90.7000 90.8000 90.6000 89.9000 90.3000
153.2000 153.6000 151.0000 148.4000 148.1000 148.0000 147.4000 147.7000 146.1000 145.8000 145.3000 146.0000 145.0000 148.5000 146.9000 152.5000 159.7000 162.4000 163.5000 163.5000 163.7000 165.2000 162.4000 158.5000 154.6000 150.7000 145.9000 140.3000 133.0000 127.5000 124.0000 119.2000 113.2000 107.8000 104.1000 100.1000 97.0000 93.8000 90.9000 90.8000 91.2000 90.2000 87.5000 89.0000 91.2000 90.7000 87.5000 82.6000 80.0000 78.8000 78.4000 77.6000 80.9000 86.9000 85.4000 84.1000 84.9000 99.3000 83.1000 78.4000 77.1000 77.4000 77.1000 77.7000 72.0113 71.8387 72.6373 72.5168 73.7896 74.1501 75.6263 76.1065 76.2734 86.2000 88.5000 82.0203 81.4896 81.9415 85.1714 91.7563 89.5884 86.8920 85.9627 86.3158 84.8517 88.3000 88.3000 87.8000 86.6000 69.6603 71.5977 73.3257 74.9662 72.5175 69.9231 68.7376 67.7259 65.7404 62.6322 59.2972 66.2660 65.2369 65.4815 68.6816 66.3301 62.1879 57.6076 55.8605 60.6022 60.7752 62.9925 64.1504 58.1833 58.7477 65.6223 62.9605 59.8350 62.3432 68.2616 62.5729 55.7505 -3.1706 5.8881 1.6935 -4.0540 -11.4583 -18.3514 -22.2540 -24.1115 -21.7227 -30.1901 -31.2041 -32.9828 -16.8670 1.9758 8.7449 36.9469 40.1555 33.6946 38.5574 23.5048 21.6045 17.8527 15.8074 17.5742 4.7502 -1.4018 34.5795 34.2339 33.6342 32.3256 30.8094 23.5537 22.8338 22.2809 18.8396 11.4840 8.8849 6.2105 5.4168 1.8639 2.6377 7.3100 15.0487 70.0000 71.8000 76.0000 65.0000 76.4000 77.4000 74.7000 72.8000 71.9000 68.1000 68.4000 67.9000 67.9000 66.7000 66.2000 69.0000 73.8000 72.9000 80.4000 75.4000 81.7000 85.3000 85.1000 86.2000 85.4000 85.6000 85.7000 85.6000 84.7000 85.3000 87.2000 87.8000 87.9000 87.9000 88.0000 88.4000 88.9000 88.9000 89.0000 88.7000 89.4000 90.4000
149.4000 149.4000 147.8000 143.5000 143.2000 142.7000 141.7000 141.9000 140.9000 140.6000 140.3000 140.4000 140.3000 143.7000 139.1000 143.3000 151.0000 154.0000 151.6000 150.7000 152.9000 156.3000 152.6000 149.6000 145.6000 142.9000 138.1000 137.9000 128.5000 119.4000 116.1000 115.4000 113.9000 112.2000 108.5000 104.8000 101.8000 98.3000 93.3000 88.1000 85.9000 84.5000 84.7000 86.1000 91.4000 86.6000 84.0000 80.6000 79.3000 78.6000 78.5000 78.0000 82.3000 83.0000 82.9000 80.8000 81.4000 83.6000 82.1000 77.6000 77.5000 77.5000 77.5000 77.6000 77.6000 73.2176 75.1767 75.7221 75.3985 75.0504 76.2443 77.6000 81.8000 86.2000 85.3000 83.0271 81.8627 81.4897 84.7584 88.5470 88.9303 88.3829 90.7381 90.6329 87.2668 92.8000 93.9000 92.0000 91.0000 91.0000 91.4000 92.0000 91.5000 90.5000 79.7184 76.7375 74.6692 73.7427 75.5455 80.8000 75.7180 71.9373 75.0807 71.2531 71.6123 70.3294 62.3514 69.9118 63.6632 64.6669 66.5161 66.7084 66.0622 67.6363 65.1845 63.4328 67.5428 68.2197 67.0411 63.3265 66.7209 -13.5051 -18.2931 1.5809 -5.6440 -10.6120 -15.1467 -19.5835 -21.7068 -28.3112 -34.5145 -38.6598 -40.1203 -24.0612 3.0695 6.9478 43.7593 46.9578 47.0086 36.3103 24.2080 18.9516 13.3811 14.7747 11.0345 2.5301 -11.4857 33.4889 33.1013 32.4788 31.1169 26.2108 22.6231 21.8843 21.3195 17.8668 16.3640 8.9378 6.2455 5.4524 1.8340 2.6193 7.3284 20.1139 25.4424 26.6184 71.9000 72.9000 72.4000 74.4000 71.5000 67.5000 64.7000 63.9000 65.2000 64.7000 64.9000 65.1000 65.5000 66.8000 68.0000 68.7000 70.8000 75.0000 83.0000 84.0000 86.2000 85.7000 85.3000 86.1000 85.4000 85.6000 85.2000 86.2000 86.7000 86.6000 86.7000 87.3000 87.0000 87.5000 87.2000 87.4000 87.9000 88.5000 88.7000 89.7000
141.4000 143.8000 142.8000 141.8000 138.6000 138.0000 136.9000 136.3000 135.6000 135.3000 135.1000 134.6000 135.5000 137.4000 136.4000 139.6000 140.6000 142.0000 140.6000 140.2000 140.1000 140.7000 139.8000 138.1000 134.2000 131.7000 125.5000 126.4000 123.9000 122.2000 117.3000 108.3000 104.2000 107.4000 106.8000 104.5000 100.6000 95.0000 89.6000 85.8000 85.1000 83.6000 82.4000 82.7000 81.2000 80.6000 81.1000 80.3000 79.9000 78.4000 78.8000 78.6000 80.6000 80.7000 81.2000 80.4000 80.0000 83.1000 84.5000 81.9000 77.5000 78.0000 77.8000 77.7000 78.2000 78.1000 75.2347 76.0579 76.8516 74.2168 74.4565 76.4709 86.3000 83.9000 80.9473 80.6553 80.3161 84.1363 85.6660 86.1589 87.4989 89.3504 89.9180 97.9000 97.7000 98.3000 99.2000 99.4000 100.1000 100.7000 98.1000 100.7000 102.2000 102.3000 98.6000 96.0000 93.8000 91.6000 82.6362 81.5100 87.9000 84.5000 81.8000 73.6023 76.4632 73.8872 79.1000 72.3029 69.1453 65.2569 66.0665 66.7080 67.3323 66.1971 64.6413 69.7703 69.1494 72.4704 75.2794 76.7934 -6.8998 -10.8469 -15.0089 2.4590 -3.0124 -10.9160 -13.6037 -15.4652 -16.1282 -29.2342 -32.9359 -38.2008 -40.9623 -3.5830 15.7979 8.0627 51.2586 45.7748 45.5398 35.9839 23.7181 16.0823 14.0992 8.6873 4.4120 -3.3796 -12.9869 34.2519 33.8913 30.4827 28.4830 25.6116 22.0023 21.2433 20.6506 17.1097 15.6279 9.0111 6.2775 -2.0644 1.7943 2.5996 7.3730 20.1067 25.4400 27.7103 27.8809 28.7649 72.3000 68.7000 63.9000 62.3000 61.3000 62.1000 72.0000 66.7000 64.2000 64.0000 67.3000 66.6000 67.0000 68.3000 70.5000 73.3000 78.1000 83.2000 82.5000 84.6000 85.6000 85.9000 85.9000 85.5000 85.8000 85.6000 86.2000 86.5000 86.2000 85.9000 85.8000 86.3000 86.3000 86.4000 87.2000 87.3000 87.4000 87.4000
136.5000 136.9000 137.0000 138.3000 135.8000 131.6000 131.2000 131.1000 130.3000 130.6000 131.4000 130.4000 129.0000 129.8000 128.2000 129.6000 131.3000 132.5000 134.1000 133.6000 131.5000 129.2000 129.8000 129.3000 128.8000 123.6000 120.2000 116.5000 114.9000 113.8000 111.6000 108.8000 102.6000 101.8000 98.4000 101.5000 99.4000 91.9000 87.6000 84.4000 83.8000 82.6000 82.2000 81.1000 81.3000 81.1000 80.5000 80.1000 78.7000 77.8000 78.2000 79.3000 79.7000 80.0000 80.1000 81.1000 81.0000 84.9000 85.2000 77.4000 80.8000 80.6000 77.6000 78.0000 78.1000 78.7000 74.6589 73.9820 75.5347 75.0984 74.2636 84.1000 88.9000 85.4000 80.3369 79.7698 83.7143 83.7726 86.0132 85.4752 85.4375 98.3000 102.8000 105.0000 106.1000 107.5000 108.7000 106.5000 108.7000 107.7000 108.3000 106.9000 113.0000 114.1000 109.8000 108.3000 100.8000 99.3000 98.7000 96.0000 92.8000 89.5000 85.9000 85.5000 81.6000 80.6000 80.5000 72.9628 69.8131 70.5567 67.9748 67.5937 67.3037 65.0050 69.4612 72.7902 74.0217 74.3189 76.6111 78.8894 6.2200 -9.4671 -14.8226 -20.8969 -0.4915 -11.2332 -10.4449 -12.0566 -12.1079 -26.3995 -29.1191 -36.2883 -38.6615 1.2693 5.3207 13.5984 42.5340 42.2429 39.9809 29.7873 11.2489 14.0125 7.6713 3.0960 -1.2252 -8.6377 -9.6225 34.4625 33.8646 30.0528 27.9695 24.9642 25.5471 20.6129 19.9346 16.3186 11.5833 9.1183 6.2876 -2.0380 1.7390 2.5816 11.3740 20.0949 25.4361 27.7075 27.8943 30.5195 34.2630 60.8000 59.9000 59.8000 62.7000 61.8000 62.7000 62.6000 64.6000 63.1000 68.1000 74.9000 71.4000 76.9000 77.1000 77.7000 78.5000 81.0000 84.6000 82.8000 83.1000 84.4000 84.8000 84.9000 84.1000 84.3000 86.8000 86.3000 85.2000 85.2000 85.5000 85.9000 85.9000 85.8000 86.4000 86.3000 85.7000 85.5000
133.2000 132.0000 131.5000 133.0000 131.3000 129.2000 125.8000 126.1000 126.4000 125.8000 126.1000 127.1000 124.9000 124.3000 123.5000 124.1000 125.4000 125.0000 126.5000 129.2000 130.1000 124.4000 120.5000 126.9000 128.2000 123.5000 119.3000 112.3000 108.5000 108.2000 104.1000 100.2000 96.6000 93.9000 90.9000 90.0000 88.1000 86.6000 84.2000 83.3000 82.9000 82.5000 82.3000 82.2000 82.0000 81.5000 81.6000 79.8000 79.3000 78.7000 78.2000 78.1000 81.6000 80.3000 79.9000 79.7000 83.7000 86.3000 83.7000 83.1000 83.1000 85.1000 78.0000 78.4000 78.2000 73.0392 74.2140 74.3816 75.4136 74.1174 75.6371 87.6000 89.4000 88.4000 82.0195 78.8683 83.5261 87.7021 87.7380 84.6785 102.1000 105.1000 110.2000 114.2000 115.7000 117.6000 117.6000 118.0000 123.1000 123.5000 124.1000 121.7000 125.1000 129.0000 124.7000 121.9000 110.6000 113.8000 111.9000 102.9000 100.4000 97.1000 93.3000 89.0000 84.9000 82.7000 82.3000 81.8000 75.4335 70.7077 70.5691 69.5309 69.0609 70.8258 72.3742 73.5805 74.4040 74.2765 76.3807 5.4669 7.2726 -12.9748 -20.4729 -15.6562 -18.6240 -15.9278 -8.3292 -9.7069 -9.6704 -20.2491 -27.6278 -33.0390 -31.8617 -18.6265 9.8732 23.4018 17.2628 24.8093 31.4331 10.9101 7.3125 -2.9184 2.3919 -6.6476 -6.5386 -13.4859 -12.6536 35.9923 33.9668 29.4925 27.3546 24.2161 24.7287 20.0016 19.0905 15.4603 11.6717 9.2815 6.2105 -1.9957 1.6582 2.5759 11.3487 20.0735 25.4291 27.7025 27.9140 30.4831 34.6559 41.3934 41.4258 60.6000 61.7000 60.2000 60.4000 60.8000 62.6000 63.6000 64.7000 70.4000 78.1000 77.4000 79.0000 80.1000 81.2000 80.8000 81.3000 83.8000 82.6000 81.8000 83.4000 82.8000 82.6000 84.1000 85.8000 84.9000 85.2000 85.3000 85.7000 85.7000 84.2000 85.1000 84.9000 84.5000 83.8000 83.4000
130.3000 126.6000 126.6000 127.9000 127.4000 125.9000 122.0000 122.2000 123.3000 121.4000 122.0000 122.9000 121.2000 118.1000 118.4000 120.2000 121.0000 120.0000 121.8000 122.2000 122.5000 123.4000 117.1000 122.9000 122.9000 119.4000 117.7000 113.8000 110.2000 103.5000 101.0000 97.1000 95.0000 93.0000 88.8000 86.9000 85.1000 84.4000 83.8000 82.8000 82.8000 83.1000 84.1000 83.5000 82.9000 82.1000 81.6000 79.6000 79.5000 79.1000 80.1000 79.1000 78.9000 82.1000 80.7000 81.3000 83.6000 86.5000 85.8000 86.4000 82.4000 87.5000 78.4000 78.2000 71.4150 71.6385 73.2650 74.3265 75.8723 76.5828 76.2112 79.1063 80.0056 81.9434 84.0218 87.2665 85.8148 88.8014 91.6618 88.0261 109.7000 113.0000 119.9000 123.3000 125.2000 129.3000 128.0000 130.1000 135.2000 138.0000 137.3000 134.1000 136.8000 137.8000 135.7000 131.7000 128.0000 126.9000 117.1000 118.5000 114.9000 105.8000 100.9000 95.0000 89.2000 86.5000 85.2000 84.5000 83.0000 77.4041 72.2586 71.6756 69.6844 70.2646 72.0440 72.8110 74.4037 73.4436 75.5108 12.2406 2.9081 -20.3899 -25.0899 -29.0448 -26.4741 -17.1115 -5.3258 -5.5024 -9.3033 -15.3850 -21.5525 -24.5184 -23.8087 -14.4095 2.1880 8.0537 22.2522 15.3438 13.8810 1.3344 -5.1990 -8.6105 -9.3740 -10.2434 -10.8932 -15.8373 -10.5646 36.7405 34.4702 29.5807 -13.6969 -17.4006 23.5300 19.6009 19.8916 14.6131 11.8773 9.5017 1.8699 -1.9184 1.5353 2.6193 11.2960 20.0289 25.4143 27.6919 27.9454 30.4301 34.6465 41.3959 41.4880 41.4880 57.6000 59.2000 59.2000 60.1000 60.0000 62.2000 63.9000 67.1000 70.5000 75.3000 77.2000 78.4000 80.2000 81.5000 82.1000 82.4000 83.6000 83.3000 80.7000 81.6000 82.4000 83.4000 84.1000 84.2000 84.0000 85.1000 84.9000 84.5000 83.6000 83.9000 83.5000 82.6000 82.4000 83.0000
129.0000 126.1000 122.2000 123.7000 124.6000 122.4000 119.8000 119.8000 120.3000 119.2000 116.7000 118.1000 117.3000 114.4000 114.3000 116.1000 116.6000 116.6000 114.3000 114.8000 115.9000 115.4000 108.2000 113.7000 112.9000 114.7000 112.4000 109.5000 107.9000 105.9000 101.9000 96.5000 93.8000 91.6000 88.5000 86.1000 84.7000 84.2000 84.3000 84.3000 83.7000 83.5000 83.0000 82.9000 82.5000 81.4000 80.7000 81.5000 83.5000 83.1000 82.3000 81.7000 85.2000 90.0000 89.7000 89.9000 87.6000 85.8000 83.1000 83.9000 79.2000 78.5000 79.0000 68.2196 69.4093 73.1973 74.9305 74.8094 76.6465 78.2064 81.0890 79.6233 79.5019 80.8917 85.3603 89.7244 90.5173 91.5979 91.2069 113.1000 116.4000 124.6000 125.2000 129.7000 135.0000 142.2000 142.9000 144.7000 146.8000 147.7000 148.6000 147.1000 146.7000 143.4000 141.3000 139.5000 137.5000 133.5000 128.2000 130.7000 125.2000 118.3000 113.4000 106.8000 97.5000 92.8000 89.4000 88.7000 85.3000 76.7581 76.3841 72.1337 72.3187 72.1029 70.6171 70.5404 71.5233 72.3411 73.5846 37.7100 1.0718 -19.2612 -39.0269 -45.6582 -29.4876 -12.8561 -1.5022 -3.3823 -5.5610 -8.5971 -11.0888 -17.5091 -16.1889 -11.1911 -0.7412 12.8069 17.3913 8.8764 -6.0074 -16.7813 -30.3876 -25.8896 -22.1975 -20.3150 -15.9247 -10.3352 -2.6002 -4.3000 -7.5343 -12.6026 -12.5123 -15.9757 -23.7139 -23.0099 19.3714 13.9430 12.6875 9.5712 4.5667 0.9619 3.3842 7.0749 11.3862 18.9648 23.8963 26.0917 26.3314 30.3493 34.7185 41.3997 41.4880 41.4880 59.4000 57.4000 59.5000 62.0000 60.3000 61.0000 62.1000 64.7000 67.5000 74.5000 74.4000 76.1000 77.6000 80.7000 83.4000 84.0000 83.2000 84.4000 84.1000 80.3000 80.8000 81.7000 83.5000 82.7000 83.6000 84.1000 81.5000 83.5000 82.7000 81.8000 81.4000 80.3000 81.4000 81.6000
125.1000 124.8000 122.5000 118.9000 118.9000 118.4000 117.5000 114.7000 117.0000 116.9000 115.4000 113.5000 114.3000 111.5000 110.9000 113.4000 113.2000 114.3000 113.7000 109.7000 109.4000 109.7000 104.3000 107.8000 107.5000 109.8000 108.0000 105.4000 102.6000 101.9000 101.1000 97.7000 90.9000 90.2000 87.3000 85.3000 85.3000 85.2000 84.7000 84.2000 84.4000 85.3000 84.0000 82.5000 82.2000 80.8000 80.7000 83.8000 87.0000 85.8000 84.6000 83.6000 86.7000 92.2000 92.8000 92.6000 87.5000 80.1000 79.7000 79.0000 79.2000 79.4000 66.3910 67.8243 69.2537 72.5248 75.7972 75.4966 79.1173 80.0440 79.2978 81.2457 78.1386 79.8347 81.4732 84.4747 89.2787 92.7667 105.5000 119.4000 127.6000 128.5000 127.6000 134.1000 141.6000 148.2000 153.5000 153.3000 150.7000 151.1000 151.3000 150.3000 149.0000 147.8000 146.0000 144.7000 144.0000 140.1000 134.8000 135.1000 135.3000 129.8000 125.6000 120.6000 106.6000 97.0000 95.4000 91.7000 87.3000 82.9000 76.9302 74.7996 73.4906 72.1668 68.1125 66.6049 68.9371 67.9459 42.3819 38.1448 -1.1001 -38.1702 -60.5818 -62.6235 -39.9984 -14.9443 1.4202 2.5378 1.4410 -0.3363 -3.9805 -9.5173 -8.2902 -6.5529 1.7753 8.3056 8.6885 1.6854 -13.6670 -37.3606 -41.9809 -43.7364 -37.3605 -29.4704 -20.8747 -14.0161 -5.6661 -0.1192 -8.8146 -8.6007 -6.1537 -9.7442 -22.9035 -22.4124 -13.1270 18.2320 14.4439 10.0657 4.4646 -1.0310 -0.2588 4.2531 8.7087 16.8327 22.4692 25.0118 25.5162 27.1849 32.8879 36.7750 41.4880 41.4880 39.4345 54.4000 57.6000 57.4000 61.8000 63.8000 64.4000 64.0000 65.3000 70.5000 70.5000 71.7000 75.0000 76.9000 79.2000 82.8000 85.0000 84.4000 82.4000 80.6000 79.2000 80.0000 80.7000 83.2000 84.4000 85.0000 82.7000 81.7000 81.3000 80.1000 79.2000 79.7000 80.4000 80.7000
125.1000 120.1000 117.2000 116.5000 116.2000 112.8000 113.5000 111.4000 113.4000 114.9000 113.3000 110.4000 110.1000 109.1000 107.8000 109.7000 110.5000 110.1000 111.3000 110.6000 110.7000 105.5000 100.8000 100.7000 102.2000 103.7000 102.3000 100.4000 99.5000 95.7000 95.8000 94.8000 92.0000 89.6000 85.9000 85.7000 84.9000 84.9000 84.6000 89.7000 91.5000 89.7000 84.3000 82.3000 82.6000 82.4000 83.4000 86.1000 88.9000 89.4000 87.0000 85.3000 85.8000 91.6000 92.6000 87.3000 80.1000 79.7000 79.7000 79.4000 71.9699 72.1198 69.6980 72.9649 75.1977 78.5670 79.5474 77.4896 79.3360 82.6860 79.7783 81.8229 85.7317 81.7346 78.9541 79.8042 86.7896 89.1969 105.1000 119.2000 132.1000 133.7000 132.7000 136.7000 147.0000 153.6000 156.4000 153.4000 154.4000 151.6000 153.5000 154.5000 152.7000 151.7000 149.8000 148.7000 146.4000 142.7000 138.6000 141.4000 141.6000 138.4000 133.3000 128.1000 117.3000 103.7000 99.9000 96.7000 90.5000 88.3000 76.1762 76.7989 74.8787 71.9297 69.9510 73.7361 74.3610 75.3207 49.0268 51.2909 10.8068 -26.4214 -47.3351 -44.1924 -26.7258 -5.2684 6.2092 7.7570 7.4103 3.8147 0.8725 -2.7330 -2.2122 -0.7495 3.4368 7.2893 3.9036 -3.6228 -25.0681 -46.1296 -51.5691 -51.7912 -46.6782 -36.8981 -26.0192 -14.7527 -3.7309 5.9392 5.1250 6.7703 -2.5625 -10.8532 -6.6728 -12.7052 -4.2635 23.7619 18.3941 11.5311 4.7943 0.9338 -3.3215 5.1646 6.7006 16.1400 24.1282 26.7700 28.6636 29.0967 34.6162 39.0345 38.1383 37.5251 37.2369 52.8000 52.8000 55.6000 61.5000 60.4000 64.7000 65.9000 65.7000 67.5000 68.7000 72.5000 75.0000 76.5000 78.2000 80.3000 84.1000 85.2000 84.0000 81.2000 79.4000 77.8000 79.5000 81.3000 82.7000 82.8000 82.3000 80.0000 79.0000 79.3000 78.3000 79.2000 79.6000 79.7000
127.5000 126.1000 125.0000 121.7000 118.6000 117.1000 112.5000 110.9000 108.6000 108.9000 110.7000 109.9000 106.8000 105.8000 105.0000 106.0000 106.5000 105.0000 101.8000 102.3000 101.1000 100.3000 99.4000 98.2000 97.4000 96.4000 95.2000 95.4000 92.4000 92.1000 91.2000 88.8000 87.0000 87.0000 86.1000 85.9000 85.2000 88.3000 93.3000 93.9000 94.0000 93.1000 88.2000 84.6000 84.6000 85.8000 88.7000 89.9000 91.1000 92.4000 90.9000 88.1000 85.2000 88.0000 86.0000 81.0000 80.2000 80.2000 79.9000 70.1763 70.5964 75.1370 78.7769 85.4662 90.1278 91.7543 87.2245 92.1000 94.7000 83.0104 86.5669 83.2848 85.3184 85.7563 78.4493 77.3936 87.9525 94.0873 106.3000 111.9214 123.1000 128.6000 130.5000 132.0000 142.8000 145.2000 110.3653 110.7038 111.6932 113.0521 131.4000 129.7000 135.5000 139.4000 142.6000 140.6000 138.2000 140.8000 142.0000 141.6000 143.5000 140.7000 135.6000 129.9000 117.6000 109.7000 110.4000 107.6000 99.4000 93.2000 88.0000 84.6000 74.5357 71.8453 71.7932 73.5353 73.4000 74.4469 54.6915 57.6448 16.6122 -11.5642 -30.9875 -32.5358 -14.3879 -0.6146 9.6743 11.0258 10.6366 7.7140 4.3627 2.2125 0.6048 2.0933 0.2075 2.3559 0.4851 -9.8856 -30.2902 -48.5440 -54.2837 -53.7801 -51.9100 -42.4737 -30.5736 -16.4161 -3.2166 7.4334 14.7777 15.0447 2.0271 -15.8117 -15.3887 -2.6891 15.3056 9.0347 24.3149 18.4675 7.4266 1.9241 -2.0968 -3.4290 3.4260 13.2249 20.6601 24.9830 25.6853 26.9583 32.7333 37.9442 41.3832 41.3652 41.3679 39.8688 52.8000 52.8000 59.4000 56.5000 61.8000 65.1000 65.8000 67.4000 68.4000 72.9000 74.9000 75.0000 76.5000 78.4000 80.7000 83.7000 83.3000 81.9000 80.2000 78.5000 77.4000 80.8000 80.1000 80.9000 80.8000 79.0000 77.9000 78.4000 77.9000 78.6000 78.8000 79.0000
126.8000 126.8000 125.5000 124.7000 124.1000 120.9000 120.1000 119.0000 113.9000 110.3000 107.7000 105.1000 104.5000 103.0000 102.2000 101.0000 101.8000 98.6000 98.1000 97.5000 96.9000 96.0000 95.5000 94.7000 94.0000 93.3000 91.3000 90.8000 89.9000 89.3000 89.4000 88.5000 87.3000 86.1000 88.7000 88.5000 89.3000 91.8000 93.1000 95.1000 95.9000 96.5000 92.8000 93.2000 91.2000 89.3000 90.7000 92.6000 93.1000 93.7000 92.4000 86.9000 82.1000 80.5000 80.5000 80.3000 80.5000 80.5000 73.9293 74.4005 79.3488 80.6990 84.7540 88.2688 96.4000 99.0290 101.4000 100.8000 99.1000 98.6000 96.9000 86.3272 90.1385 86.0758 80.8971 77.0235 87.5088 99.8694 108.3162 112.9145 114.5335 118.5588 121.3000 114.3053 111.4374 110.4060 110.3169 110.3731 111.4214 113.2850 114.4498 116.5669 123.1000 125.9000 133.1000 132.4000 131.2000 133.5000 137.5000 140.1000 142.0000 143.1000 139.3000 134.1000 126.5000 119.4000 124.8000 119.2000 108.5000 100.7000 93.8000 88.4000 85.2000 76.6660 77.4381 76.6001 76.9228 75.9498 56.9236 55.1388 19.6462 4.2083 -9.3384 -15.9223 -4.0123 -0.3035 14.2759 18.2895 17.3451 16.3357 7.5850 5.3226 3.8139 3.5281 -0.1522 -2.3814 -2.6248 -14.0069 -28.4173 -46.2222 -50.8580 -54.2699 -47.6676 -40.4287 -35.0145 -24.0492 -11.2159 0.4802 7.4794 4.4058 -3.7615 -12.5844 -10.1720 1.9448 16.0620 19.4556 22.5022 16.6692 11.3248 6.5913 2.5721 1.6026 4.4949 9.3855 16.5450 21.8773 26.5062 30.2237 34.0087 37.6008 41.2783 41.0356 41.0017 40.2527 52.7000 60.3000 61.2000 58.8000 57.4000 61.6000 65.1000 66.8000 67.5000 68.6000 69.9000 71.8000 74.3000 75.9000 78.3000 78.9000 80.5000 81.1000 80.7000 78.4000 76.4000 78.0000 77.9000 78.4000 79.3000 79.3000 78.3000 77.2000 77.8000 78.1000 78.8000 78.8000
118.9000 117.0000 116.2000 114.8000 113.6000 113.4000 112.2000 111.9000 115.5000 114.1000 111.9000 110.5000 109.0000 105.9000 105.1000 101.9000 99.8000 98.7000 98.5000 103.1000 104.9000 119.6000 110.5000 95.3000 104.8000 102.4000 97.3000 90.2000 89.6000 89.2000 88.6000 89.4000 95.2000 103.3000 94.2000 97.5000 95.8000 94.0000 94.0000 96.1000 96.5000 96.5000 95.8000 94.4000 93.4000 93.0000 93.5000 93.4000 94.2000 94.1000 90.3000 83.8000 80.8000 81.4000 80.9000 80.8000 80.7000 71.6450 74.6510 78.7739 82.9563 85.5016 93.4783 96.0057 97.6190 99.3816 108.7000 106.4000 108.0000 106.3000 102.0000 102.1000 89.1014 91.0900 82.7151 80.4842 84.4291 94.4066 105.6072 116.1000 122.2669 119.2042 118.8760 112.0839 111.9562 111.3036 112.2756 113.3796 114.4265 114.4760 115.6336 117.6758 118.5087 119.5890 119.9835 120.3693 121.1771 121.8998 122.7445 132.6000 134.6000 140.1000 141.0000 141.4000 135.7000 131.4000 130.7000 126.1000 122.3000 114.3000 106.1000 98.0000 91.9000 87.3000 80.5398 78.7855 77.9696 75.9051 58.0348 57.9871 31.9064 11.7547 13.2006 9.0541 7.6495 11.4657 19.3307 22.1205 14.5783 17.7559 12.1604 8.8979 6.1410 2.0929 -1.3787 -5.0011 -8.8580 -16.2044 -27.5277 -35.4320 -42.4630 -53.7035 -48.1511 -43.1884 -39.8649 -30.8241 -20.8333 -8.6077 -2.9521 -6.8345 -13.9235 -12.4992 -3.9487 8.1376 20.2342 26.2205 19.7019 17.5548 12.9089 8.5272 4.2412 2.7887 2.9477 4.3081 4.5367 22.4897 21.0552 25.7459 32.0165 36.4439 40.6925 38.8548 38.3885 38.0012 62.5000 60.6000 61.8000 62.7000 55.4000 57.5000 61.2000 67.3000 66.8000 67.6000 67.6000 68.7000 69.5000 72.4000 75.4000 75.9000 77.2000 77.2000 79.6000 78.6000 75.0000 76.8000 77.5000 78.2000 79.2000 78.7000 77.7000 77.0000 77.3000 77.9000 78.6000 79.1000
115.1000 115.3000 115.7000 116.4000 118.1000 116.1000 115.0000 111.7000 110.9000 108.4000 107.9000 108.5000 108.2000 104.7000 102.2000 101.3000 101.2000 101.2000 106.5000 103.8000 102.4000 103.8000 102.5000 98.3000 99.0000 95.3000 90.7000 90.5000 89.7000 89.8000 88.6000 90.3000 97.8000 100.6000 100.4000 99.8000 97.5000 96.7000 97.0000 96.8000 96.2000 96.1000 94.8000 93.8000 94.6000 94.2000 94.6000 94.5000 94.6000 94.2000 86.8000 82.0000 81.6000 81.9000 80.7000 81.0000 74.0454 75.6250 78.5042 81.4106 88.6464 90.0471 94.1818 96.9544 99.7478 104.0070 108.5000 109.2000 110.5000 112.6000 109.0000 106.1000 103.7000 88.3606 91.2767 87.9338 87.0182 90.7522 102.1291 114.2000 121.2802 118.6888 119.0644 116.2000 117.4443 118.5976 118.3350 117.7078 118.8637 117.9089 118.7935 120.8941 120.8160 119.5377 119.4934 120.9195 120.6950 121.9167 123.0878 123.2290 122.6771 130.6000 138.7000 144.4000 142.2000 136.5000 132.8000 132.3000 130.7000 124.0000 117.2000 105.0000 99.8000 93.2000 82.2636 82.7931 80.0101 76.9907 60.6079 60.9785 46.0534 19.2782 11.7217 22.9810 29.0538 22.3752 24.5125 18.3717 18.7242 17.0633 15.3063 10.3641 5.9105 0.9498 -4.2623 -8.8616 -11.5227 -18.1108 -23.6189 -34.4635 -38.7603 -44.8091 -47.9878 -47.1032 -45.5225 -38.5117 -31.8278 -21.0499 -15.6474 -22.8034 -18.9249 -17.0110 -11.6279 -6.0409 8.6777 16.8061 19.0792 16.7017 12.4110 12.9068 11.5536 7.0876 4.2420 1.5726 -2.6794 6.2444 25.1589 22.6957 35.2014 34.7457 36.3237 36.2684 34.6133 36.9157 62.2000 61.6000 57.7000 51.2000 51.1000 55.4000 58.9000 62.6000 65.9000 67.4000 68.5000 68.5000 68.0000 70.2000 72.2000 74.0000 73.3000 72.6000 72.8000 73.9000 73.6000 75.1000 76.0000 75.9000 78.2000 78.3000 77.2000 77.6000 77.6000 77.9000 79.2000 78.6000
125.5000 124.1000 123.0000 121.6000 121.8000 121.2000 120.1000 119.0000 117.6000 116.2000 115.6000 114.2000 112.5000 108.8000 108.6000 115.6000 113.9000 111.5000 106.0000 104.9000 106.3000 104.4000 99.7000 91.7000 91.6000 92.1000 91.9000 87.9000 87.9000 90.9000 90.9000 95.3000 99.3000 102.0000 102.4000 102.3000 99.2000 96.3000 95.4000 95.6000 96.8000 95.7000 94.3000 94.4000 94.1000 94.2000 94.5000 94.6000 93.9000 90.1000 82.4000 81.2000 82.1000 80.9000 81.2000 81.1000 75.3039 74.8662 77.6424 78.7497 87.5925 90.0094 91.8088 96.1277 99.2596 101.9992 103.4000 111.8000 113.4000 115.0000 116.4000 114.9000 113.2000 106.6000 92.1784 97.3248 93.1898 93.8786 98.9202 109.7000 119.5407 118.4960 111.2970 117.3000 126.1279 125.7501 124.1719 123.1294 123.3788 122.4030 122.7702 123.9730 124.1929 121.6811 121.9131 122.5579 121.9761 122.4463 122.8131 122.1149 122.6874 123.5094 134.1000 142.8000 145.0000 141.7000 137.0000 136.8000 135.6000 133.4000 127.0000 118.6000 110.0000 99.9000 86.9738 86.9361 82.1289 79.2252 64.6109 62.8581 52.3412 27.4083 17.2879 35.0129 37.8194 33.3991 28.8111 18.2568 15.7465 19.8883 16.3037 14.5943 6.7165 1.2653 -6.8220 -11.2224 -14.7823 -19.5317 -23.8211 -27.9147 -38.2745 -46.8042 -45.2986 -46.5252 -50.9125 -48.9000 -44.3884 -31.4074 -23.4472 -26.6393 -24.9130 -20.5386 -30.0918 -14.7867 -5.7310 0.3425 3.1999 -3.2904 14.5782 18.3750 11.2267 7.4941 4.1682 1.9429 -3.6467 1.5916 18.2162 16.0287 23.4040 33.3658 32.4405 35.8018 37.7453 36.4931 58.2000 58.3000 59.4000 51.1000 51.1000 51.2000 59.7000 59.6000 63.3000 65.8000 67.4000 68.1000 68.3000 68.3000 69.6000 69.6000 69.5000 72.5000 76.1000 75.7000 74.4000 75.5000 76.5000 75.6000 75.8000 76.7000 76.1000 77.9000 78.6000 79.3000 80.0000 80.7000
125.4000 126.1000 125.5000 124.6000 122.4000 120.3000 118.9000 118.1000 116.1000 114.7000 112.5000 111.0000 109.6000 109.8000 111.9000 111.6000 111.0000 109.9000 108.0000 106.1000 104.4000 102.2000 94.4000 92.5000 92.6000 89.0000 89.0000 91.2000 91.2000 95.9000 99.2000 99.3000 99.6000 100.4000 100.3000 99.6000 96.9000 94.9000 93.1000 92.7000 94.4000 95.2000 95.9000 94.9000 94.2000 92.9000 93.3000 92.9000 89.7000 83.2000 81.9000 82.3000 80.9000 81.2000 81.4000 81.4000 77.0346 75.4206 76.8843 79.2608 85.2064 89.3573 92.2730 93.4283 96.9865 102.4164 105.6100 107.2653 119.9000 119.9000 124.3000 127.6000 124.1000 120.3000 118.6000 99.2147 107.1296 97.6232 97.3330 100.1304 107.0740 108.8635 109.0000 129.0000 126.9827 129.0700 126.9858 126.3292 127.5866 127.4306 127.9096 129.5966 128.9452 130.0952 129.0451 129.2988 127.7117 127.9128 127.0775 127.4675 124.5036 123.3373 124.1079 130.5000 131.5000 140.2000 140.6000 139.7000 137.8000 136.8000 135.6000 130.8000 119.5000 109.2000 92.3883 91.1923 84.1185 82.3329 68.6476 69.9962 57.9558 33.8117 14.4951 36.6028 36.9908 36.8995 34.4390 21.2793 15.2087 17.5846 17.6805 15.4193 6.4893 -1.8054 -8.8605 -12.9995 -16.3347 -22.3548 -27.8343 -33.9268 -45.4857 -47.1195 -52.8059 -56.5825 -59.2291 -57.2584 -53.7076 -47.3930 -39.4354 -33.5345 -30.3573 -31.8400 -36.9140 -45.1220 -18.4410 -10.2533 -4.7687 -11.9288 -11.2271 16.9163 13.8690 14.0762 12.4513 7.1529 4.5929 8.8380 13.7793 15.5271 23.7056 31.7901 32.0432 35.8922 37.1208 36.7016 60.4000 59.0000 58.9000 58.9000 51.0000 50.9000 53.7000 59.8000 60.5000 63.2000 67.8000 68.1000 68.1000 67.9000 68.3000 68.0000 69.5000 72.5000 74.2000 74.4000 74.4000 75.1000 76.1000 75.0000 75.2000 75.3000 76.5000 76.4000 77.8000 78.3000 79.7000 80.0000
122.7000 123.9000 123.8000 122.5000 121.6000 120.3000 119.8000 118.1000 114.9000 114.4000 114.9000 114.2000 113.6000 113.1000 112.4000 111.3000 110.4000 109.4000 107.4000 104.9000 98.1000 94.5000 94.9000 93.0000 89.0000 89.0000 89.0000 91.4000 94.1000 97.7000 97.5000 98.7000 98.6000 97.0000 95.8000 95.8000 96.2000 95.2000 93.2000 90.1000 90.1000 89.1000 89.1000 89.4000 89.7000 89.7000 90.0000 88.8000 83.7000 81.5000 82.7000 81.8000 81.7000 81.5000 81.8000 77.6734 80.8170 76.8474 78.9503 80.9273 84.3473 87.9830 90.9134 93.5636 96.6584 100.1587 105.4393 110.7465 115.5892 123.7000 129.0000 130.9000 132.7000 132.1000 127.3000 125.1000 117.2000 101.0634 102.1677 102.1025 100.7172 101.8429 107.1796 130.8000 134.8000 130.8536 132.9331 133.5145 134.2914 129.3046 128.3123 128.8171 129.5457 129.3618 130.7768 134.6680 133.7643 132.5424 131.8518 129.9032 127.9655 125.9592 124.0278 123.1074 123.3909 131.3000 137.6000 139.5000 141.1000 139.1000 138.2000 137.0000 130.8000 121.4000 113.2000 99.0364 91.3080 87.2444 72.9957 72.6385 62.1551 42.1067 39.2023 39.7982 44.6827 41.4183 38.0934 25.0144 21.8172 19.5154 19.9170 13.1762 6.0925 3.0188 -7.1208 -15.7788 -18.1436 -25.6232 -31.3679 -38.4692 -47.0757 -54.3644 -60.4842 -64.9371 -67.9138 -66.4627 -62.4158 -56.6176 -51.5035 -46.2497 -40.2282 -42.5627 -46.7984 -56.3302 -28.7630 -28.7050 -31.8846 -29.5999 -22.1602 -12.3063 10.7438 10.9291 13.6719 12.6900 12.3776 11.6972 7.6201 13.2410 28.0311 33.9883 36.4499 36.6175 35.2388 37.6602 59.1000 59.5000 59.4000 60.1000 59.9000 50.9000 54.5000 54.5000 57.3000 61.6000 68.1000 66.3000 65.4000 65.9000 66.5000 67.7000 69.7000 71.7000 73.5000 73.9000 74.9000 75.9000 74.6000 73.6000 73.9000 73.2000 75.3000 76.6000 76.9000 77.8000 78.2000 77.4000
121.0000 120.8000 120.3000 119.9000 119.4000 117.9000 117.4000 116.3000 116.7000 116.7000 115.6000 115.5000 115.1000 113.2000 112.2000 112.1000 110.1000 105.8000 100.1000 96.9000 94.8000 93.0000 93.0000 93.0000 94.8000 94.4000 94.4000 92.4000 91.3000 91.2000 92.7000 96.1000 96.9000 97.8000 97.5000 97.3000 98.0000 96.4000 94.5000 90.9000 86.9000 84.6000 83.5000 83.4000 83.8000 84.1000 85.3000 83.7000 82.2000 83.4000 83.2000 81.9000 81.9000 81.8000 82.1000 74.1710 78.0322 80.5117 80.5723 81.3283 83.1709 86.4805 89.6600 91.0986 94.8933 99.3740 104.1000 110.6688 116.2663 123.3000 127.7271 135.7000 137.2000 137.3000 137.8000 137.5000 133.6000 125.1000 114.9000 106.0402 105.1927 108.4140 105.8008 110.9770 115.4000 128.9000 134.4254 133.7911 143.8000 148.2000 150.9000 147.2000 140.5000 155.4000 153.3000 154.3000 133.6583 132.7195 132.3118 134.9496 130.9219 130.0169 127.0944 124.0429 123.1561 123.2572 121.5830 132.4000 135.4000 139.7000 138.4000 137.5000 135.6000 131.6000 124.2000 95.4585 96.0312 89.0357 77.9513 75.9025 69.7984 49.8741 46.1323 43.4146 45.4673 43.6244 42.3823 38.7165 21.9074 20.1789 19.2389 9.1069 5.9151 1.2086 -5.8941 -14.5466 -21.7071 -26.6605 -33.6343 -42.7885 -51.1241 -59.1204 -66.3842 -72.4631 -76.8460 -75.3552 -69.6378 -63.0356 -63.2318 -59.2334 -55.4040 -54.5331 -58.6722 -59.5727 -63.4691 -57.5596 -44.3129 -44.2086 -41.1508 -38.1013 -6.3155 2.1864 -10.0545 -2.3030 8.1502 6.3213 4.8418 0.3062 21.9272 36.5569 38.4485 38.3823 40.6209 39.1312 60.5000 59.9000 59.9000 59.5000 59.8000 60.3000 51.6000 64.9000 68.0000 68.0000 68.1000 67.8000 68.4000 67.1000 68.7000 68.4000 69.9000 71.1000 73.0000 72.9000 73.6000 74.5000 72.6000 71.4000 71.7000 73.0000 74.4000 76.5000 77.6000 79.4000 78.2000 77.6000
121.9000 120.6000 119.2000 118.1000 117.5000 117.4000 117.7000 118.8000 118.9000 118.5000 117.7000 116.3000 114.8000 114.6000 113.2000 111.7000 105.4000 100.3000 96.4000 95.9000 94.2000 94.2000 95.3000 94.3000 99.6000 103.9000 100.5000 98.1000 95.6000 94.2000 90.7000 92.2000 96.7000 98.6000 98.5000 97.8000 97.6000 96.5000 92.8000 88.4000 85.5000 83.2000 82.8000 82.5000 82.1000 81.3000 82.2000 81.9000 82.8000 83.8000 83.2000 82.0000 81.3000 82.0000 77.9720 75.8143 76.0058 81.4736 84.1869 83.0456 83.5522 86.9343 92.1974 94.0911 96.5666 103.5177 106.7594 111.4000 114.8319 122.2395 129.3599 133.6000 139.3659 144.5000 150.5000 144.8000 146.5000 140.2000 113.3838 108.9151 113.2082 114.7091 117.4281 119.5187 117.4222 131.1000 138.6000 145.6000 155.5000 158.9000 165.7000 163.0000 161.9000 164.3000 159.4000 162.6000 156.1000 149.3000 146.9000 133.8744 135.7519 132.7840 129.7596 126.7340 122.7194 121.6185 119.8732 119.8839 123.2000 130.2000 137.4000 137.9000 135.4000 133.8000 128.4000 120.9000 97.2993 97.1279 81.7546 84.8628 72.6936 57.1229 53.3161 50.8005 47.0190 47.4114 47.6419 43.4944 34.1225 19.9792 17.6428 11.4958 5.6781 -1.4846 -5.7105 -14.1308 -21.6746 -28.7328 -37.4989 -46.7163 -56.1026 -64.8402 -73.5698 -81.2774 -87.0526 -86.2130 -82.2663 -76.8193 -73.4719 -70.6620 -69.4618 -68.5321 -68.0933 -80.2831 -86.3372 -98.8507 -85.0590 -66.5201 -61.3704 -55.8988 -50.1280 -29.6228 -24.3298 -9.4689 0.4258 -1.8313 -1.5779 -2.3452 -19.4169 37.6180 41.9950 42.1499 41.5338 52.8731 62.6000 63.8000 61.2000 59.7000 59.9000 60.0000 56.3000 75.1000 75.2000 68.1000 68.2000 74.7000 67.5000 59.5000 68.5000 69.3000 69.7000 69.8000 71.0000 72.2000 72.3000 71.6000 70.4000 70.8000 72.0000 72.9000 74.3000 76.1000 78.5000 80.0000 80.1000 78.3000
121.8000 119.8000 118.8000 118.0000 117.5000 117.3000 117.0000 118.3000 118.1000 117.1000 116.4000 115.9000 115.2000 114.3000 110.8000 107.9000 101.9000 98.3000 96.6000 96.4000 94.2000 96.5000 95.6000 108.3000 107.5000 104.6000 102.1000 102.5000 102.3000 101.5000 97.2000 94.6000 94.1000 97.4000 97.0000 96.6000 98.1000 97.5000 94.4000 88.8000 85.2000 83.8000 82.1000 83.2000 81.4000 81.0000 81.6000 82.3000 82.4000 82.7000 83.6000 81.8000 82.1000 82.3000 83.9308 79.5208 90.2364 90.5190 83.1031 85.3597 85.3300 86.7944 92.5042 94.2779 99.3824 104.3275 109.7912 114.3060 116.5425 121.8059 128.3000 134.7000 140.8964 146.0000 149.4000 151.6000 152.9000 150.4000 117.4989 113.7374 117.3000 121.4492 120.3662 121.7708 119.0000 131.2000 140.1000 154.3000 165.5000 170.0000 171.2000 171.8000 171.9000 169.7000 164.8000 160.9000 160.3000 158.5000 153.8000 153.3000 148.7000 132.7652 129.7592 126.4043 123.6906 121.4037 120.7745 120.8318 118.9467 118.9889 123.7000 131.0000 135.4000 135.0000 133.2000 131.0000 121.7000 107.0023 96.9506 84.4984 75.8199 68.4928 60.1461 56.0802 54.1928 54.0422 52.8226 42.2443 34.8866 23.8844 15.5525 10.0090 6.0958 -2.3732 -9.1585 -13.0993 -21.2570 -29.5909 -37.5951 -47.9626 -60.0439 -68.9837 -78.0943 -86.9136 -93.8703 -93.3734 -91.9991 -90.2657 -88.0923 -87.2497 -85.2655 -89.3962 -93.4017 -97.6930 -107.0800 -113.2670 -102.9507 -139.0386 -112.9404 -105.3192 -89.3829 -58.8706 -36.8732 -22.6804 -9.4493 -13.3233 -14.1975 -28.0810 -27.8243 -30.2729 44.4525 45.2892 43.9989 53.2454 64.2000 65.0000 63.3000 61.2000 61.6000 62.0000 62.3000 75.6000 75.5000 82.6000 88.9000 89.4000 70.1000 61.4000 67.9000 68.3000 68.7000 68.6000 70.3000 71.3000 71.5000 70.0000 69.9000 72.5000 73.5000 74.1000 76.0000 76.3000 78.3000 79.7000 79.8000 78.6000
121.4000 119.5000 118.6000 118.1000 117.4000 116.8000 114.7000 116.7000 116.3000 115.8000 115.3000 114.4000 113.1000 111.9000 109.1000 105.6000 99.0000 97.5000 97.5000 96.9000 96.7000 107.7000 109.0000 109.3000 107.9000 105.9000 104.8000 103.5000 103.4000 103.2000 103.0000 101.2000 97.0000 93.9000 93.9000 95.9000 97.3000 96.0000 94.0000 88.9000 85.5000 82.2000 82.2000 83.1000 82.9000 82.2000 83.3000 83.0000 81.9000 82.0000 81.9000 81.9000 82.2000 78.2713 78.8173 89.6327 91.7246 91.9568 86.4018 88.9588 88.7792 87.7187 89.9717 95.0878 98.0256 103.1029 107.2731 111.4666 113.9705 121.9462 127.5511 134.9000 140.2385 141.2000 142.1961 154.3000 157.8000 132.2356 125.6983 117.8000 124.7000 127.0843 126.3904 122.2916 122.0000 125.6114 141.4000 145.7000 155.4000 169.0000 175.9000 176.8000 175.0000 165.3000 160.7235 162.4000 164.4000 165.0000 163.6000 159.3000 157.3000 151.8000 146.5000 138.1000 135.3000 133.8000 129.8000 120.1857 120.7785 118.0322 118.1982 117.2793 132.7000 137.7000 136.5000 135.0000 131.0000 121.2000 97.9651 79.8943 75.3741 80.0841 71.3742 61.4492 59.1841 59.5398 57.6751 47.6952 36.9462 24.1607 13.6552 10.3320 3.8129 -2.4373 -13.4324 -15.7663 -22.4149 -28.5179 -39.8748 -50.2012 -58.8202 -68.2791 -82.9531 -89.8316 -98.4359 -99.8986 -99.5473 -99.3826 -100.2217 -102.4174 -103.0583 -105.8543 -110.7774 -114.5089 -123.1842 -126.8595 -131.0874 -164.1557 -161.8669 -118.9542 -92.0300 -78.3595 -58.8765 -42.5579 -20.8225 -26.4943 -30.7384 -43.5501 -36.0330 -26.9613 -31.8502 46.2871 44.7344 53.4517 53.4532 64.5000 65.5000 65.2000 63.7000 64.9000 64.5000 64.6000 86.9000 86.6000 89.0000 89.3000 80.6000 67.5000 63.5000 68.5000 67.7000 68.2000 70.0000 70.2000 69.9000 69.2000 71.9000 73.9000 75.5000 76.0000 77.4000 78.3000 77.1000 77.6000 78.1000 78.1000
121.9000 119.9000 118.3000 116.6000 116.9000 117.3000 113.8000 116.9000 115.9000 114.1000 114.4000 111.5000 109.2000 107.1000 99.5000 98.7000 98.8000 97.7000 97.4000 97.7000 103.1000 102.2000 102.3000 105.4000 105.2000 106.0000 106.3000 104.5000 103.1000 102.0000 101.8000 102.1000 101.5000 98.9000 93.6000 89.6000 92.1000 92.8000 92.4000 86.9000 84.6000 82.0000 82.0000 83.2000 83.4000 83.6000 83.8000 83.3000 82.3000 82.0000 82.1000 82.2000 82.9000 72.0659 78.1382 89.0516 92.1816 92.3432 88.7571 88.1858 87.5832 88.5587 90.1663 91.4304 97.4812 100.3617 102.5638 107.6529 112.4908 120.3926 126.9792 130.5123 134.0439 139.1853 148.7000 158.3000 158.0229 155.9914 129.7539 125.2000 127.1612 131.9812 131.1653 130.3673 122.9060 124.3125 129.9163 134.0755 150.5000 167.0000 176.9000 179.8000 172.7000 163.2395 169.4000 171.7000 172.0000 170.6000 166.0000 164.2000 162.1000 159.2000 156.9000 149.4000 140.7000 136.0000 133.4000 130.2000 126.5000 118.5615 117.2373 116.4023 116.7286 133.0000 135.6000 135.0000 133.4000 129.0000 119.2000 94.8824 83.8848 78.1497 82.3434 72.1352 64.8381 63.9207 62.5616 50.5504 36.4143 21.4483 9.9691 7.1208 2.0190 -3.7643 -9.3777 -18.3392 -22.4346 -28.5323 -32.9254 -45.5299 -55.9542 -66.5859 -77.6835 -92.3679 -99.7319 -103.6136 -107.6285 -104.7456 -107.0390 -112.7723 -114.6380 -120.7535 -126.4431 -132.4941 -137.5897 -140.7212 -140.5341 -166.2023 -163.8272 -129.8601 -119.2842 -100.3130 -88.1010 -69.3219 -56.5425 -54.9214 -56.8177 -60.6924 -53.7177 -38.7565 -29.8326 -19.9003 43.8287 44.4474 53.2349 64.8000 64.9000 64.4000 66.2000 66.9000 59.9000 56.3000 78.6000 87.1000 87.3000 89.5000 89.4000 66.7000 59.3000 60.5000 68.1000 68.2000 69.0000 69.3000 68.9000 68.3000 71.5000 74.3000 76.2000 76.5000 76.6000 78.4000 76.8000 75.7000 76.6000 77.9000
118.5000 120.6000 120.5000 119.0000 115.9000 113.7000 110.7000 114.6000 113.0000 112.7000 113.7000 111.4000 110.7000 103.4000 101.3000 101.2000 98.3000 98.2000 97.4000 105.1000 104.6000 103.1000 105.2000 104.5000 104.0000 103.3000 101.9000 102.4000 103.5000 103.0000 101.3000 98.8000 98.2000 96.5000 93.7000 88.4000 87.2000 90.0000 89.7000 87.1000 84.7000 82.0000 82.1000 85.0000 84.3000 83.5000 83.0000 84.8000 83.9000 82.6000 82.6000 82.7000 82.7000 81.5115 80.1581 85.0553 90.5741 92.7888 87.7144 90.0726 89.8358 88.7797 90.7373 93.7101 95.8981 97.7756 99.7269 104.4966 110.4497 118.3302 123.9690 129.2000 132.7472 144.5000 150.3000 158.5000 161.3250 156.7523 133.2000 129.5000 137.0296 138.5473 138.4048 136.6995 129.2000 128.8385 138.2194 134.0909 140.8000 157.3000 166.7000 164.0241 168.0634 165.4174 181.1000 183.1000 180.0000 176.9000 172.4000 168.8000 165.8000 163.9000 160.7000 150.2000 149.5000 143.8000 137.7000 132.0000 128.6000 125.3000 116.9930 117.3393 116.4443 119.0000 123.8000 130.2000 133.8000 132.7000 127.3000 116.8000 82.5304 85.5566 80.4434 85.9178 73.5223 67.2676 67.7753 54.4321 36.1315 21.3036 10.1555 7.0463 5.2056 -5.6801 -11.0913 -17.6531 -24.4316 -25.9254 -32.8963 -37.5380 -43.2998 -62.3076 -75.5870 -89.6992 -101.0913 -106.0595 -103.2527 -106.3248 -114.8194 -117.4064 -125.8604 -133.3044 -140.0947 -146.8409 -150.8100 -152.3510 -153.5229 -166.6320 -163.0705 -143.3922 -136.3830 -125.9951 -111.9311 -103.4366 -94.2320 -90.3808 -83.2141 -77.4048 -67.0112 -50.5214 -28.3748 -1.4935 4.2092 43.4882 52.7017 62.8000 66.4000 65.1000 64.0000 66.8000 56.0000 64.1000 60.7000 87.9000 87.3000 88.0000 89.4000 77.6000 68.7000 69.1000 67.7000 66.4000 67.3000 67.3000 69.6000 71.9000 72.6000 74.2000 74.4000 75.7000 76.0000 75.8000 74.8000 74.3000 75.7000 76.7000
117.5000 116.3000 116.8000 116.5000 109.0000 108.8000 107.1000 106.9000 107.2000 104.8000 103.1000 102.0000 100.6000 101.2000 102.9000 99.6000 99.1000 99.1000 103.5000 106.6000 105.6000 105.5000 102.0000 101.4000 100.8000 103.7000 103.4000 101.4000 100.9000 100.8000 99.8000 97.5000 95.5000 93.8000 92.7000 90.2000 84.5000 83.9000 90.5000 89.4000 85.5000 82.0000 82.2000 86.7000 85.6000 84.2000 86.6000 88.0000 84.4000 83.1000 83.8000 83.0000 82.6000 81.9000 81.3000 88.9118 90.9276 87.1741 87.9416 88.3396 90.0765 90.4509 91.1651 95.0579 98.8421 99.6080 100.7185 104.3261 107.9970 115.1419 123.7693 130.5370 130.1929 146.6000 150.4000 156.1000 159.6448 162.2715 147.3682 137.2580 140.2000 143.2271 141.6465 133.6484 137.2000 146.5000 153.9000 138.3073 142.6116 144.0000 155.9516 158.6000 162.2000 174.4000 188.6000 192.7000 188.3000 183.9000 179.9000 173.4000 168.6000 163.0000 160.6000 164.1000 161.5000 152.5000 146.0000 138.1000 133.0000 129.0000 126.4000 123.8000 120.9000 119.3000 117.7000 123.3000 130.3000 133.7000 132.6000 126.6000 115.7000 93.2908 84.2246 84.9800 86.8370 78.2130 72.6320 57.6801 39.5838 23.0161 9.8550 7.0423 6.2802 3.1875 -12.4624 -15.2114 -23.3419 -28.6281 -34.4078 -37.5654 -43.2405 -53.6320 -69.4906 -80.5525 -97.9725 -99.0938 -97.5145 -101.5439 -108.2504 -121.7723 -131.6588 -141.8177 -151.0771 -157.2800 -162.7792 -163.8330 -162.8598 -166.9873 -164.2379 -154.9673 -152.0978 -145.7837 -137.8450 -130.9550 -126.2025 -115.9561 -103.8256 -91.4579 -77.6526 -57.9654 -38.0675 -8.3580 22.4791 42.4146 52.1899 52.0631 65.7000 65.5000 62.9000 61.3000 64.8000 65.9000 70.0000 67.9000 82.6000 85.0000 66.0000 66.5000 65.7000 66.2000 63.7000 68.1000 66.2000 71.3000 74.1000 72.8000 72.8000 73.8000 73.8000 74.7000 75.2000 75.0000 74.7000 72.1000 75.0000 76.3000
117.1000 111.0000 109.1000 108.3000 106.5000 106.3000 105.4000 104.5000 105.2000 104.0000 102.6000 103.1000 101.2000 101.2000 101.1000 100.8000 99.5000 100.9000 103.5000 105.4000 105.1000 102.7000 101.1000 100.8000 100.5000 101.3000 101.5000 101.7000 100.1000 99.8000 100.5000 99.0000 97.2000 97.2000 95.9000 94.2000 91.9000 86.4000 85.7000 86.2000 85.2000 83.7000 82.2000 82.2000 87.5000 85.1000 83.8000 85.1000 82.7000 83.1000 85.7000 83.2000 83.0000 83.2000 82.5000 91.1905 89.6648 87.0596 85.8663 87.9052 89.2799 90.1921 92.8615 95.3550 99.5576 103.4379 104.9006 106.8833 110.4983 117.3729 123.7847 130.5843 129.5689 144.9000 153.0000 161.6000 167.7000 156.4282 147.8045 144.3201 141.8743 144.1512 141.3970 139.1255 144.3000 148.2000 156.1000 168.4000 157.8639 155.2475 151.5835 156.7000 160.4707 182.4000 197.0000 198.5000 195.1000 189.7000 181.8000 179.6000 176.3000 170.4000 169.1000 169.9000 167.6000 161.8000 157.5000 150.5000 142.5000 134.9000 131.4000 128.1000 124.2000 121.3000 117.4000 117.1000 126.3000 129.2000 131.4000 131.5000 126.8000 118.9000 106.1000 90.4959 84.3376 86.4020 78.4058 62.7886 42.1182 24.2425 12.5901 10.2927 6.0887 2.3069 -2.8111 -8.1625 -16.3189 -24.3274 -28.4837 -30.1240 -38.7791 -46.8460 -54.1734 -63.3300 -74.1720 -82.9581 -93.8115 -98.5169 -109.8264 -122.2063 -134.7259 -147.4106 -160.0745 -165.0842 -169.4893 -170.8712 -168.2265 -167.0659 -164.2984 -160.3007 -157.2040 -152.7749 -145.5153 -139.7659 -135.7664 -126.0102 -111.3523 -97.3729 -81.0479 -61.0471 -41.0615 -20.6985 6.0253 6.7635 43.5900 51.1910 61.0000 63.4000 60.1000 59.3000 61.9000 65.0000 67.3000 65.8000 64.3000 64.7000 66.3000 61.0000 60.8000 62.2000 58.3000 69.1000 69.3000 71.3000 71.3000 72.2000 72.3000 72.5000 72.7000 74.4000 74.6000 74.2000 74.8000 73.7000 73.7000 76.2000
111.4000 109.2000 107.4000 108.1000 107.2000 106.3000 105.6000 104.7000 104.0000 104.2000 103.5000 103.1000 102.8000 102.6000 102.1000 102.3000 101.3000 100.2000 100.5000 101.9000 100.8000 101.1000 100.4000 99.9000 100.3000 102.9000 102.3000 102.5000 101.9000 101.2000 101.3000 101.5000 101.6000 101.0000 99.7000 98.2000 95.2000 91.5000 84.6000 85.4000 84.7000 83.9000 82.2000 82.2000 86.1000 90.2000 87.6000 82.9000 82.2000 83.8000 93.4000 90.1000 83.3000 83.5000 83.4000 81.4000 93.6776 88.1547 87.3708 90.5189 91.7927 90.6410 93.2755 96.4250 99.5964 103.5963 108.4695 109.2693 110.8089 115.8135 122.7168 127.5855 129.9177 145.7000 156.6000 164.2000 170.2000 173.6000 171.6000 147.0262 147.4070 144.6682 141.0026 137.9330 148.3000 155.2000 164.7000 175.5000 169.4583 175.7325 165.2424 157.9000 167.6170 184.0000 197.5000 201.8000 201.0000 197.5000 193.2000 191.4000 185.4000 180.9000 178.6000 174.7000 171.2000 170.2000 167.9000 159.8000 149.2000 142.3000 135.6000 132.1000 128.5000 123.9000 119.4000 116.4000 116.3000 124.8000 128.3000 128.8000 129.6000 126.0000 116.3000 108.8000 89.1237 83.4341 83.8906 61.8782 43.2613 30.2393 19.0834 13.0010 7.2872 1.8197 -3.6285 -9.0097 -13.0593 -15.7922 -21.3432 -26.0440 -30.2535 -37.2781 -45.4914 -32.0871 -26.0053 -36.7674 -68.5626 -94.6266 -110.5159 -123.5863 -135.1294 -144.1860 -153.5488 -159.6787 -162.1671 -164.0153 -160.1304 -159.2222 -156.6864 -152.4374 -153.4443 -149.0510 -145.0773 -139.8890 -140.8690 -130.8806 -117.6412 -101.7590 -81.7428 -62.0730 -51.3580 -31.4384 -8.2139 -8.3117 44.1139 50.7743 56.4000 59.1000 59.3000 59.1000 60.1000 60.9000 64.2000 61.3000 58.5000 55.9000 55.8000 55.7000 58.2000 63.7000 65.9000 65.4000 67.6000 68.0000 71.6000 72.1000 72.2000 71.8000 72.6000 74.5000 75.2000 75.0000 75.6000 74.7000 74.1000 75.4000
109.1000 108.4000 107.7000 107.8000 108.1000 105.9000 105.8000 105.4000 104.9000 104.9000 104.1000 105.5000 102.8000 104.1000 104.0000 103.4000 104.1000 101.6000 100.9000 100.8000 100.5000 100.7000 101.3000 100.2000 100.4000 103.2000 101.8000 99.5000 98.0000 96.9000 97.6000 98.5000 101.0000 100.9000 99.2000 97.6000 94.8000 91.6000 88.0000 88.6000 84.4000 84.6000 82.3000 82.2000 85.9000 87.1000 91.0000 87.0000 82.5000 91.2000 97.7000 94.7000 83.3000 83.1000 83.5000 82.5000 85.1210 87.3000 89.8751 93.8787 92.1017 91.8952 93.4473 94.5697 97.9735 103.7911 106.9715 108.5527 111.5105 115.6352 119.5360 125.8698 133.6000 140.4995 153.2000 164.0000 169.2000 176.1000 174.6000 152.6043 154.5036 146.8301 142.9515 136.1594 138.0974 162.5000 173.0000 180.1000 176.2858 177.3949 164.5613 175.3055 171.3000 187.7000 199.9000 206.1000 205.0000 202.8000 204.1000 201.4000 196.6000 192.5000 187.9000 181.0000 175.8000 171.2000 164.6000 158.3000 151.4000 143.4000 140.5000 135.6000 130.9000 126.4000 121.0000 117.9000 115.4000 114.5000 117.9000 122.6000 128.4000 130.0000 126.4000 119.6000 107.0000 89.1762 72.0919 67.6735 53.8744 39.0897 32.1896 23.4330 17.5190 12.7806 1.7901 -3.8546 -7.2429 -5.9108 -10.4172 -14.9443 -22.3704 -28.6409 1.4733 11.3863 43.6958 24.3724 -18.7690 -48.1271 -109.4016 -122.9707 -133.8444 -141.3861 -146.8073 -151.7801 -153.7755 -151.8608 -151.1722 -150.1060 -147.7931 -144.2792 -143.7328 -145.4628 -142.7543 -141.4887 -141.8691 -133.6816 -119.5982 -106.1249 -87.8760 -67.5068 -53.1140 -46.1500 -22.7467 -23.0144 43.3046 49.7479 50.0230 57.0000 58.2000 58.3000 59.0000 58.1000 56.9000 56.9000 56.2000 55.9000 56.5000 56.6000 58.2000 59.8000 62.8000 66.9000 65.8000 69.0000 72.2000 70.9000 71.4000 71.9000 72.4000 74.2000 74.8000 75.2000 75.3000 74.8000 74.8000 75.1000
109.8000 109.1000 108.2000 106.1000 106.9000 106.7000 105.6000 106.0000 106.9000 112.2000 108.2000 109.7000 111.1000 110.6000 108.8000 108.4000 106.5000 106.4000 105.2000 103.0000 100.6000 99.7000 103.5000 104.7000 104.8000 104.3000 100.2000 96.9000 94.1000 92.5000 91.9000 91.7000 92.5000 92.7000 92.5000 92.0000 90.6000 89.2000 89.1000 85.7000 88.2000 83.6000 84.5000 82.2000 82.2000 87.4000 88.2000 90.0000 88.6000 94.7000 98.3000 97.2000 89.5000 84.1000 83.5000 77.9562 84.8995 89.8471 93.2421 93.8037 92.9294 91.7632 92.4829 95.4072 100.1142 102.3805 103.8703 106.7197 110.7905 115.4470 121.8608 128.0664 135.1000 147.3000 155.8000 163.3000 174.0000 179.9000 179.2000 156.4451 155.9022 150.7750 143.2903 140.2000 139.8014 167.6000 176.4000 181.6000 178.7222 173.2934 182.3000 178.3342 179.9835 192.7000 202.3000 210.2000 211.3000 207.9000 210.9000 209.8000 206.8000 202.1000 195.0000 184.4000 175.4000 167.5000 160.2000 157.3000 155.0000 149.6000 143.9000 140.9000 133.6000 129.0000 126.3000 122.4000 116.4916 112.5812 110.7497 118.6000 125.5000 129.3000 129.8000 125.8000 116.5000 106.5000 73.7981 74.1717 62.5445 52.1180 44.1341 38.3476 31.5396 19.8178 8.2457 3.9925 4.3808 1.9089 -2.0386 -5.7768 -12.8901 15.5475 -0.0585 18.8518 33.8826 56.0757 19.6411 -36.5123 -68.7953 -118.6102 -128.8441 -134.1729 -135.8391 -142.9758 -141.1483 -140.4742 -140.9760 -140.4401 -138.1400 -136.7377 -134.3220 -135.9690 -142.6443 -142.0230 -142.8753 -131.6630 -118.6698 -105.7754 -92.1060 -78.1255 -64.5928 -49.0416 -38.0826 -36.3529 41.6729 49.5467 49.3098 57.7000 57.9000 58.1000 59.5000 58.8000 59.4000 56.9000 56.7000 56.2000 56.3000 56.5000 57.4000 60.1000 66.3000 67.8000 66.7000 66.9000 69.9000 71.3000 71.6000 71.4000 72.7000 73.5000 73.6000 74.0000 74.0000 75.3000 75.3000 74.9000
108.0000 108.0000 107.6000 108.1000 108.0000 110.5000 113.1000 114.5000 115.6000 115.1000 114.5000 113.8000 114.5000 112.9000 111.3000 110.4000 108.8000 107.1000 104.9000 103.5000 101.1000 101.3000 99.6000 99.3000 101.2000 94.9000 93.7000 93.4000 92.5000 91.7000 91.4000 90.5000 90.0000 90.2000 89.9000 89.5000 89.3000 88.8000 88.2000 86.8000 84.6000 84.1000 84.5000 84.2000 82.2000 82.2000 85.7000 86.1000 87.0000 92.2000 98.9000 99.7000 94.7000 86.1000 81.7872 79.2430 86.7909 92.1800 93.0670 94.1715 93.7105 93.9791 95.5471 97.9824 102.4393 105.4655 108.4134 111.7945 115.7273 119.2640 124.0483 132.2000 138.6444 141.5039 154.9000 164.8000 175.5000 182.4000 181.8000 161.0784 158.9296 149.6204 147.1718 143.0450 153.5000 162.2000 175.2000 186.4000 183.2421 181.0019 181.8733 187.2000 184.2411 183.6044 185.5228 202.4000 210.0000 212.1000 214.3000 217.8000 216.6000 212.6000 204.6000 194.0000 182.7000 178.6000 170.0000 165.6000 159.5000 161.4000 158.8000 147.1000 139.5000 134.4000 130.3000 121.3771 116.3674 111.7302 109.6459 110.8731 121.1000 125.0000 127.5000 128.1000 121.9000 112.5000 102.6000 79.5490 72.2865 67.3608 62.1811 56.8773 44.9135 35.4695 27.7019 15.4461 13.0450 11.9617 9.2131 3.5873 0.1170 73.5840 71.0981 65.4340 64.9677 38.0522 37.1897 -17.3509 -59.4310 -85.6147 -114.3358 -123.6619 -122.9456 -126.2684 -126.9943 -128.1787 -127.5672 -126.8070 -125.2260 -125.9668 -125.7650 -128.9812 -134.3177 -131.8090 -134.9692 -128.5504 -118.7683 -108.4716 -89.2950 -79.0695 -60.2519 -54.8086 -44.4086 -40.1736 38.3403 38.6905 49.1220 59.0000 61.5000 60.9000 61.0000 61.3000 61.7000 61.0000 57.2000 56.6000 56.2000 56.8000 56.8000 59.1000 67.1000 68.3000 66.4000 66.8000 67.5000 69.1000 70.9000 72.1000 71.7000 67.7000 74.2000 74.1000 75.1000 75.5000 75.3000 73.9000
109.4000 115.2000 120.4000 118.2000 124.0000 116.6000 117.1000 116.9000 117.5000 117.6000 116.4000 115.3000 114.7000 113.0000 111.3000 109.8000 107.6000 105.6000 103.3000 102.7000 102.1000 102.8000 104.0000 98.9000 97.3000 96.5000 98.8000 94.5000 95.7000 94.3000 94.8000 93.4000 92.9000 93.1000 91.1000 89.6000 89.2000 89.3000 89.7000 87.5000 86.1000 88.4000 88.0000 86.1000 82.2000 82.2000 85.5000 86.0000 86.2000 86.1000 94.0000 95.8000 93.4000 89.7000 82.9000 88.0000 88.4986 92.9744 93.0374 93.7962 94.5796 96.0698 97.1432 100.2578 103.0476 105.4336 108.5698 112.9468 118.4699 124.9061 130.1002 133.8287 134.6456 145.6000 155.0000 165.1000 174.8000 180.7000 182.1000 169.4634 160.0183 153.6091 148.7377 146.2459 154.9000 166.2000 173.8000 184.4000 181.8426 181.2838 179.0768 180.7661 183.0126 183.2554 184.5170 188.7962 203.9000 214.4000 215.9000 218.2000 219.9000 218.2000 213.6000 202.4000 193.0000 186.0000 179.1000 171.3000 165.1000 165.8000 163.4000 153.7000 143.5000 138.0000 132.1000 121.4917 117.0548 113.7918 109.2364 107.6090 108.5294 127.1000 127.7000 128.1000 126.3000 120.1000 108.9000 77.7765 81.4939 81.7280 79.3643 71.4793 63.1200 54.7837 46.0886 38.6005 27.1788 23.7482 27.1765 19.8097 78.9439 79.6002 77.6588 73.4679 70.1714 50.4591 39.3022 11.9780 -34.2486 -74.0088 -105.3804 -112.8127 -110.5461 -107.5001 -113.6491 -113.3565 -115.4328 -114.8353 -111.2583 -110.3900 -116.4510 -111.3596 -117.2628 -121.2134 -123.8830 -117.0660 -107.3158 -98.3334 -86.1023 -68.2387 -62.3020 -59.0223 -53.7119 -47.7028 -50.5033 34.9054 46.8138 47.3845 61.7000 71.5000 65.0000 61.8000 61.5000 61.1000 61.1000 59.3000 56.6000 56.4000 56.5000 57.1000 64.9000 67.2000 66.5000 67.5000 66.5000 66.0000 66.8000 67.6000 69.4000 73.1000 71.5000 73.0000 74.1000 74.9000 73.8000 70.6000
116.3000 117.5000 119.1000 124.1000 127.2000 131.4000 129.4000 122.6000 121.1000 120.0000 117.6000 116.2000 114.6000 112.5000 111.0000 108.0000 105.9000 104.6000 103.6000 103.4000 103.1000 102.5000 103.8000 104.2000 106.8000 105.5000 103.4000 102.7000 100.8000 99.7000 100.3000 103.7000 105.1000 98.2000 95.0000 92.8000 94.1000 94.5000 92.7000 92.0000 89.9000 90.2000 92.8000 89.8000 86.7000 85.5000 85.7000 86.3000 86.9000 85.9000 88.6000 90.8000 89.7000 88.9000 83.2000 86.4590 88.7238 91.5904 94.6246 93.7624 94.7656 96.9103 98.9162 101.5444 104.6427 105.3585 106.8492 110.3537 116.4692 121.0333 126.1814 131.6000 133.3661 146.5000 153.7000 163.3000 170.1000 174.6000 175.4000 165.9805 158.7101 153.7583 147.0204 145.2545 152.9000 164.2000 173.8000 168.1000 180.7000 180.0488 179.7859 176.7551 177.5036 179.0800 180.4325 185.5108 187.8909 209.0000 214.3000 215.1000 214.5000 219.5000 218.1000 209.8000 203.8000 197.3000 186.1000 180.6000 177.8000 170.0000 160.1000 152.6000 147.2000 142.8000 133.5628 125.5848 121.0116 116.4644 113.1424 107.1061 109.6664 118.8000 125.8000 129.6000 130.3000 125.4000 120.2000 111.2000 104.4000 84.1552 93.4536 91.1103 79.9008 69.2045 62.7113 50.7284 43.9170 35.9987 39.2617 80.6916 80.3254 81.5014 75.6874 72.8075 70.0298 67.7896 55.1883 8.1402 -37.5630 -64.5463 -87.5425 -96.7164 -96.1077 -95.1081 -102.0130 -102.1514 -102.0719 -100.5940 -99.9925 -101.9363 -97.1645 -104.0391 -104.5972 -105.9685 -107.2636 -100.8685 -93.8107 -87.0944 -80.3952 -68.6962 -64.3239 -61.5200 -59.2953 -56.4933 -57.6434 -60.6977 46.2176 46.0180 59.6000 68.6000 70.8000 66.1000 64.0000 62.4000 66.7000 64.8000 61.3000 56.5000 56.4000 56.9000 60.6000 65.4000 66.7000 67.0000 66.5000 67.0000 65.8000 65.1000 65.1000 70.0000 54.8000 68.4000 73.9000 66.1000 64.0000 63.0000
124.0000 124.4000 124.5000 126.0000 126.7000 129.0000 130.4000 128.8000 125.7000 121.3000 117.3000 115.6000 114.0000 112.3000 111.0000 107.9000 105.9000 104.4000 102.2000 102.5000 102.8000 102.4000 103.5000 104.1000 103.8000 104.1000 106.6000 106.6000 108.0000 104.3000 100.9000 100.4000 99.5000 98.0000 96.0000 95.5000 94.3000 93.9000 90.7000 89.9000 89.9000 88.3000 91.5000 93.0000 88.1000 85.9000 85.9000 86.6000 86.4000 86.0000 87.9000 86.4000 84.2000 84.2000 84.0000 84.1000 86.4461 91.7004 92.9426 96.3288 95.8622 96.6244 99.4152 100.5341 102.9863 105.5475 107.3407 108.5730 113.9916 120.8740 123.6416 128.4000 137.0000 145.2000 152.5000 160.2000 161.7000 163.0000 165.9000 159.1631 157.4429 149.6879 146.3189 145.3002 150.0723 164.1000 170.6000 184.9000 178.9000 183.8000 179.6000 178.3703 177.4845 176.9422 177.3662 185.6268 191.6297 200.1000 205.9000 206.8000 211.1000 218.1000 224.3000 221.3000 215.3000 207.3000 197.4000 196.1000 190.0000 180.3000 162.3000 158.7909 150.3042 143.2517 138.6020 130.9058 124.4429 120.1139 119.3956 116.8064 110.1006 106.7099 108.0678 126.6000 129.7000 128.5000 127.3000 120.5000 115.9000 111.0000 106.5000 91.1944 99.5679 83.3648 76.2428 67.0976 52.5174 48.5208 46.7047 80.2552 77.6445 71.8976 71.6355 70.6662 70.4083 67.0106 54.2477 22.6050 -13.0271 -39.6495 -68.1067 -81.2047 -79.6105 -89.2565 -89.6320 -91.3526 -88.4708 -93.3583 -94.3337 -92.9463 -93.7798 -93.7544 -93.1719 -91.3555 -90.8970 -85.6983 -82.2811 -78.1646 -75.0026 -70.2494 -66.7883 -64.9946 -63.9597 -61.4115 -62.4381 -62.0116 31.1046 45.1638 60.2000 67.6000 70.7000 70.3000 64.7000 63.1000 64.6000 63.2000 63.5000 58.4000 56.6000 56.9000 59.5000 65.5000 63.8000 66.6000 65.6000 66.9000 66.9000 65.8000 64.6000 63.9000 66.9000 63.7000 59.9000 58.8000 58.6000 59.0000
128.1000 129.1000 129.6000 128.7000 128.4000 127.3000 127.1000 126.9000 124.9000 120.6000 117.1000 113.9000 113.7000 112.0000 110.0000 109.1000 106.7000 104.3000 103.8000 100.8000 101.1000 102.4000 103.3000 103.5000 104.3000 103.3000 105.9000 102.9000 101.4000 98.4000 96.4000 95.2000 95.3000 95.0000 95.6000 93.3000 92.5000 92.5000 92.1000 90.1000 89.7000 89.5000 91.6000 93.2000 90.4000 86.7000 85.8000 86.9000 86.9000 86.6000 86.7000 87.0000 84.7000 84.0000 84.9000 83.1000 83.0000 90.0300 94.6806 93.7731 93.6401 97.0637 98.1546 98.6228 99.8805 102.5512 104.5474 106.7618 113.8579 121.3442 127.3145 130.4381 135.8000 134.8099 147.9000 155.3000 154.9000 152.9000 157.9000 156.8181 154.5190 150.6396 147.9410 147.7427 152.5690 159.4949 162.6312 188.7000 189.7000 189.8000 191.8000 178.6741 178.7862 176.1595 182.0245 186.6585 187.9717 196.2143 205.0000 216.4000 219.0000 221.3000 226.0000 226.5000 223.2000 216.4000 212.1000 206.3000 198.1000 177.9000 190.2000 170.5075 155.5609 145.8294 140.9526 135.0821 129.8370 126.1492 124.4675 121.4553 118.4918 112.4833 105.0102 107.8265 122.2000 126.4000 126.7000 128.1000 126.2000 121.7000 119.2000 116.9000 114.4000 88.2559 93.6841 84.2218 72.7538 63.0378 64.0610 79.0626 77.9650 74.7259 71.3998 78.9000 72.8668 73.1730 56.5045 31.8361 15.2930 -9.0071 -35.4833 -54.1754 -70.0593 -76.0702 -82.8121 -85.0541 -87.2568 -88.8698 -89.1166 -88.1188 -93.1978 -84.4725 -81.3860 -78.4720 -74.7178 -73.7843 -72.8213 -69.4729 -66.1327 -64.2049 -62.1401 -59.7427 -57.6530 -52.9027 -50.7380 -51.2447 -49.9908 44.3760 58.2000 60.8000 60.2000 65.8000 71.3000 67.9000 63.1000 62.6000 66.1000 67.5000 59.1000 57.0000 58.2000 59.9000 60.8000 63.6000 64.5000 66.3000 67.3000 66.2000 63.6000 59.4000 58.5000 60.4000 65.1000 68.1000 45.8000 65.0000
123.0000 124.8000 126.3000 126.5000 127.4000 127.2000 124.9000 123.1000 122.1000 119.5000 118.3000 113.7000 112.5000 110.8000 110.0000 109.4000 108.2000 107.3000 101.6000 101.2000 100.4000 100.6000 102.1000 103.6000 104.1000 105.3000 104.2000 106.4000 102.9000 100.0000 96.7000 95.5000 95.5000 97.6000 97.3000 95.8000 95.4000 91.6000 91.9000 94.7000 94.0000 89.8000 90.3000 94.1000 94.5000 92.7000 87.8000 86.9000 86.5000 85.9000 88.4000 86.5000 84.6000 83.9000 84.3000 85.0000 84.7000 83.3000 88.4551 92.0373 93.7827 94.1561 90.7698 89.4584 97.5086 102.0538 104.2830 106.2858 110.9623 118.1130 122.6427 127.8429 130.1647 137.2000 143.8000 150.9000 147.9000 147.2000 154.0000 159.1011 158.4925 150.3284 148.1474 146.6502 147.8323 157.1707 171.2280 183.5000 190.6000 193.0000 195.1000 181.1059 180.0553 175.9241 186.9862 185.2231 199.4000 206.6000 217.2000 221.4000 224.3000 222.7000 225.1000 225.7000 223.5000 220.2000 214.5000 202.7000 184.6000 199.0000 192.7000 173.5395 160.3457 151.2810 144.1240 137.6675 135.4450 131.9011 130.4426 126.4583 121.8036 115.7923 111.7980 106.6712 104.8026 119.0000 123.8000 126.6000 128.7000 127.1000 124.6000 121.8000 116.3000 113.6000 98.1851 101.9885 92.3178 80.6245 78.8982 82.9000 92.6721 88.5858 90.5000 81.0415 84.3654 77.5317 66.6369 54.6711 35.5441 13.3043 9.3632 -10.6147 -35.0206 -52.9816 -59.5800 -64.4685 -66.6531 -70.1293 -70.3282 -82.3411 -75.6662 -73.3341 -74.3816 -65.8614 -58.9233 -61.7184 -60.1150 -59.5765 -55.7950 -50.8498 -49.3197 -49.3250 -44.9392 -39.0439 -38.7123 -36.7161 -35.9822 45.5086 45.7844 58.0000 57.3000 65.0000 70.6000 69.1000 63.2000 62.7000 61.0000 66.3000 61.7000 56.7000 57.1000 58.3000 60.4000 60.5000 63.5000 64.3000 65.8000 61.4000 58.0000 58.1000 61.8000 67.5000 70.7000 61.6000 67.3000 67.5000
121.0000 121.3000 119.7000 119.1000 118.4000 119.2000 120.3000 120.8000 119.2000 117.2000 115.5000 114.5000 112.6000 110.3000 108.8000 109.0000 107.8000 107.2000 102.5000 101.2000 101.4000 99.1000 101.7000 104.7000 105.1000 105.9000 105.8000 106.5000 106.3000 103.3000 98.7000 96.9000 95.0000 95.1000 94.5000 93.8000 92.4000 92.9000 95.9000 96.5000 93.6000 89.7000 89.2000 89.3000 87.7000 88.4000 88.3000 88.0000 87.0000 87.3000 87.6000 88.6000 87.0000 86.3000 85.9000 85.0000 85.1000 85.0000 85.5000 90.4000 96.1533 90.2093 89.0714 86.9811 90.3514 92.4816 101.0797 104.0901 108.8111 112.7743 117.8356 121.9377 126.3000 133.8000 140.3000 140.6000 138.9000 141.0000 147.7000 163.7000 164.2919 154.8919 147.8640 145.4716 146.1737 154.6990 164.4439 166.4892 184.6000 190.3000 194.8000 181.3404 184.4761 182.0547 181.6855 193.7506 201.9000 208.3000 214.3000 220.3000 219.4000 217.1000 218.1000 220.8000 224.9000 222.7000 217.3000 199.6000 209.1000 201.7000 178.6731 172.9454 168.3622 156.5278 148.0032 145.1650 139.7555 136.1706 133.0202 127.8616 123.2930 118.5454 113.1558 105.6957 102.0410 104.0267 102.4647 121.8000 125.6000 126.1000 126.8000 125.1000 122.2000 117.5000 100.8715 96.0156 95.3744 93.0324 91.4000 101.3507 100.4707 95.4666 96.0000 94.8986 92.5036 72.0914 72.1057 62.5839 70.8611 32.3865 17.6693 58.6244 22.9174 -5.1631 -31.3114 -38.8043 -40.4610 -46.4108 -56.0270 -56.4430 -54.1379 -50.8941 -48.3331 -47.6299 -42.6343 -43.2689 -44.5495 -43.3843 -39.8097 -34.9313 -33.8173 -32.2919 -29.1596 -26.2041 -23.7592 -25.1737 -30.7942 -22.8362 47.5592 51.5000 58.7000 59.4000 72.1000 67.2000 67.8000 62.9000 62.9000 65.0000 66.2000 59.8000 57.1000 58.1000 59.4000 58.0000 57.5000 57.6000 57.3000 57.3000 58.1000 59.3000 63.4000 65.3000 67.7000 70.8000 72.9000 70.3000
117.0000 117.5000 116.5000 116.5000 116.1000 115.4000 113.8000 112.0000 115.3000 114.8000 115.7000 113.7000 112.9000 111.2000 109.9000 108.4000 107.1000 106.5000 106.4000 104.5000 101.5000 99.6000 99.8000 104.3000 107.7000 108.2000 108.0000 106.8000 105.0000 105.8000 105.4000 103.8000 96.4000 93.9000 93.0000 92.6000 92.2000 93.9000 94.8000 93.9000 91.9000 91.2000 89.4000 89.6000 89.5000 89.3000 91.1000 91.1000 95.1000 92.5000 88.1000 88.3000 89.4000 87.5000 86.3000 85.0000 84.9000 85.4000 85.0000 85.8000 85.2000 84.1660 86.2899 87.1654 90.7230 94.3990 92.3786 98.3904 103.2884 109.9245 115.9515 118.5749 127.7000 131.8000 133.7000 138.4000 150.4000 160.5000 168.1000 174.7000 161.8065 161.3631 152.2148 147.8616 148.2612 153.9849 163.7958 163.5320 183.8000 188.5000 192.4000 180.4020 179.4900 178.0043 185.4583 187.7834 194.2000 197.8000 203.5000 207.8000 208.4000 212.6000 218.4000 223.9000 225.1000 224.3000 219.5000 217.9000 212.8000 204.4000 186.2751 176.2046 178.1000 176.0000 158.5262 151.2552 145.2203 139.9069 134.7781 130.9181 124.7943 117.7127 113.1988 112.2222 108.4022 101.0475 103.1000 101.7305 98.4485 95.6428 93.8390 90.9761 92.4689 104.1640 95.0916 91.1943 86.0312 89.4000 102.4000 107.2639 108.0985 101.3232 99.1196 100.0000 97.0056 92.9479 89.5546 68.6746 90.5988 88.6328 84.3846 51.6458 73.3957 35.9994 14.3614 -5.9587 -10.2979 -14.3364 -29.4966 -31.1520 -29.9391 -26.6165 -11.7982 -20.0327 -27.4079 -23.9959 -23.7442 -26.0910 -19.3940 -17.7592 -16.1843 -16.3381 -13.8189 -11.6153 -12.7455 -15.6313 -17.3166 -20.3979 39.3623 51.0000 51.8000 59.7000 64.8000 67.0000 69.8000 69.8000 73.3000 69.6000 68.6000 67.0000 59.9000 56.6000 56.8000 56.8000 56.9000 57.0000 57.3000 57.9000 58.9000 60.4000 63.6000 67.1000 67.4000 70.1000 68.6000 68.7000
115.5000 115.3000 115.5000 115.1000 115.6000 114.5000 112.1000 112.3000 112.0000 109.3000 112.0000 111.9000 113.6000 112.8000 111.9000 110.5000 109.4000 109.1000 107.9000 109.0000 105.2000 100.9000 99.4000 99.9000 102.1000 107.5000 108.6000 107.7000 105.2000 104.6000 103.5000 100.6000 104.5000 100.9000 93.6000 92.2000 91.8000 92.2000 91.8000 92.6000 89.9000 89.8000 90.0000 90.0000 89.7000 90.4000 94.5000 94.2000 99.4000 100.1000 95.7000 91.6000 88.8000 88.8000 86.7000 86.9000 86.7000 85.5000 85.3000 83.0000 86.1000 83.9000 86.3000 84.6000 84.6000 88.1859 94.2067 99.2883 103.8677 109.7215 116.6000 121.6000 126.5000 124.9000 132.1000 143.7000 154.3000 162.7000 171.1000 176.9000 181.7000 166.6792 159.2236 153.6950 153.1024 153.8732 162.3563 163.9662 181.2000 186.1000 189.6000 178.1023 177.2398 173.5469 177.5565 187.2477 183.5841 197.6000 207.8000 216.1000 215.8000 218.0000 223.7000 229.0000 228.0000 227.1000 225.1000 222.2000 217.0000 209.6000 201.5000 194.2000 187.6000 181.9000 156.9195 158.1006 148.8985 142.7669 136.4783 130.3630 127.4260 122.8449 118.8288 113.5419 111.8193 110.3510 104.3015 100.3844 95.0398 96.6393 95.2494 89.6284 88.0504 88.0330 89.6832 91.9000 102.6210 94.3000 113.8211 110.3661 108.0079 106.7950 106.5119 105.2343 102.2341 101.9000 98.9901 95.9890 93.4272 91.9188 89.7108 83.4540 60.8917 73.2801 39.4908 28.0289 24.5869 9.0862 0.5199 -1.3040 -3.7662 -6.2425 0.0800 -4.3029 -9.2373 -2.6530 4.1697 0.3198 -3.3503 -2.2087 -1.8652 -1.5815 -2.5657 -5.5779 -6.5794 -10.6679 -15.0254 -18.4838 -18.9588 48.4529 51.0000 54.8000 58.6000 76.4000 69.3000 75.2000 78.0000 72.8000 72.5000 71.8000 65.2000 58.9000 56.6000 56.7000 56.5000 57.4000 57.0000 58.3000 59.5000 61.5000 66.2000 65.8000 66.1000 66.5000 67.2000 68.3000
120.2000 120.5000 119.3000 117.8000 116.1000 114.2000 112.3000 113.3000 113.1000 114.7000 113.1000 112.0000 108.1000 111.5000 112.1000 112.4000 109.9000 109.9000 108.7000 107.4000 105.8000 102.9000 101.2000 99.0000 98.9000 101.1000 105.9000 106.0000 107.1000 107.0000 105.1000 102.4000 97.9000 97.7000 99.0000 93.6000 91.8000 91.3000 91.1000 91.2000 90.9000 91.5000 91.2000 90.2000 90.3000 90.7000 95.7000 98.1000 99.0000 101.3000 101.3000 97.2000 91.0000 94.1000 94.4000 93.5000 92.6000 86.1000 86.0000 83.0000 83.0000 87.0000 83.9000 83.9000 81.6840 88.5234 86.6836 91.8968 104.7000 108.2000 112.4000 113.4000 115.7000 125.9000 134.0000 143.9000 150.9000 161.6000 171.8000 176.7000 180.0000 163.7321 165.2935 160.2552 157.5325 157.0810 159.9530 163.7265 169.7597 179.8000 186.7000 174.9006 177.5772 173.2163 172.4165 179.6477 183.8570 182.4378 199.4000 211.1000 219.5000 217.9000 221.7000 223.8000 229.9000 229.6000 227.2000 224.2000 221.0000 215.7000 209.5000 200.8000 189.3000 179.7000 162.8411 159.7959 150.5866 146.4339 139.0106 131.4224 127.2968 128.5533 122.8310 120.4230 120.0732 116.4602 108.3871 106.1928 106.0651 104.1977 98.3104 94.8763 94.3915 94.9302 97.7095 99.8157 100.6092 97.1027 109.3202 113.0239 110.6686 108.8825 108.6996 109.2399 109.5981 108.2970 106.2492 102.1350 100.6344 97.3655 93.3539 85.8553 89.2913 63.5061 67.5632 54.8725 43.7997 33.7927 27.4771 23.4491 18.2012 13.5238 10.5149 8.8469 8.9397 7.3207 3.8047 -1.7419 5.2814 3.5099 3.1386 0.4846 -3.0149 -4.9891 -7.1633 -10.3454 -14.1864 -17.9946 40.3467 48.5037 54.6000 51.2000 61.1000 69.8000 66.7000 71.9000 74.2000 73.9000 74.1000 72.4000 69.7000 61.3000 57.1000 56.7000 56.5000 57.1000 57.0000 58.9000 62.3000 68.9000 65.2000 65.0000 68.3000 69.5000 70.6000 70.1000
120.8000 118.7000 116.6000 113.6000 113.4000 114.7000 116.7000 114.2000 115.0000 114.3000 113.7000 111.6000 112.7000 111.4000 109.4000 110.2000 110.1000 110.5000 108.0000 106.8000 106.3000 105.3000 103.8000 100.5000 99.3000 98.7000 99.0000 102.2000 100.5000 99.6000 102.9000 99.9000 96.6000 95.4000 94.6000 94.4000 92.0000 91.5000 91.5000 93.4000 92.2000 91.2000 90.8000 91.5000 90.8000 91.6000 92.8000 95.8000 98.6000 101.1000 103.0000 102.5000 97.5000 93.6000 92.2000 95.1000 98.2000 98.5000 93.7000 86.9000 86.0000 84.9000 83.9000 83.9000 82.3376 79.6916 86.3432 92.1764 97.1709 103.6000 107.7000 111.8000 118.2000 125.0000 130.3000 141.9000 148.5000 156.6000 163.6000 171.1000 177.9000 182.6000 163.4271 164.7326 163.3649 160.8155 161.3619 162.7764 166.1514 168.5008 174.3360 170.9523 173.8333 170.4864 170.8620 176.5045 178.5523 184.6000 192.5000 203.3000 222.4000 223.9000 224.3000 223.7000 221.8000 219.1000 220.8000 222.4000 220.3000 214.9000 209.0000 201.6000 194.7000 190.7000 183.2000 166.0000 162.7646 153.2617 153.2000 157.1000 150.8000 131.4342 131.3274 125.8939 125.0106 119.6715 115.8689 112.5074 113.2404 113.1610 100.2351 106.3703 105.8080 107.0079 108.3330 107.9201 104.5639 99.9796 100.9533 105.1439 107.9128 107.0445 108.6697 110.6979 111.3088 110.5002 108.5790 106.1605 103.9966 99.5674 87.2288 87.5000 93.9256 86.0795 73.6904 66.8515 60.9015 42.2739 38.9579 49.3870 44.9724 40.2749 31.7039 25.2051 25.7104 19.8125 11.9668 15.0655 13.7992 13.6361 9.3026 3.8400 0.2924 -4.8519 -6.3626 -7.5774 -11.3142 42.4120 42.2981 48.9000 48.9000 56.2000 56.8000 64.2000 65.8000 68.4000 70.0000 73.1000 70.7000 71.0000 70.7000 65.1000 59.4000 57.4000 57.0000 56.9000 57.9000 61.5000 65.4000 69.3000 70.3000 68.6000 66.5000 69.0000 71.3000 71.4000
115.3000 114.6000 121.6000 141.9000 157.7000 149.4000 130.3000 123.5000 118.4000 117.0000 115.4000 114.7000 108.9000 108.3000 111.4000 112.1000 108.5000 107.0000 106.0000 104.5000 104.2000 104.5000 104.7000 104.7000 101.7000 99.7000 99.7000 98.6000 102.5000 100.8000 101.5000 102.9000 97.5000 94.6000 93.8000 93.7000 92.5000 92.0000 93.5000 92.6000 92.0000 91.9000 92.4000 91.9000 93.8000 93.2000 96.4000 99.7000 101.3000 100.8000 102.8000 103.3000 102.7000 99.9000 103.9000 92.7000 93.9000 99.1000 99.3000 97.8000 105.1000 89.7000 86.0000 87.0000 87.6000 79.4513 82.2681 83.8916 89.6934 93.6100 105.2000 109.7000 113.0000 121.1000 128.7000 137.0000 143.5000 149.8000 154.1000 161.4000 169.5000 177.9000 183.5000 166.3971 166.5659 165.0188 162.4657 162.4756 164.6133 169.5318 166.5529 167.6248 167.7089 168.8832 168.9909 173.8515 177.6000 182.1000 188.2000 199.1000 222.9000 230.5000 227.6000 224.1000 212.9000 201.9000 201.5000 207.2000 213.9000 212.6000 209.5000 206.9000 202.9000 195.3000 189.4000 185.0000 175.7000 171.8000 166.6000 168.7000 163.3000 144.7664 143.0252 132.3481 132.1877 127.8593 124.0410 120.9399 119.5686 108.9786 108.7386 112.5641 127.3703 128.4553 127.7466 126.3318 120.7565 116.7864 118.7885 116.5308 114.4543 113.9249 115.0925 114.2164 115.2000 115.5084 113.7393 109.2191 102.7919 97.1745 84.6028 93.8640 94.6585 85.5703 72.2116 65.5479 65.9199 60.5277 58.2116 53.9440 52.6108 54.3239 51.5606 46.4667 44.3856 29.7464 30.4362 28.3578 24.6295 28.4779 19.3772 11.0201 5.7036 2.4211 0.6087 -6.4673 43.9981 43.5054 43.5773 57.4000 55.9000 52.3000 52.3000 58.3000 64.4000 66.1000 66.8000 71.1000 74.1000 74.4000 72.4000 67.7000 62.1000 59.4000 57.4000 58.9000 61.0000 65.9000 67.5000 72.3000 71.7000 69.8000 67.4000 68.0000 71.7000 72.4000
128.1000 120.6000 125.4000 135.2000 166.7000 159.1000 162.7000 137.1000 132.8000 122.2000 116.4000 110.2000 108.7000 108.1000 109.3000 108.4000 110.6000 110.2000 107.1000 105.7000 102.3000 104.7000 105.2000 104.8000 104.3000 103.5000 101.0000 99.3000 98.4000 98.0000 97.6000 101.0000 99.4000 97.5000 95.9000 94.8000 93.0000 92.7000 92.4000 93.0000 92.1000 93.0000 93.2000 94.3000 97.7000 97.4000 96.7000 100.9000 103.0000 102.8000 102.2000 104.2000 104.3000 103.1000 100.4000 91.4000 95.8000 95.6000 99.2000 98.6000 102.9000 92.0000 89.0000 87.1000 87.9000 87.9000 81.8703 85.2844 88.7000 87.7000 93.9657 86.8504 108.1000 118.9000 125.4000 133.0000 137.1000 141.5000 147.0000 155.0000 163.2000 175.1000 180.1000 182.8000 170.9251 165.4802 166.0923 163.9344 165.5535 165.8887 163.9979 163.6366 163.9098 167.6030 170.2517 172.6000 176.8973 179.9618 191.7000 199.4000 205.3000 211.5000 214.8000 208.4000 203.3000 187.7809 185.0000 195.1893 196.7406 202.2000 211.2000 213.1000 207.8000 203.5000 195.8000 190.7000 185.6000 177.1000 176.0000 176.3000 174.8000 158.9932 145.7198 143.4540 135.5555 138.5604 132.2194 125.5927 116.0193 113.4287 126.7000 112.3146 124.1850 127.9597 137.7483 138.7283 138.2024 135.8389 134.3184 132.9305 119.4601 114.4906 120.7584 127.7345 125.1708 120.9006 116.9620 111.3412 105.3786 89.6187 101.0557 97.2956 94.1778 92.2000 102.6962 82.7567 81.3148 76.7881 54.9040 63.6254 64.3484 61.7370 56.6619 64.2502 59.0014 58.1917 54.9985 40.3347 42.5300 38.6479 31.4530 21.7463 13.0365 9.1958 5.5087 0.7776 43.9156 44.8145 44.3556 58.6000 56.7000 52.3000 52.3000 69.8000 65.9000 63.4000 65.4000 68.7000 73.8000 73.8000 72.3000 68.8000 64.1000 64.0000 64.1000 64.6000 64.2000 65.1000 67.5000 71.8000 73.1000 70.3000 69.1000 68.7000 72.4000 72.6000
127.5000 132.7000 126.0000 140.6000 146.3000 142.1000 158.6000 156.7000 158.2000 128.1000 122.7000 113.8000 111.3000 110.0000 106.0000 105.5000 104.8000 104.0000 103.7000 107.3000 105.4000 102.7000 100.7000 104.8000 106.1000 102.8000 101.6000 99.5000 98.1000 99.1000 97.8000 96.2000 95.5000 94.9000 94.3000 93.8000 93.1000 94.2000 94.7000 97.3000 97.7000 94.2000 94.7000 94.0000 95.0000 99.6000 101.4000 102.5000 102.8000 103.2000 102.0000 102.3000 103.8000 100.7000 99.6000 97.4000 95.6000 98.7000 100.3000 100.6000 99.4000 100.3000 97.1000 99.3000 97.8000 88.1000 88.2000 87.9000 88.5000 89.0000 86.6628 79.9226 81.0253 110.1000 116.0000 120.0000 124.3713 135.2896 135.1506 153.5000 161.7000 169.9000 174.0000 179.0000 169.7699 172.9043 168.2717 166.9141 163.9400 163.2947 163.9703 161.4819 161.4563 163.3203 169.7279 174.3000 178.2965 177.0589 189.4000 190.7000 192.6000 193.1000 192.9000 180.3643 187.7000 189.5845 183.1938 181.5241 182.3106 184.9882 204.7000 213.4000 211.8000 207.1000 202.0000 196.8000 191.6000 187.2000 184.3000 182.1000 172.6133 162.8810 161.4232 150.1990 145.5109 142.3851 136.8233 136.5440 133.0760 130.3914 116.4000 134.3071 118.4778 127.5000 139.1594 141.2224 141.7021 143.6371 139.5359 138.6760 138.2173 136.7963 131.5510 132.8239 130.7365 124.8071 117.4253 107.3280 98.2763 110.5426 105.5087 102.9929 99.0418 93.4648 106.1211 82.8305 84.4202 75.5981 83.3306 81.7132 81.7961 70.3229 75.3619 78.4090 77.2780 69.6648 69.1862 51.7623 40.5042 39.6472 45.9577 30.9284 18.7530 11.0887 3.4603 43.7620 43.9665 44.7468 50.2117 50.6872 55.2000 53.5000 54.4000 60.7000 66.6000 64.1000 65.2000 70.4000 74.5000 73.5000 71.6000 67.8000 66.8000 69.2000 69.5000 68.1000 67.0000 66.9000 66.4000 68.0000 72.7000 75.1000 70.0000 70.7000 71.4000 72.6000
138.4000 140.8000 131.5000 140.8000 145.2000 146.8000 137.0000 130.5000 148.7000 132.5000 120.0000 118.0000 113.4000 107.9000 105.9000 105.9000 104.8000 105.1000 106.4000 106.5000 109.6000 108.9000 104.5000 100.3000 102.4000 100.9000 99.7000 98.4000 99.8000 100.3000 99.4000 98.6000 98.4000 97.3000 96.0000 96.8000 95.7000 95.3000 96.8000 96.8000 97.8000 97.7000 98.3000 98.8000 99.7000 99.8000 100.2000 100.6000 100.5000 100.0000 102.5000 99.8000 99.9000 100.3000 101.8000 102.3000 102.1000 100.5000 100.5000 101.2000 101.0000 100.3000 96.9000 101.4000 101.1000 99.4000 90.1000 88.4000 88.5000 89.0000 80.7649 78.8226 84.3308 86.9265 102.8000 110.8000 120.2026 127.4000 139.4000 136.2740 156.3000 161.0000 167.7000 177.6000 181.7000 185.4000 169.2341 168.8463 165.0298 162.7346 161.7227 160.3769 159.0727 164.5600 170.2385 172.9922 175.1419 177.7382 182.1000 186.0000 183.9000 184.1000 176.6240 176.9480 177.3208 179.1335 176.4684 169.3551 175.5000 176.8527 191.6000 203.8000 210.7000 208.1000 203.2000 198.7000 194.5000 190.3000 186.5000 183.9000 181.4000 175.6553 170.5757 168.6660 164.4200 154.5182 149.8042 146.1950 142.3048 134.9030 133.3668 124.4069 137.1683 139.5836 138.8387 138.8349 144.0424 144.1936 143.8678 141.9648 140.2986 137.6751 132.4152 127.1060 123.5652 120.5146 107.6348 108.1242 118.1705 116.8366 112.0776 111.6957 108.8605 102.3070 101.1000 113.5651 114.5785 84.9088 93.2338 96.2960 94.6137 93.3000 84.4629 83.0933 79.1614 77.0057 70.6291 64.7744 60.6561 59.2365 51.9011 30.6730 27.0531 15.1599 9.9030 45.0188 44.6707 44.8949 51.3528 50.4971 62.0000 62.4000 61.9000 62.3000 65.5000 66.6000 68.5000 70.5000 74.7000 74.1000 73.1000 69.8000 67.9000 69.8000 70.6000 68.7000 68.5000 68.6000 67.9000 68.7000 70.3000 71.5000 71.3000 71.1000 71.0000 72.0000
144.8000 140.2000 132.4000 143.5000 140.7000 148.7000 155.9000 151.6000 148.2000 142.1000 125.9000 124.2000 117.5000 110.7000 111.2000 110.5000 112.5000 115.7000 110.6000 109.5000 108.3000 107.9000 109.1000 108.6000 104.9000 103.3000 101.1000 101.8000 100.9000 100.8000 101.1000 100.3000 99.5000 99.0000 97.9000 97.3000 97.5000 97.8000 97.0000 98.2000 99.9000 99.4000 100.1000 99.4000 100.2000 100.3000 100.7000 101.4000 101.9000 101.9000 102.2000 101.7000 101.5000 104.4000 106.5000 107.8000 107.2000 105.8000 102.9000 101.8000 101.2000 100.7000 100.6000 100.9000 101.6000 102.2000 101.1000 91.7000 88.9000 88.9000 89.4000 81.8435 85.3862 87.7106 86.1499 101.5572 108.6000 120.0000 130.1000 136.7445 147.1000 157.6000 167.1000 177.6000 183.5000 190.6000 187.7000 167.9093 169.8518 164.7873 161.7937 158.4471 155.7924 159.9306 160.1541 166.9536 170.6617 173.6133 179.0000 179.7000 178.2000 171.6983 171.8476 169.8047 167.8437 171.0622 171.0155 168.9564 166.9000 173.6871 186.9000 194.9000 206.8000 208.2000 204.5000 200.4000 196.0000 189.0242 186.0310 183.5675 179.8331 177.3846 173.9271 171.2973 168.0166 163.8481 157.5580 155.3500 150.4972 148.1000 144.8625 137.7407 136.0000 143.2000 145.2796 142.2917 142.6339 144.4289 144.1614 144.6274 141.6852 142.1225 137.3620 132.8339 128.0475 118.0489 118.8450 120.0962 118.0970 113.8619 117.1526 114.6209 109.0814 111.1000 117.7051 119.3981 119.3181 120.6742 121.4770 94.7145 95.1113 93.5676 92.8983 92.0547 99.5817 88.5430 72.9497 74.4109 66.9507 62.9232 62.0762 58.6953 51.1275 50.8110 48.1000 46.1068 46.1954 45.5068 51.4567 51.0993 50.8536 63.9000 62.5000 61.6000 63.5000 65.3000 69.9000 71.4000 72.4000 72.0000 72.7000 73.5000 85.9000 87.9000 88.6000 86.3000 84.4000 70.5000 68.9000 67.6000 69.8000 71.0000 71.8000 71.9000 71.4000 71.9000
148.2000 140.4000 138.4000 146.3000 148.2000 153.6000 150.3000 147.9000 145.6000 144.9000 150.0000 154.9000 160.4000 164.5000 175.8000 126.4000 139.8000 140.7000 117.1000 111.4000 111.0000 112.7000 111.5000 110.3000 107.4000 106.1000 107.1000 111.3000 107.8000 110.0000 107.8000 108.2000 106.8000 101.3000 100.0000 98.9000 99.7000 99.4000 98.0000 98.2000 98.5000 99.7000 100.4000 100.3000 101.0000 102.6000 103.9000 104.5000 104.1000 103.9000 104.3000 104.0000 101.7000 106.5000 108.7000 109.2000 107.3000 105.8000 104.5000 104.3000 104.1000 103.6000 103.0000 101.2000 100.9000 102.4000 102.2000 103.9000 100.4000 89.5000 89.4000 80.7096 78.2991 79.7230 84.1146 91.4991 85.0562 106.8251 115.4000 126.5000 126.8707 150.4000 158.0000 170.0000 176.6000 186.4000 192.5000 190.0000 169.0606 167.3326 161.1235 160.1887 155.3358 157.8794 158.2464 162.0146 164.3987 166.9719 176.6000 177.3000 174.1000 167.4906 166.6232 164.7925 163.3332 164.1730 166.1257 161.9437 170.2115 169.4418 178.5000 191.1000 203.7000 205.9000 203.2000 200.5000 192.3361 188.3395 186.3969 183.3566 180.9489 179.3714 177.0204 174.3125 173.7571 169.5197 164.5860 156.5222 155.0889 153.4121 149.7303 143.4282 143.8000 150.0562 150.5403 149.5328 146.7291 147.9475 148.9337 149.0344 148.3237 145.3630 140.5744 129.8042 127.1991 123.7319 125.6714 127.0876 125.8440 122.2984 116.8565 121.7905 120.1000 114.9320 117.7373 121.5000 120.7329 120.8389 119.9797 118.9388 119.0508 119.9496 115.9193 111.8450 106.2993 100.6363 91.6292 91.7438 67.9972 67.6073 63.9871 61.2759 56.6512 55.4046 51.0241 45.4371 45.6543 46.2737 51.4764 51.1094 50.7084 63.0000 63.7000 63.4000 62.0000 62.8000 64.8000 67.5000 69.9000 72.9000 73.1000 74.6000 93.4000 87.5000 86.5000 86.7000 81.3000 68.9000 68.4000 69.3000 69.7000 70.6000 71.2000 72.4000 71.8000 71.8000
145.7000 149.7000 145.8000 153.6000 148.5000 145.1000 139.5000 136.4000 135.7000 137.2000 138.4000 144.7000 148.0000 148.2000 154.3000 151.4000 177.8000 145.0000 140.9000 129.6000 122.6000 122.3000 113.9000 111.9000 110.5000 110.1000 112.4000 113.8000 113.1000 110.3000 112.1000 109.5000 108.4000 108.0000 107.4000 102.0000 101.8000 101.7000 101.6000 102.7000 103.3000 100.8000 101.3000 102.0000 103.3000 106.8000 108.7000 109.4000 107.1000 107.3000 106.5000 105.4000 103.2000 105.9000 108.9000 109.3000 108.8000 107.5000 106.4000 107.1000 108.1000 107.4000 105.2000 104.2000 103.6000 103.9000 104.0000 102.9000 103.5000 99.8000 104.7000 76.4617 77.3097 76.7011 80.5839 82.1802 81.4892 85.7303 111.8000 118.0270 123.0369 120.8435 146.9000 156.1000 165.8000 175.2000 184.7000 190.8000 171.9232 174.2707 166.8656 162.4005 155.8483 156.5359 156.2468 155.2141 159.2137 157.9005 167.7000 169.1000 169.8000 171.1000 164.0011 163.6715 155.1346 156.9670 160.3490 160.9099 158.0950 165.8663 167.8620 185.6000 193.9000 199.7000 197.5000 190.8151 191.8061 188.7416 185.5781 182.3055 181.0837 178.6771 179.1452 177.0374 174.1723 170.9164 167.0830 163.4356 159.8136 158.9668 156.1669 146.1818 153.6000 155.8000 156.0026 155.4252 154.4000 153.9706 154.4902 153.2860 151.6289 149.3396 144.7159 141.5726 137.1140 131.6400 131.7992 133.0579 136.5365 134.5683 138.2000 134.7000 121.7000 109.9000 132.8000 123.0093 126.7077 122.9126 120.8204 122.3179 122.2884 119.4564 119.0697 119.0382 111.6978 106.9887 103.9729 98.8195 90.0547 66.2497 68.1549 62.6070 58.5548 56.2156 53.4421 50.0020 46.0508 47.1943 46.4649 51.0709 50.6453 50.5680 63.3000 64.2000 61.5000 61.1000 63.7000 66.4000 70.8000 71.7000 72.0000 71.6000 93.9000 87.4000 87.0000 85.2000 76.4000 66.7000 66.9000 68.7000 69.1000 69.9000 70.8000 71.2000 71.4000 71.5000
140.0000 144.9000 145.0000 153.3000 150.5000 139.6000 131.1000 129.7000 129.5000 131.6000 133.1000 139.8000 136.8000 133.0000 132.1000 139.2000 146.4000 149.6000 144.0000 135.2000 128.5000 124.1000 116.6000 116.0000 115.3000 115.6000 116.2000 116.0000 114.1000 112.4000 114.5000 113.7000 111.5000 110.2000 111.6000 112.2000 108.7000 104.2000 103.9000 106.3000 107.4000 108.2000 111.8000 111.1000 109.9000 109.1000 108.8000 109.2000 108.8000 107.4000 106.4000 103.5000 105.6000 106.2000 105.7000 108.3000 111.5000 111.0000 109.8000 110.8000 110.5000 109.7000 108.3000 106.8000 106.4000 105.8000 104.8000 104.8000 104.6000 103.7000 106.1000 73.5619 73.7763 74.4259 75.1950 79.4121 82.0772 81.7321 102.6032 110.1752 114.0853 119.1989 127.0528 138.4000 147.4000 163.1000 173.9000 180.3000 174.1233 174.1665 170.5519 160.4136 160.6453 154.1206 151.1490 156.2697 152.4437 155.5457 159.5000 164.7000 166.7000 171.6000 160.8150 158.8491 157.8306 147.1285 156.8935 155.5611 154.8000 159.2986 164.1686 160.5724 179.6000 183.8000 190.3000 188.7615 188.3033 187.6429 184.1111 181.0047 180.4767 179.6743 179.8771 177.6708 174.6025 170.9310 168.8720 165.4605 162.6181 158.7598 153.7564 157.2699 157.9231 160.1000 160.7901 161.6855 161.3486 160.3741 158.4874 159.3804 157.8590 155.1120 152.9442 149.2915 146.0937 141.9239 144.4302 144.7504 141.3245 143.8551 145.3000 137.2000 145.5000 141.3000 141.3000 136.4856 131.2171 126.2932 122.0170 122.1442 123.1499 122.2853 122.4876 121.9504 113.6459 110.1476 107.1261 102.0857 95.8648 86.0898 64.4284 63.5234 60.3464 57.2141 55.5331 50.8942 46.3603 44.3772 47.8234 46.6488 50.3504 50.2752 60.3000 61.6000 61.3000 60.6000 60.9000 64.4000 67.7000 68.4000 68.6000 73.5000 69.2000 77.1000 88.7000 77.5000 65.8000 64.5000 66.3000 68.7000 68.3000 69.6000 69.8000 70.2000 70.1000 69.4000
146.2000 147.7000 146.6000 136.5000 137.0000 136.0000 128.8000 128.0000 125.6000 126.3000 125.7000 125.6000 124.9000 124.7000 125.4000 130.6000 135.8000 151.8000 153.4000 145.5000 132.2000 127.0000 128.7000 127.5000 123.6000 121.9000 120.7000 117.8000 117.2000 117.5000 119.2000 118.5000 118.3000 117.5000 115.3000 115.4000 114.1000 114.7000 115.3000 109.4000 108.1000 108.9000 115.2000 115.0000 113.0000 110.7000 108.9000 108.3000 108.0000 106.7000 105.1000 106.6000 107.1000 107.4000 109.3000 110.6000 113.4000 113.7000 112.9000 113.8000 113.6000 112.4000 111.8000 110.4000 110.0000 108.7000 107.3000 106.7000 106.7000 106.6000 98.4000 93.5000 69.5998 70.0956 70.9375 75.5445 80.6115 82.7274 87.5786 88.4795 108.1676 111.6939 117.3256 121.2364 138.3000 146.9000 158.6000 164.8000 172.0000 173.9326 171.8000 166.5553 167.4688 156.1774 157.5384 150.3258 146.6007 145.8834 147.8937 157.9000 159.2000 163.9000 167.5000 156.7384 153.9670 150.1690 153.1729 148.0411 153.7280 154.9760 152.3924 156.3039 161.5000 171.5000 185.0000 186.9017 186.1753 183.8578 182.3205 180.8156 179.7305 179.8046 176.8295 175.1219 173.9154 174.0119 169.8586 166.1019 163.2231 160.4395 159.7496 160.5280 160.7052 162.8716 165.5607 164.3500 163.7918 161.8637 162.7487 163.1678 163.2648 161.6920 160.0108 157.9803 153.7733 150.8202 151.9139 150.4089 150.3270 147.2321 149.3000 145.2000 149.1441 147.0523 143.9866 140.5159 134.7323 134.7000 133.6000 132.2000 121.6162 119.4134 118.0990 119.4167 115.7063 108.3621 93.3000 101.2765 98.1836 81.8000 79.8353 62.0409 60.4808 58.1452 55.6248 51.4399 48.0434 44.0935 43.5842 48.5388 49.9307 50.0550 50.3945 50.4810 60.2000 60.0000 60.7000 63.3000 68.7000 67.7000 67.3000 66.2000 65.8000 75.0000 72.2000 67.0000 64.3000 64.8000 66.6000 67.4000 67.0000 68.0000 68.7000 68.7000 67.9000 66.5000
156.9000 153.3000 142.1000 143.8000 142.6000 138.3000 136.1000 129.0000 125.5000 124.5000 122.5000 121.5000 120.9000 122.4000 121.7000 124.0000 127.5000 138.1000 151.1000 155.3000 155.7000 141.2000 136.0000 130.7000 126.9000 125.9000 123.5000 120.8000 118.4000 119.0000 124.0000 123.5000 124.9000 125.7000 123.6000 121.2000 119.1000 122.2000 121.7000 119.5000 119.8000 113.2000 113.6000 117.7000 115.0000 113.1000 111.1000 109.3000 107.8000 107.9000 106.1000 107.4000 108.3000 108.8000 109.4000 110.9000 112.0000 114.1000 117.2000 119.5000 120.4000 118.4000 116.2000 118.5000 117.3000 113.7000 111.4000 108.3000 108.9000 108.5000 108.1000 98.4000 66.6394 66.0037 67.7580 72.7630 78.3275 83.9546 90.8765 95.3152 95.8765 108.5829 114.7000 119.9205 125.4000 123.7820 143.3000 155.0000 164.1000 170.1000 172.0000 170.0000 163.7029 162.4223 158.7773 153.3919 147.6033 146.1894 142.2520 144.9623 150.8000 158.3000 163.0000 155.2945 153.8184 148.1210 142.3892 149.2205 150.6242 148.5661 144.7314 155.0710 172.7000 187.9000 193.7000 185.4358 186.2265 182.4989 180.2951 178.2288 177.4382 176.2741 174.3069 171.0303 173.2078 172.8415 169.7422 166.5742 164.5134 162.1039 160.7969 161.9516 162.7387 165.0214 167.0089 164.9255 163.7790 164.4050 164.7763 164.4345 164.7555 165.6383 163.8152 159.7860 158.9412 157.6187 157.9313 155.2282 154.2451 152.0638 148.1968 150.6000 153.3716 153.1181 149.7472 146.0884 140.3080 134.5087 134.3000 132.0000 130.1000 119.7581 121.7621 111.7394 111.1000 102.9000 105.9000 104.2433 99.3210 92.4404 84.7555 72.3156 61.1527 62.0600 53.6899 50.6280 49.1379 44.3447 43.0168 42.9145 44.2592 50.1613 50.6223 50.5823 50.3251 49.8675 49.3821 62.3000 64.7000 67.2000 62.1000 62.2000 64.0000 64.4000 65.5000 64.6000 63.1000 62.3000 66.8000 66.9000 66.9000 73.8000 67.7000 68.0000 67.3000 63.8000
167.7000 152.6000 151.8000 149.0000 138.1000 135.6000 136.9000 137.4000 126.6000 124.6000 124.7000 124.0000 120.5000 119.7000 119.7000 121.1000 122.1000 126.8000 135.6000 149.2000 151.3000 146.9000 139.1000 135.4000 131.6000 129.3000 125.7000 122.4000 120.7000 123.4000 128.1000 127.2000 127.4000 128.1000 129.5000 129.9000 126.8000 124.7000 126.9000 125.3000 123.7000 119.3000 116.5000 120.6000 118.0000 113.7000 112.4000 112.1000 110.2000 107.5000 106.6000 107.7000 109.3000 110.2000 111.3000 113.5000 115.2000 116.7000 117.3000 120.5000 124.9000 125.7000 128.1000 132.1000 129.2000 121.2000 116.6000 112.4000 111.2000 109.5000 108.4000 107.7000 65.1248 62.3732 67.1323 72.2977 76.7921 83.4543 90.1493 94.8003 96.3790 106.4605 109.7722 113.9759 118.5367 124.6000 123.1654 143.0000 152.2000 162.6000 169.1000 170.6000 161.9158 161.2055 157.8638 158.2166 160.7000 160.0000 150.0216 142.6131 142.3000 150.7925 146.3985 153.3516 156.6543 142.6811 147.3124 147.0759 147.0334 144.7625 146.3000 150.8125 185.0000 197.6000 196.3000 184.3930 183.9057 180.9503 178.3853 176.7861 175.2405 173.1433 172.2765 170.0080 169.1188 169.2809 168.1317 166.6643 164.6437 161.8615 160.4366 162.3444 163.4138 163.7917 165.4790 165.7833 165.8273 165.4611 166.0080 165.9164 165.7020 165.7143 165.0022 162.2853 161.3163 160.7825 159.5625 157.7505 158.4137 156.2592 153.8000 155.6115 155.2234 153.8299 150.3058 147.4369 143.4867 137.7193 139.1000 137.3000 135.7000 131.8879 123.2794 113.9790 121.2701 113.2843 95.1000 106.7098 103.4095 97.1207 88.3747 78.6325 68.5843 56.8579 55.8239 51.8598 49.2817 45.1001 43.4904 42.7818 43.8239 43.2370 44.3956 50.7520 50.4440 49.4505 49.2505 49.4452 49.5456 61.7000 62.4000 62.5000 64.9000 63.9000 63.6000 62.8000 61.7000 62.4000 66.8000 66.9000 64.2000 65.2000 65.4000 65.0000 64.0000 58.2000
174.4000 178.2000 172.0000 162.6000 150.9000 138.9000 136.1000 133.0000 130.2000 125.1000 125.2000 125.6000 123.3000 120.8000 119.0000 119.2000 119.6000 120.9000 123.7000 126.3000 135.3000 149.4000 139.8000 138.2000 134.4000 131.0000 130.1000 129.1000 132.0000 134.2000 133.4000 133.9000 132.9000 131.4000 132.3000 131.7000 132.1000 132.2000 131.6000 133.3000 132.2000 128.7000 128.3000 125.7000 121.2000 117.5000 114.6000 112.5000 111.0000 108.6000 106.8000 107.5000 108.8000 110.5000 112.0000 114.9000 118.0000 121.5000 122.7000 121.4000 122.9000 129.2000 131.2000 131.9000 129.1000 123.7000 118.6000 113.9000 110.1000 108.1000 107.0000 102.4000 66.1515 64.4006 70.9771 74.8696 78.2346 81.4259 86.8215 95.8136 93.9843 102.1056 103.2771 110.0324 114.2000 119.1322 123.8000 123.2070 128.2163 146.3000 159.9000 167.5000 169.4000 162.1195 158.7906 157.4348 159.9000 160.3000 146.4620 146.7513 138.3341 138.0000 148.8000 148.2012 148.7885 145.0946 140.6819 142.6702 143.4629 134.1008 150.9000 156.9402 172.9000 184.0000 192.6000 185.0058 182.4342 178.7351 177.0316 174.1987 170.9335 170.7540 170.1122 168.9527 166.9289 165.0759 166.2847 165.6109 165.1487 162.3587 159.8669 162.3875 163.7802 164.6041 165.3470 165.2403 165.9109 166.2268 166.3997 166.9188 166.2878 165.7946 165.2556 163.3243 163.7504 162.6291 160.7448 159.7207 158.8687 160.8315 159.9834 157.9978 156.2202 153.0741 150.0272 147.5959 144.8532 144.6669 144.8025 142.4650 139.5777 135.5773 130.6346 125.9843 123.9485 117.0946 112.0145 109.6874 101.6854 99.1247 91.3149 81.2969 71.2769 62.0531 52.9447 50.2400 49.5688 46.3935 44.7080 43.4158 44.0063 44.8962 44.5152 44.9342 46.3493 46.3141 47.5488 49.2659 49.7310 49.7406 50.4045 64.9000 65.6000 64.3000 61.9000 62.1000 60.7000 65.5000 65.7000 66.4000 65.0000 63.4000 62.0000 60.0000 53.2000 52.1000
187.7000 184.9000 175.0000 163.3000 151.9000 156.1000 144.1000 140.6000 130.8000 128.4000 127.5000 126.9000 123.7000 120.5000 118.6000 118.7000 118.2000 118.4000 119.2000 121.8000 124.9000 130.1000 140.3000 135.2000 139.1000 135.8000 134.2000 135.3000 141.5000 136.9000 138.9000 138.1000 140.8000 138.2000 136.9000 135.1000 134.6000 135.2000 135.8000 134.0000 132.7000 130.2000 127.2000 124.2000 121.0000 118.0000 116.0000 113.8000 111.4000 109.0000 107.7000 108.0000 108.8000 109.6000 111.5000 114.9000 118.5000 122.9000 126.4000 124.5000 124.8000 129.9000 132.9000 132.3000 127.7000 123.3000 117.7000 113.1000 109.9000 107.6000 107.2000 103.2000 73.4779 72.7074 79.5331 79.7408 79.4701 82.3842 83.8060 91.3556 93.8599 102.7000 102.6323 102.1315 102.4767 113.6000 117.9522 122.8150 127.5000 133.9000 130.8079 154.8000 162.3000 159.5074 157.6121 152.5675 154.4000 156.5000 157.1000 142.5192 142.4720 133.5854 138.4000 147.0300 155.9000 139.1591 138.1433 131.9062 138.3200 137.3000 137.9662 147.9000 157.1494 178.2000 181.3067 180.7933 178.7844 176.7158 174.5358 171.1021 168.3396 166.4236 166.7717 167.4807 166.7096 164.7515 162.0699 164.5495 164.4601 161.5877 160.6184 161.8923 163.9088 164.8918 165.2573 165.9478 166.3360 166.6880 166.7896 166.8618 166.8414 166.4142 165.6616 164.0220 165.5877 163.2635 163.1141 159.9605 163.4497 162.6267 160.6940 158.7900 157.5433 154.8137 154.8000 153.7398 150.6601 149.4735 147.0010 144.3981 141.3719 138.1204 133.7590 128.8022 128.2329 120.9163 116.0693 113.2207 105.2680 102.0622 94.0787 82.6583 71.6630 63.5733 58.8586 56.4744 48.9144 49.5450 46.7758 45.7936 46.1775 46.6280 46.5780 47.0405 46.5292 46.8934 45.5198 47.8999 47.8132 46.6730 46.2791 43.3800 39.0827 35.2248 31.9675 61.2000 58.4000 58.4000 63.1000 65.3000 65.9000 62.3000 62.2000 52.5000 52.7000 52.3000
214.0000 194.7000 186.1000 169.2000 164.5000 161.6000 151.0000 146.7000 139.1000 135.5000 129.4000 128.1000 125.3000 121.8000 120.2000 118.8000 118.1000 118.3000 119.8000 121.1000 122.7000 127.2000 134.0000 137.4000 137.6000 136.2000 139.1000 141.8000 147.7000 150.6000 150.5000 160.7000 149.0000 147.4000 141.9000 139.1000 139.3000 139.3000 138.2000 135.4000 133.7000 129.8000 125.6000 123.7000 122.9000 121.5000 118.0000 113.7000 111.7000 109.3000 109.2000 109.2000 108.8000 110.0000 111.4000 114.8000 118.9000 121.7000 123.9000 128.6000 129.6000 131.0000 134.6000 134.6000 130.2000 125.4000 121.5000 119.9000 118.9000 116.0000 112.0000 109.1000 82.0202 83.3257 82.7186 81.6191 82.0357 79.8920 82.5673 86.4222 95.6174 96.2924 96.9319 100.0789 102.2049 109.6000 112.6837 116.6000 120.1000 125.7101 131.7000 128.2506 148.2000 157.4000 159.9000 156.7000 151.7000 145.7000 148.8000 151.6000 137.2559 135.7103 130.2927 140.0000 140.1901 137.6153 138.6522 131.7123 130.0148 140.1965 146.8043 156.8822 165.6034 177.4000 184.8000 178.1210 175.1514 172.7451 171.0689 167.6005 164.7902 163.3707 161.2528 163.3988 162.6330 162.6482 158.5868 162.3309 162.7858 161.2948 161.0817 161.9844 163.2865 164.3394 164.7492 165.3589 165.9969 166.1633 166.9574 166.3811 166.3191 165.9455 165.6523 165.2606 165.7160 165.4568 164.0228 163.4403 164.4809 163.9729 163.3083 161.4566 160.7567 159.7916 158.7257 157.3880 155.1854 152.9184 149.6754 145.1923 142.6809 140.0584 136.5969 131.9422 129.3650 124.3510 118.1348 113.4791 106.4061 97.2512 88.9907 80.1661 74.3090 64.2359 58.0793 55.7614 55.8425 50.7847 51.5064 47.3827 48.1269 47.0859 48.3186 49.2441 48.8438 47.1629 47.4493 46.7185 47.2587 47.0422 45.7180 46.0771 38.3448 32.8262 34.5033 28.5728 31.9442 35.1659 38.4826 42.2597 45.3103 52.7000 53.2000 52.9000 52.6000 55.4000
156.2000 157.8000 185.0000 178.5000 168.3000 160.1000 159.8000 153.5000 146.0000 140.4000 137.1000 130.9000 127.5000 123.8000 121.7000 121.0000 118.2000 118.6000 119.2000 120.6000 122.0000 124.5000 127.6000 136.7000 135.4000 136.9000 134.8000 134.4000 146.4000 145.2000 147.6000 158.3000 164.1000 158.3000 150.5000 148.7000 143.0000 142.9000 141.3000 139.4000 138.8000 137.7000 132.4000 128.7000 125.6000 125.8000 122.4000 117.1000 113.2000 111.0000 110.3000 109.5000 109.3000 109.6000 111.4000 114.0000 117.8000 123.7000 127.7000 128.6000 139.1000 139.4000 139.4000 136.2000 132.5000 128.1000 125.1000 124.6000 121.4000 117.8000 113.7000 108.6000 88.3981 90.0275 87.9081 85.9967 81.5871 80.3139 82.5223 81.5832 102.3266 95.9447 94.3733 99.1294 100.8336 101.4158 109.4635 112.2110 116.1940 118.9895 122.8447 129.1384 124.6510 149.4000 156.1000 152.8000 148.5000 144.4000 136.7000 142.6000 144.5000 133.4359 130.9183 132.7000 144.3000 137.3419 136.0505 131.1117 125.1757 135.3374 139.3232 148.2000 155.7016 174.4000 181.6000 174.8575 174.8425 172.9563 166.5730 164.7157 163.2471 161.3991 158.9936 158.2418 158.1758 159.3885 160.1000 161.3627 160.9316 159.8824 160.2661 161.6303 163.0429 163.2163 164.1850 164.6835 164.3758 165.7837 165.9223 165.6054 166.1913 166.9078 166.8423 164.8074 165.0175 164.8187 165.9462 164.9969 165.1913 165.4926 166.0060 165.7199 163.8570 162.5055 161.5559 160.1272 157.0347 155.1705 152.2326 148.7389 144.7580 142.4426 138.4534 132.9797 131.6835 125.2097 120.0788 116.0274 108.4590 91.8340 86.4579 79.6964 72.2994 63.6459 59.2213 57.7916 56.2424 52.4136 52.4160 51.1464 51.2398 48.1932 47.2162 50.4993 52.0137 48.4700 47.7384 48.0091 48.2832 48.7026 48.7922 48.7771 51.6426 45.7995 40.4922 33.1357 31.8203 34.2478 39.4297 41.7701 45.5794 48.5815 48.5683 53.1000 54.7000 55.1000
133.6000 131.1000 142.6000 171.7000 181.5000 156.0000 159.5000 162.0000 155.7000 147.6000 141.1000 136.9000 131.8000 126.7000 124.1000 122.8000 120.0000 119.2000 119.8000 119.8000 123.0000 126.6000 128.6000 128.8000 133.3000 133.1000 136.2000 134.1000 134.6000 136.8000 146.9000 145.4000 150.9000 166.4000 163.7000 152.9000 148.3000 146.4000 144.6000 143.6000 144.8000 143.6000 139.2000 136.6000 131.4000 125.9000 123.7000 120.1000 116.0000 113.2000 112.0000 111.3000 110.1000 109.8000 110.7000 112.6000 115.6000 121.1000 125.5000 127.7000 134.0000 141.8000 140.7000 138.9000 136.7000 133.6000 131.7000 127.9000 123.1000 119.5000 117.3000 114.7000 90.7935 91.8411 89.6776 84.8618 82.4765 81.9304 81.3936 82.8496 103.1000 102.4952 100.6767 99.0909 99.8915 100.7505 109.3000 110.5321 113.2933 115.9495 118.9287 120.9922 123.8224 121.0018 144.4000 145.0000 143.2000 140.5000 135.1000 134.2000 135.0000 136.6000 134.6000 133.6611 141.6000 136.9384 137.3230 129.8253 121.1975 127.4238 128.4881 141.9000 147.7987 163.2895 175.8000 170.2327 171.3150 171.5644 166.9172 162.6751 161.7555 162.2151 160.5609 158.1418 149.8073 149.5608 158.7398 159.5890 159.1649 158.5343 160.0480 161.2696 162.5026 162.5518 163.2678 163.6830 164.2197 164.4015 164.9596 165.5570 166.2833 166.6536 167.5836 166.3099 165.6849 166.4312 166.7310 166.8887 168.4131 167.4846 168.0910 166.4665 164.7937 163.4191 161.8380 160.8021 158.6044 156.7412 153.7477 150.4321 147.7688 141.5353 136.9592 132.3184 130.9214 126.1491 121.0630 114.9048 108.6806 91.4776 82.9946 79.1241 72.6663 66.1745 59.1264 57.9475 55.0604 52.3696 52.2876 51.5545 52.6614 51.3804 53.5683 60.6000 61.8000 49.6527 48.1439 47.8388 49.5620 50.4401 50.6185 51.8031 48.2582 47.4921 42.7948 42.1534 39.6342 38.9764 39.4239 39.9181 42.8829 49.4958 47.6276 56.0000 56.4000 56.3000
137.7000 134.3000 130.6000 137.9000 160.2000 165.9000 156.9000 176.0000 176.1000 163.4000 155.2000 146.2000 139.0000 133.0000 128.4000 125.3000 122.6000 121.5000 120.1000 118.4000 120.8000 122.5000 123.5000 126.0000 125.8000 128.4000 131.5000 133.1000 133.4000 132.2000 134.8000 141.1000 149.6000 153.5000 178.2000 170.4000 158.6000 153.7000 153.6000 152.9000 150.2000 146.9000 143.7000 137.4000 135.0000 128.9000 123.9000 121.5000 119.0000 115.6000 114.4000 112.8000 111.5000 110.7000 111.0000 112.9000 114.7000 118.5000 121.8000 127.8000 133.4000 138.9000 141.7000 144.5000 142.2000 137.6000 134.5000 130.4000 119.7000 118.5000 111.3000 90.7050 91.1629 90.2308 88.4800 85.1460 82.1613 81.2265 80.7219 82.7084 82.0423 105.6217 104.6552 102.2620 100.9843 101.9447 107.1000 108.9462 111.0033 111.8708 114.3069 116.0182 117.3975 121.7856 119.2140 134.1000 138.3000 138.0000 134.3000 127.0000 125.5000 123.4000 129.6703 131.3658 139.3000 138.8000 137.4417 133.0126 122.7127 124.4000 132.2567 136.0238 139.6000 152.4000 167.0000 170.3000 164.5404 164.9174 161.6334 159.0137 155.3712 156.4258 154.8597 153.3820 153.6890 142.3282 152.5287 154.5119 154.5759 157.9586 160.0537 160.9233 160.8540 160.9026 161.1970 161.7742 161.7883 163.6403 163.9232 164.6217 166.7098 166.7965 166.6451 168.0187 168.8870 168.1211 167.9740 168.1884 169.2859 168.5229 167.7406 167.1151 164.7622 163.2179 161.5136 159.1409 156.9991 156.3730 154.9372 151.3369 147.4976 140.7841 133.3377 125.9693 119.1196 120.9039 113.1720 112.3128 103.0566 93.8610 84.6000 79.3783 72.6088 67.5270 63.5979 59.3929 56.8645 50.7122 52.0218 51.3710 49.6316 50.1374 51.6917 52.6935 54.9542 55.0180 54.9024 50.1596 51.1128 50.5019 50.8273 49.4084 48.8924 46.1054 43.3916 44.7535 46.2000 42.9230 41.1933 40.8749 43.2393 47.5803 46.0343 46.1249 74.6000 60.0000
141.5000 135.6000 132.3000 131.3000 136.3000 142.2000 159.4000 173.5000 186.5000 171.4000 156.6000 146.5000 140.5000 134.6000 132.4000 128.4000 123.3000 121.2000 119.8000 118.7000 117.5000 118.6000 121.6000 127.7000 136.1000 128.2000 125.2000 127.8000 129.8000 134.3000 144.0000 142.4000 147.2000 156.8000 159.4000 171.4000 170.2000 166.0000 163.7000 156.4000 150.7000 146.1000 140.8000 137.7000 132.9000 129.9000 124.7000 121.9000 119.4000 117.4000 116.0000 114.2000 112.7000 112.2000 112.0000 112.7000 114.1000 116.5000 119.5000 123.5000 128.3000 133.8000 140.4000 141.6000 140.2000 130.5000 118.8000 131.4000 128.7000 121.8000 84.8483 86.6126 89.1218 88.5375 86.1837 84.2287 82.0162 79.2853 79.7923 81.3200 83.2913 84.4173 106.5565 104.8442 104.5918 102.3299 102.8882 107.2874 108.1657 109.7887 111.5603 111.9167 114.2707 116.5982 119.2583 117.7906 132.0000 137.0000 134.2000 132.5000 119.4347 124.5835 126.7670 130.5083 124.7716 126.1263 125.7948 125.7721 120.4759 120.8000 129.1000 128.7658 129.9000 135.8814 151.6000 160.7000 156.5341 154.6280 155.1303 153.4881 147.5367 151.2745 148.2327 149.4383 147.2540 145.9888 138.8000 154.5989 156.5990 157.1327 158.4564 158.2567 158.8439 158.7788 159.1639 160.6331 161.5149 162.6101 163.4622 163.8527 164.5499 165.7326 167.7431 168.5210 169.4742 167.7088 168.2401 167.8531 167.8131 166.8950 167.1823 166.4669 164.8167 162.7827 162.0280 158.8133 156.4778 153.8107 150.9918 147.5551 141.4457 130.6739 120.0696 113.1965 112.4077 111.3676 106.0271 95.9796 93.7000 98.6000 100.3634 84.7257 80.4781 72.4591 67.8885 62.5648 56.5464 52.1746 53.1622 52.0915 50.4535 50.6740 51.6630 52.8467 53.6979 54.9357 54.1735 53.2498 51.6137 51.5628 51.1174 50.6187 52.5221 49.9395 47.8488 46.6763 45.3585 45.7078 48.6260 44.2016 44.1206 43.1369 46.3705 44.4672 85.0000 59.6000
183.6000 148.4000 135.6000 130.2000 130.7000 135.2000 142.1000 160.1000 178.7000 169.5000 170.1000 159.4000 146.2000 136.0000 130.7000 125.3000 122.8000 121.0000 119.7000 118.6000 116.8000 117.0000 117.6000 122.0000 124.3000 125.9000 123.5000 125.0000 128.9000 135.2000 140.5000 146.8000 148.3000 165.5000 178.4000 179.8000 189.6000 176.0000 167.0000 162.3000 154.7000 150.1000 142.8000 138.0000 134.2000 130.8000 127.1000 122.7000 120.9000 118.7000 116.9000 115.3000 113.7000 113.0000 112.9000 113.6000 113.7000 114.8000 116.7000 120.8000 125.0000 129.6000 134.8000 134.7000 132.3000 129.1000 112.5000 107.9000 123.0000 81.4704 81.1359 80.9396 77.8903 86.8302 84.8183 82.6871 81.3462 79.5389 79.0679 79.8341 82.2339 84.6204 88.5236 89.3741 104.6367 104.0738 102.2796 99.9164 106.0115 108.0632 109.5960 110.4060 111.4049 113.2046 115.4018 118.7118 116.3802 131.2000 131.3000 118.1878 118.7781 120.4775 120.4381 123.0370 123.7377 121.8033 121.5226 115.1937 130.0456 130.7169 130.8163 131.4458 124.0565 124.7228 119.8865 130.9789 142.0504 142.0190 145.5275 147.2565 145.4129 139.9642 141.8740 145.5134 144.2277 129.1307 149.4233 152.0603 153.8240 155.8166 152.4138 150.2526 152.8530 154.4332 157.7754 159.6881 161.1539 161.2100 163.3090 162.4033 163.5289 164.1716 166.4250 168.3612 167.8869 167.4314 166.2595 167.2173 166.5565 166.4151 165.8528 165.1952 165.0015 163.8496 161.1470 159.8578 157.9415 155.2443 152.2319 150.0435 144.2216 137.5333 133.2518 129.8006 128.5966 123.0849 117.1912 109.4740 95.7961 88.8300 84.0000 88.6000 83.3767 73.2285 63.0974 61.7938 59.8702 58.1661 59.5290 66.9000 68.9000 51.6714 52.6772 51.8374 52.4210 52.8213 54.8141 53.9626 52.7022 52.6827 51.9222 52.3189 52.8806 52.8728 57.7000 55.2000 59.4810 50.4123 50.5882 50.2419 44.9527 41.0969 38.9044 41.8255 41.8806 60.0000
156.0000 171.4000 156.7000 140.0000 133.7000 132.7000 132.4000 132.6000 135.3000 139.4000 144.6000 155.9000 159.9000 151.0000 136.6000 129.1000 124.1000 122.4000 121.3000 119.5000 117.1000 115.6000 115.9000 118.6000 120.0000 121.3000 124.3000 130.1000 132.0000 137.4000 140.3000 140.7000 146.9000 149.4000 159.3000 170.7000 179.9000 194.8000 197.9000 184.8000 168.3000 156.7000 144.6000 140.7000 136.9000 132.2000 128.4000 125.2000 123.2000 120.0000 118.0000 115.7000 114.7000 113.7000 113.7000 113.9000 114.3000 115.2000 115.5000 118.2000 121.2000 124.0000 126.1000 125.2000 124.7000 123.9000 124.8000 120.7000 88.2577 86.4363 75.8390 74.3427 77.6467 81.4970 83.0070 81.6712 80.3476 79.3701 78.8868 78.8012 80.6237 84.4507 88.7661 91.8327 103.9648 98.1544 98.5485 98.4496 103.0802 106.1834 107.0536 110.0082 109.5748 110.9727 112.7435 113.3753 117.0535 122.3000 125.2000 116.0460 116.3508 119.4097 119.4200 118.9392 117.2377 105.4830 111.2590 104.7697 105.1179 106.3824 104.6754 104.6552 105.9107 114.8110 119.4000 124.5959 130.7606 128.4144 137.6221 138.0908 136.0904 136.0530 132.9012 133.2536 135.8403 122.8302 147.1905 149.3197 148.7815 147.9249 147.1000 155.2626 154.9506 154.6089 156.1637 158.1868 158.4516 160.7882 161.2189 161.2942 162.3144 163.3708 164.4306 165.5957 165.9947 166.7419 167.1273 166.1608 166.5000 165.6940 166.1103 165.4836 165.0113 164.9438 162.5379 160.6205 158.4185 157.3760 153.3100 148.7241 142.8492 135.9994 137.1877 128.7266 119.3556 115.3267 115.5674 111.3673 108.4092 103.3122 94.5845 77.0352 73.1839 71.5000 67.0421 74.6230 70.0912 68.5762 63.4559 67.0000 81.9000 74.3000 52.7770 53.8162 52.2580 52.7299 52.8185 53.9311 52.5828 52.5036 52.2913 51.6747 53.9262 52.1621 52.4987 56.7000 57.5000 57.6215 49.6744 49.0193 47.8725 39.8062 34.3281 37.9543 43.2754 60.7000
165.6000 163.7000 172.0000 161.4000 147.2000 138.9000 135.9000 134.4000 131.0000 131.0000 131.3000 146.2000 145.3000 148.6000 148.1000 142.0000 128.5000 124.8000 122.2000 120.0000 118.0000 116.0000 115.2000 116.7000 118.6000 118.7000 121.4000 124.3000 129.4000 132.9000 133.8000 133.7000 138.8000 139.7000 144.1000 150.9000 159.9000 167.5000 181.0000 190.0000 184.8000 161.2000 158.5000 146.1000 142.1000 135.4000 132.2000 128.4000 125.9000 123.0000 120.5000 118.0000 116.1000 115.3000 114.7000 114.0000 114.2000 114.1000 114.9000 116.4000 119.6000 120.5000 120.1000 119.7000 116.6000 116.9000 116.4000 90.6042 91.4510 82.4737 80.1834 78.2031 77.9508 79.0315 83.5472 82.9379 81.6411 80.7630 80.2198 80.3209 81.6583 84.9584 89.0282 92.7122 92.5688 100.8072 102.9867 104.9807 104.3554 106.1551 107.1310 109.4946 109.7197 108.8694 109.0853 110.0061 112.9778 112.9364 118.0000 111.6867 113.0093 115.9000 116.2213 109.3524 109.4897 104.9555 101.4087 97.6183 104.7210 104.9240 98.9730 99.7916 100.7022 102.4726 102.2984 118.5969 113.5860 123.7953 127.8670 126.9247 126.4444 126.1755 126.6246 127.4533 118.3076 136.7592 141.8509 146.1253 143.6633 137.5000 151.1141 153.7823 155.1493 153.4500 153.7872 154.2214 155.9909 157.3157 158.0678 160.2341 161.3505 163.1852 163.1738 164.4420 165.6142 165.7293 165.5471 165.5464 167.1731 165.5960 165.3636 164.7439 165.0773 165.0953 163.0030 161.9380 160.0006 156.2048 152.5277 147.6334 141.8319 133.7054 116.8577 121.0000 123.1735 115.7379 101.3250 107.9587 104.6168 97.2802 91.7578 81.5453 78.7000 79.2488 73.2000 91.9309 86.0497 82.5864 72.7851 66.9100 82.8000 94.6000 79.6000 54.0393 54.2470 53.0850 53.1776 54.3144 53.9361 53.8976 53.7723 54.6077 51.8478 52.0021 53.3318 55.3888 59.2000 57.3259 51.4093 51.4812 49.3431 43.5598 39.5829 40.9577 46.8022 46.9309
197.2000 181.6000 172.5000 160.4000 152.6000 142.8000 137.2000 134.6000 132.5000 131.9000 130.0000 132.2000 146.9000 172.4000 157.3000 152.9000 131.4000 131.1000 129.7000 125.6000 124.0000 120.7000 115.4000 115.2000 115.3000 115.4000 119.5000 121.7000 127.3000 129.6000 129.2000 131.5000 133.3000 134.1000 145.5000 147.7000 143.0000 151.4000 164.7000 171.7000 170.9000 171.7000 181.7000 158.8000 148.2000 140.4000 135.7000 131.8000 129.1000 125.2000 121.8000 119.6000 117.9000 116.4000 115.2000 115.1000 114.1000 114.1000 114.2000 115.8000 118.3000 119.8000 118.4000 117.2000 113.1000 107.9000 89.9661 90.8547 86.4981 84.6551 82.2661 83.2381 79.7973 83.7396 82.7956 81.9973 82.8632 83.2869 82.9870 83.3913 84.6400 86.8651 89.5220 91.2547 93.9261 95.1185 94.5730 105.0024 106.9274 107.3655 106.9890 107.6881 107.4838 107.0405 107.7529 110.3581 111.0204 110.6937 108.6097 102.8199 103.3125 114.0496 101.6854 109.7000 108.4560 102.2537 96.9160 95.9905 95.5630 84.9562 96.1736 96.9530 99.6521 100.0913 98.5126 97.3228 100.8261 106.1344 103.1894 102.2395 101.6203 104.5467 106.9645 114.0829 119.0000 126.2274 132.6276 135.7551 134.1020 132.7091 141.5717 147.9133 149.8813 150.1710 151.0735 148.8834 154.1328 155.6581 157.9461 159.1295 161.6340 161.6184 162.2376 163.0396 164.2621 164.2225 163.1214 164.1140 164.7224 164.9843 165.1642 165.2821 163.4095 161.3796 159.9192 160.5047 157.1796 152.6564 146.9193 140.3749 138.4955 128.4992 124.7446 120.9457 117.3060 109.7604 97.9963 91.2119 87.9738 88.8000 90.1031 87.3000 92.6855 73.5714 79.8862 105.9000 89.0292 89.2933 77.7237 70.2149 70.9489 83.3000 85.3000 56.3829 55.8358 54.6714 54.1817 54.6656 54.3722 53.8841 53.9088 53.4478 52.8996 51.7274 52.8187 52.8615 61.2000 58.6000 59.6653 53.6370 56.0051 54.0598 50.6405 47.8833 48.7597 48.8863
225.8000 219.2000 189.4000 171.9000 162.8000 151.3000 141.3000 134.6000 132.7000 132.5000 132.1000 131.5000 131.7000 145.8000 149.9000 140.8000 158.0000 145.2000 137.6000 132.3000 127.8000 123.0000 119.4000 115.8000 115.2000 115.0000 117.4000 119.7000 124.5000 126.3000 126.2000 125.2000 127.2000 132.6000 137.6000 137.3000 145.7000 145.1000 147.4000 156.5000 157.6000 157.8000 158.7000 164.0000 153.8000 147.7000 141.1000 136.7000 133.1000 128.7000 125.1000 121.7000 119.8000 118.2000 116.7000 115.0000 114.4000 114.0000 114.1000 115.2000 117.4000 118.4000 118.6000 116.6000 114.0000 87.4360 89.2103 85.4975 87.5255 87.3137 83.9223 85.0570 84.4072 83.7638 106.4000 102.4484 84.1198 85.7733 85.7591 86.1395 87.0932 88.5067 88.7635 90.3762 92.7512 94.9204 94.6800 100.1221 100.1652 102.1624 102.8652 105.2358 106.1592 108.1528 109.3538 112.6227 113.0304 110.3095 103.0117 102.3808 103.0670 95.2984 97.4777 97.4670 91.2999 88.5836 86.5088 85.1535 82.7739 83.6989 77.7891 65.7753 63.8473 67.4919 74.7472 89.4812 96.7663 105.6399 105.4063 98.5220 102.7900 103.5489 107.3010 110.0435 103.2364 101.8779 105.3255 112.2147 118.0824 130.7065 138.6871 143.1866 144.1155 144.4325 144.3000 147.0563 152.3025 155.1674 155.8622 157.2378 158.3710 158.6502 161.5689 162.9245 162.5951 162.8899 161.6594 162.6063 162.8049 163.0276 164.3102 164.8764 163.8773 162.5710 159.8561 153.0475 151.2006 145.2176 139.5421 135.1181 132.3078 128.6092 123.3424 118.1353 113.5824 109.7645 106.3029 100.0105 95.4662 102.6279 105.0198 101.1625 85.6412 74.7938 75.2032 110.1000 95.6598 95.2855 82.2763 75.7219 75.3000 81.9000 87.2000 58.7247 59.0659 54.9250 54.8591 54.3359 55.2871 53.8963 54.7812 54.2423 53.7989 52.2739 52.4339 55.3125 61.0000 60.6000 55.5000 65.1605 64.7286 54.5205 56.4523 54.0891 52.3596 48.9497
177.7000 173.8000 185.4000 205.9000 164.7000 152.4000 143.5000 141.4000 136.2000 132.5000 132.4000 132.1000 132.2000 139.8000 169.0000 154.9000 151.7000 151.9000 138.4000 128.7000 126.7000 123.7000 120.9000 117.9000 114.5000 115.0000 114.8000 117.1000 122.1000 122.7000 123.1000 123.5000 126.7000 128.6000 128.8000 131.1000 139.4000 143.6000 144.7000 145.3000 147.6000 153.3000 152.9000 156.3000 156.3000 154.9000 147.4000 141.9000 137.0000 131.7000 127.0000 123.1000 119.9000 117.5000 116.2000 114.8000 114.0000 113.2000 113.7000 115.6000 116.1000 117.0000 116.4000 86.2814 84.9475 81.6542 83.4845 84.7618 86.2184 86.5667 89.2995 88.5349 86.1914 105.8238 107.9026 106.6980 100.2263 85.5558 86.7493 87.7165 89.1689 88.6373 89.0200 89.9326 92.0064 92.2098 94.4746 92.9201 103.6138 103.9917 103.1484 104.7915 106.9443 108.1745 109.0185 108.5554 105.5374 101.6896 99.6145 101.0828 86.3888 95.2770 93.1406 75.6170 80.5725 70.4000 75.8113 74.1598 69.7132 62.4453 60.1889 61.4229 63.7004 66.4187 72.3567 70.7320 70.8578 84.3272 81.5445 77.5808 86.3815 88.3534 99.4242 103.2689 97.8057 101.7355 106.0006 108.1485 122.4949 110.9371 136.9629 138.8173 138.8044 120.8181 138.9702 145.4287 147.9177 150.2668 150.6074 151.1520 155.6143 158.6697 160.7003 161.2684 159.6708 159.4478 157.3027 161.5667 162.3918 161.5469 161.1025 160.0820 161.0751 158.8540 155.2178 150.0666 145.3989 137.2696 132.7986 129.2834 127.2886 126.6529 120.9935 119.6185 113.1357 111.5618 112.1719 108.6672 98.5302 105.1000 105.4238 104.6513 88.0615 77.2445 79.4758 110.0000 101.9711 102.4006 94.2403 85.0398 79.5006 79.0000 85.9000 60.4392 61.2725 56.2814 55.0759 55.6440 55.4080 54.2887 55.9000 58.2312 53.6398 49.2228 51.0332 52.2077 59.0000 61.1139 63.7664 64.2228 63.7128 59.9981 55.1657 51.2104 48.6339 48.9609
160.8000 155.8000 156.9000 161.5000 177.2000 173.0000 149.3000 144.6000 142.0000 137.8000 133.8000 132.9000 132.2000 132.0000 139.5000 149.6000 152.1000 145.9000 150.9000 132.2000 127.2000 122.5000 119.3000 117.2000 115.8000 113.5000 114.8000 116.9000 117.8000 118.6000 119.8000 120.4000 123.2000 124.3000 127.8000 129.8000 132.1000 136.6000 139.8000 140.3000 143.1000 145.4000 149.4000 157.6000 157.7000 160.7000 151.5000 144.6000 139.2000 133.4000 128.4000 124.2000 121.2000 118.5000 116.8000 115.7000 114.7000 112.1000 114.2000 115.8000 114.1000 115.2000 111.5000 86.2895 80.3640 81.4566 80.0215 81.9146 83.6583 86.7041 91.3241 92.2825 96.3000 103.8607 106.0230 106.9309 106.9134 100.4827 87.6954 89.0433 89.6552 90.1130 89.2545 90.6461 90.8082 90.7621 90.8504 93.7228 93.8726 93.2478 103.8685 104.3597 106.8064 108.4009 109.3163 109.3385 107.0115 101.2622 80.1197 78.7006 76.2644 68.6118 65.2829 57.9176 60.0689 58.3386 59.1000 59.3439 52.6536 47.0819 43.6173 35.6846 41.3293 45.5971 49.8229 51.9325 50.8442 55.3101 59.9030 68.6574 62.9732 57.8864 14.2773 73.3461 77.2401 85.0293 85.8193 84.2859 95.4441 106.0591 119.7504 112.9254 122.1855 117.8736 123.2123 140.9670 144.0794 144.7029 140.0218 145.7000 152.6205 155.0279 156.8308 157.1539 155.2563 154.5280 150.2222 158.0047 159.8184 159.4870 155.4760 152.4434 153.3214 151.9888 148.9055 144.2438 139.0446 136.2480 129.9904 126.9209 123.9364 124.0255 117.2200 111.0622 109.4671 107.2724 109.4273 105.3399 108.1012 108.1513 108.1406 103.9053 96.7509 86.3892 87.6267 111.3000 106.7834 108.2272 99.6819 90.5357 83.4779 81.7000 89.4000 61.0112 60.9792 56.9044 55.7262 57.3257 57.1341 54.5441 54.3108 57.7527 46.5048 44.4293 49.5970 53.3356 47.2057 62.0333 63.1333 64.2822 64.1150 59.4863 52.8982 50.3399 44.5938 48.2106
154.7000 150.9000 151.8000 161.9000 157.5000 160.1000 191.1000 165.9000 146.8000 147.0000 145.8000 137.8000 132.6000 133.3000 132.7000 136.4000 150.6000 162.4000 146.3000 141.0000 128.9000 130.4000 122.1000 117.8000 115.0000 113.5000 113.8000 113.1000 113.7000 115.3000 116.8000 116.8000 118.6000 122.3000 125.3000 125.9000 128.0000 132.0000 133.9000 136.4000 138.3000 140.3000 150.4000 154.3000 151.0000 151.8000 154.6000 148.6000 143.2000 136.2000 129.6000 125.6000 123.0000 120.3000 117.8000 116.0000 114.0000 111.4000 114.6000 114.9000 114.4000 114.0000 88.5694 81.8831 81.1004 78.5350 78.0070 79.0858 81.9928 87.8165 87.4444 89.5740 98.3693 104.3682 106.0748 105.6102 104.9078 99.6288 100.4650 91.4438 91.3765 90.3388 90.4789 89.8239 89.5136 89.5709 89.7119 89.9745 93.2252 93.6455 93.1240 103.0866 104.3097 105.5348 106.0764 106.6204 83.3948 81.5421 79.9548 78.0454 70.6789 66.0791 58.8439 54.0926 49.2792 45.9563 44.5553 42.6540 37.9990 33.7188 30.4077 27.2387 29.4195 28.3783 30.6689 34.4935 41.4659 46.0553 56.2636 64.3112 19.0604 -20.6601 -21.5283 -14.5112 18.7420 17.4642 -13.4052 -22.7606 14.2078 8.4808 103.4586 103.9454 118.1049 122.3444 122.2938 137.4556 139.8311 139.5451 138.1000 143.7380 147.9099 149.9795 151.2545 151.7596 150.7657 148.8963 145.4722 152.0053 153.7004 152.6978 150.6096 148.5997 146.5104 146.2146 142.6881 139.6933 136.3514 133.4505 128.4536 125.6211 123.3729 122.1455 117.7080 113.5742 111.1776 109.6131 108.4251 108.2205 110.0324 112.4969 109.6754 102.3039 87.8602 92.2000 99.3221 110.2000 108.6937 109.7223 101.7572 91.6777 85.7573 84.7988 91.0000 63.6943 60.7819 56.6098 57.1891 60.0178 56.8319 55.3648 55.5545 42.2130 43.6175 42.0811 39.9279 43.2851 45.9963 40.4743 64.5245 64.4649 63.2970 50.3822 48.0604 47.1975 46.3857 49.5683
155.9000 149.6000 147.6000 150.0000 161.4000 152.5000 160.5000 174.7000 197.5000 161.5000 148.0000 148.6000 149.6000 138.8000 135.8000 135.8000 137.8000 143.9000 156.2000 152.6000 146.1000 139.7000 136.4000 122.2000 116.3000 114.5000 112.8000 112.1000 112.4000 113.1000 113.7000 114.1000 116.4000 118.8000 122.1000 123.6000 126.9000 127.7000 131.5000 134.2000 132.8000 130.3000 140.6000 145.4000 149.8000 138.0000 134.9000 149.8000 140.3000 140.6000 131.5000 128.4000 124.8000 121.3000 118.5000 115.7000 112.5000 110.4000 113.7000 114.3000 113.1000 92.0533 86.3641 84.8207 79.7281 76.7980 76.5204 78.0913 81.5476 87.0025 92.2623 98.1442 95.3625 102.8062 105.6123 105.7123 105.6269 102.7476 100.9210 97.3491 93.8719 91.4438 88.9651 89.0185 88.5342 88.5889 88.9009 89.2882 89.1942 90.9368 94.9834 94.9304 91.2753 89.4738 87.9190 86.8615 83.7065 82.4691 81.3029 76.4879 69.7371 63.6646 56.8758 51.8128 46.7779 41.8580 37.4624 33.5469 30.5488 27.6876 27.2335 26.0749 26.8057 23.3131 24.3686 28.2247 34.0387 42.4790 51.8137 56.8963 21.1948 -16.7248 -0.7454 13.2670 5.2858 19.3546 -20.3180 -27.7426 -21.4888 -20.6950 -1.2556 5.3334 96.2257 55.7651 118.8757 130.6823 132.2709 123.6300 133.5000 138.9936 141.1466 143.5069 145.3928 145.0869 143.9240 140.7270 140.7000 145.9336 145.5388 145.5689 145.6084 144.2973 140.5059 140.0224 138.2006 136.6741 134.3667 131.3652 127.7885 125.7963 122.0821 117.7817 118.8852 122.2217 121.6220 120.1453 113.0084 109.8124 108.9140 105.9014 103.9529 93.6752 94.8858 104.2000 106.7411 112.4000 106.5256 108.1316 96.9946 89.9029 85.1611 83.8190 94.9000 71.7170 61.2991 58.1320 54.5293 57.8893 56.7282 55.5476 55.6683 39.6941 39.4957 36.1802 30.2329 27.8499 32.7441 39.3948 65.1304 63.8162 50.0787 44.8431 46.5103 39.7320 51.5286 51.8274
162.1000 151.5000 146.9000 143.0000 141.3000 141.7000 146.4000 151.2000 163.4000 172.0000 183.4000 161.5000 153.1000 151.7000 147.6000 142.6000 138.7000 137.6000 140.7000 157.5000 164.5000 152.2000 148.7000 138.1000 125.3000 119.3000 115.7000 114.1000 112.0000 112.2000 111.4000 112.1000 114.0000 116.3000 117.6000 119.7000 122.2000 121.4000 124.3000 125.9000 121.7000 124.9000 133.2000 134.4000 128.3000 140.4000 128.1000 140.7000 137.2000 140.4000 135.8000 130.2000 125.2000 121.9000 119.1000 117.6000 115.4000 109.7000 112.6000 95.8977 94.0054 89.1339 89.4499 84.8218 81.3755 79.4511 78.9730 80.3514 83.1348 86.7056 98.8699 96.4254 105.8201 105.3656 107.5819 108.6263 107.2230 104.4833 104.4195 99.1824 93.0058 92.0915 89.3483 89.1337 88.3975 88.3874 88.6550 89.0538 89.5206 90.0121 90.5831 91.3178 91.2832 89.5699 89.5684 87.6759 84.9491 83.0781 77.5857 76.8774 68.7968 62.5723 56.3401 50.2553 44.2907 38.1745 32.6385 29.6406 29.5468 26.0540 31.2577 34.7803 33.3062 33.9505 31.1352 33.8088 30.8117 32.7040 35.8866 39.5042 24.3203 28.0038 15.3143 37.6455 25.9216 20.2111 -7.8580 -17.9824 -19.2330 -11.8406 -10.7403 3.5402 10.7793 -8.6532 31.0027 120.1554 123.9341 118.3137 130.2718 133.4603 136.8687 138.4803 139.3699 140.2517 139.0642 135.2088 139.0753 140.8485 139.9751 140.5260 140.0450 139.6279 137.5351 134.7458 135.8419 134.7334 133.1256 130.6219 127.0638 123.8356 119.7961 116.3374 117.8439 119.4208 124.6502 122.6855 116.9042 111.3148 110.2500 107.1856 99.1175 98.9000 101.2050 109.3531 112.0301 108.4726 104.4187 101.7229 92.6166 85.5979 80.5387 78.7229 71.7832 69.3130 60.6885 57.8503 55.3066 55.5140 56.3694 56.0357 35.6965 32.3237 30.2907 31.7144 24.9048 20.9564 23.3633 32.6047 39.4063 62.6557 46.3935 42.4658 41.0062 42.3475 41.9319 52.2876
173.5000 153.5000 145.0000 140.7000 142.3000 140.4000 143.6000 144.0000 143.7000 141.5000 145.7000 160.8000 153.7000 145.7000 145.5000 148.5000 143.2000 138.3000 135.0000 134.6000 139.4000 159.5000 150.6000 141.4000 130.4000 125.4000 118.5000 114.1000 113.2000 111.7000 110.8000 110.4000 112.2000 114.3000 115.0000 115.7000 118.0000 117.9000 119.5000 118.9000 118.8000 121.3000 123.1000 125.2000 121.4000 123.2000 122.8000 130.6000 136.0000 133.0000 135.2000 130.0000 124.9000 122.0000 119.1000 117.8000 115.8000 110.7000 96.8040 84.4900 90.7773 88.6826 87.6257 85.0055 84.1598 83.1987 82.3711 83.7679 84.5800 103.8514 99.3460 109.2592 109.0863 109.3402 106.4601 108.0030 107.7450 103.9997 102.0556 97.8887 97.9010 90.9109 90.3510 88.7810 88.7930 88.4524 88.4972 88.6721 88.8234 88.9844 88.8816 88.6415 88.5374 87.7625 86.8642 85.6800 84.3543 83.6858 81.3131 74.6646 67.8140 61.6548 55.3016 48.4437 40.8180 34.7287 29.4291 26.6560 26.4000 29.7423 31.9313 36.3518 37.1479 31.8544 35.5607 37.7134 29.3462 23.4873 19.2664 18.8420 26.5792 36.2031 31.0035 26.5266 12.0085 20.2830 -25.6901 -20.7661 -10.8689 -9.7727 -5.1635 -4.9312 -0.5086 2.7785 98.8828 100.0992 117.0920 112.2091 123.3994 128.7926 132.2921 134.2166 135.0834 135.0610 136.0727 134.2000 135.4893 135.7418 136.1887 135.7262 136.7775 136.5550 135.7677 131.2870 133.1805 133.5675 132.2724 130.3897 126.2297 122.5992 121.7016 116.8258 117.2849 122.7252 124.7119 119.2220 115.6752 112.8269 108.7996 105.3999 96.9898 104.5145 109.6549 112.2254 110.9454 111.2232 103.8960 97.1200 90.9130 81.8183 78.7336 77.2483 71.9327 68.7051 66.7285 59.2142 57.3603 58.1836 55.7814 55.6344 34.0740 32.0379 30.5488 25.9024 26.5510 22.8903 25.1065 33.0789 37.6699 59.7568 42.4350 36.9837 44.0368 39.8175 35.3401 51.7183
204.1000 158.7000 144.2000 140.4000 140.4000 136.2000 137.1000 138.2000 136.7000 136.9000 135.2000 135.0000 137.8000 148.5000 139.7000 138.0000 140.9000 141.1000 136.3000 131.3000 128.9000 130.4000 137.4000 152.0000 140.5000 131.0000 123.6000 117.7000 115.0000 113.8000 112.1000 110.4000 110.4000 111.9000 112.5000 114.0000 114.3000 112.9000 115.0000 115.4000 116.3000 116.5000 117.1000 117.7000 114.9000 114.5000 116.6000 122.9000 136.3000 134.1000 134.4000 137.0000 126.5000 121.8000 117.3000 115.6000 115.4000 93.3931 84.0934 82.8455 79.8473 83.4152 84.2591 84.5312 83.3336 84.1250 86.6724 86.3561 99.0655 110.1437 108.5535 109.0447 109.2286 108.2955 108.0758 107.5441 108.7452 103.4648 99.8575 99.4000 102.0000 95.1969 89.9048 90.0304 89.5658 88.6889 88.5548 88.6236 88.5819 88.4502 88.3744 87.8796 87.3051 86.7498 82.8153 80.1287 79.4898 82.1990 81.5126 76.1385 68.7565 61.0930 53.1044 46.8494 39.8672 35.2947 28.3902 27.7982 25.4873 28.3870 35.9432 27.2206 34.9617 34.5357 31.6949 16.7508 36.8502 18.6034 12.8321 7.4864 20.3666 38.5921 27.9225 -16.7019 -28.2519 17.4962 -24.7409 -19.7322 -20.3225 -9.5269 -5.6543 -1.8169 -7.6271 -8.3035 5.1499 104.8733 102.4287 114.1292 116.9232 123.4199 128.0432 132.2916 133.3237 131.1498 130.1525 128.6585 129.8624 131.6501 131.4453 132.5091 133.6615 134.0264 133.0653 129.8226 131.4987 130.9823 130.1885 126.9266 124.4993 123.8242 121.0816 117.1631 119.7778 122.6957 124.7047 124.3715 122.0051 116.6483 110.7816 108.4790 104.2664 108.2000 114.5698 112.2079 112.9662 107.8919 101.5272 90.5855 83.9106 78.8216 76.9431 77.3288 75.4547 72.9436 65.9252 60.2493 60.5481 61.1074 56.7211 55.4392 55.1317 36.1694 30.4544 27.7492 27.0523 30.9530 31.5137 33.4722 58.8138 52.4419 31.1156 26.4991 40.6039 33.1318 33.2014 39.6455
180.5000 169.5000 149.0000 139.8000 136.2000 136.7000 133.7000 135.6000 134.0000 130.7000 133.0000 131.8000 132.5000 132.3000 134.5000 135.4000 133.0000 136.7000 138.3000 133.8000 128.9000 128.0000 127.1000 130.5000 144.5000 144.8000 132.0000 129.0000 121.9000 118.1000 115.3000 112.6000 111.2000 109.5000 109.6000 111.3000 111.4000 110.8000 110.9000 113.0000 115.0000 114.3000 114.9000 117.1000 113.0000 111.3000 112.1000 118.8000 126.0000 128.7000 123.7000 128.1000 123.6000 120.5000 115.2000 113.3000 88.5016 84.9596 84.7463 83.8220 80.9304 82.6141 84.7499 85.4362 83.8389 83.8013 88.9854 96.3641 112.1042 111.1492 110.7738 111.9000 111.8759 111.7476 111.1702 109.8000 107.6000 106.0000 106.0000 102.9000 104.7000 104.9345 101.7159 89.8089 90.1752 89.7953 89.5128 89.8510 89.8136 89.1034 88.0969 88.3505 85.4608 85.3271 84.0830 79.0357 77.2673 80.1663 79.8019 77.1113 69.2037 60.8274 50.1094 45.3159 40.3358 30.3356 27.7281 27.9345 29.8713 41.1049 10.3184 18.0240 20.3434 24.4913 24.9876 15.2960 13.2940 -2.4991 -2.7360 6.2529 36.5163 41.8648 20.5145 -4.0874 -24.4111 13.2265 -24.6588 -17.3047 -8.4009 -2.9290 1.8270 -1.6386 -9.5634 -16.5434 5.5258 97.4507 104.8452 104.8066 119.5746 120.8420 120.6000 120.2000 125.5000 128.5467 127.2265 127.5937 124.2546 126.3095 129.7518 129.9704 131.0028 130.7590 129.7793 125.9966 129.1380 128.0084 125.6791 124.8715 124.2716 123.4371 122.3892 118.9460 119.3441 121.3203 124.6138 125.4285 124.7108 119.4041 115.7505 113.3505 110.2957 111.1662 112.2233 112.1031 111.8916 102.2025 93.6340 87.1999 80.5685 74.7834 71.0999 72.7415 73.5306 72.2341 64.1239 60.2390 60.0494 58.8569 57.9364 56.8164 55.5197 32.5448 31.0107 32.4370 36.4499 41.5573 43.9046 36.9638 32.6747 40.5909 23.5412 29.0159 26.9402 30.3674 33.6181 53.6131
172.2000 160.5000 161.8000 145.7000 136.7000 133.1000 131.0000 132.6000 128.7000 126.9000 127.7000 127.3000 126.8000 130.7000 128.2000 133.1000 141.8000 141.7000 135.9000 134.6000 134.8000 129.6000 127.3000 126.6000 129.4000 135.0000 155.9000 145.5000 142.1000 125.4000 122.0000 118.5000 114.5000 114.9000 109.2000 108.7000 108.9000 109.4000 109.4000 113.2000 117.8000 112.4000 114.4000 116.0000 116.1000 110.3000 108.6000 113.4000 118.7000 106.7000 110.1000 116.0000 114.8000 117.1000 94.8835 93.9553 90.3370 90.2082 88.0271 86.5501 87.6090 83.9758 89.2856 89.4238 89.7624 106.7000 96.3215 112.0820 113.1546 112.0286 111.7063 112.8405 112.6754 111.6989 110.1000 108.7000 108.5000 108.6977 109.4552 108.4506 106.7777 108.4365 107.1850 99.4670 90.4643 90.5122 91.3762 91.3246 91.0801 89.8298 88.2597 86.3307 85.9954 84.1898 81.4953 79.6886 75.9364 80.9300 76.6178 70.5454 56.4504 58.9469 46.7955 43.4370 27.4306 28.7834 31.2322 15.2586 17.4419 16.3670 15.1912 14.1481 14.6668 13.6494 13.7493 10.8635 7.1435 7.5754 17.9600 19.1187 16.7621 51.6153 54.5283 16.7383 6.2781 10.7919 11.0446 -11.8306 -1.7705 3.1888 3.2619 9.2776 -5.5395 9.7553 72.3070 88.5216 97.4107 111.7680 112.8581 119.7448 119.7987 121.6627 121.5355 121.9991 123.1831 122.8561 123.4263 123.3492 127.1000 128.2000 127.7328 124.7637 122.9924 127.4000 126.2261 122.2214 122.6305 119.6302 120.4291 120.9033 122.4663 120.4924 120.0970 118.2725 119.0582 118.7541 122.1313 123.2418 120.1124 118.1286 116.8910 118.8574 119.2957 115.3240 112.8834 100.4444 91.5347 83.0239 75.8094 71.0662 73.6370 70.3069 67.6562 67.4984 62.6172 60.3237 59.7130 57.8647 57.5162 56.9503 56.7766 56.9446 56.6580 36.3655 46.0774 45.8062 44.9407 42.7751 30.3902 16.7439 15.3520 14.9735 11.5227 13.6504 39.1996 59.8000
159.1000 157.6000 165.7000 152.7000 158.8000 156.8000 132.0000 129.1000 128.4000 127.9000 126.6000 125.8000 125.6000 127.0000 127.1000 128.7000 130.3000 131.5000 136.7000 141.5000 131.4000 132.2000 132.3000 128.9000 126.1000 125.9000 133.5000 148.2000 150.3000 146.6000 132.2000 125.0000 121.2000 113.8000 111.7000 109.4000 108.0000 107.9000 107.8000 108.9000 109.3000 109.0000 107.9000 110.7000 109.2000 107.3000 106.4000 106.6000 106.4000 105.7000 105.3000 104.4000 105.3000 105.7000 97.0054 93.6899 90.9918 90.8884 90.2674 94.0088 89.3893 93.4383 111.3000 112.4268 106.0734 109.9388 110.5000 114.3225 113.8671 114.5971 114.3734 114.2782 113.6682 112.4142 108.7884 108.2887 109.3213 109.1892 110.2242 108.8142 108.7489 109.8001 108.8608 103.4522 91.1578 91.4748 92.7357 92.5037 92.0665 90.5353 86.9694 87.2680 86.8620 92.1903 89.6302 89.6163 88.4959 76.8035 78.8773 69.7270 62.1503 58.9873 51.3435 45.3190 44.3709 40.0287 5.7515 21.6477 20.3340 20.7520 19.8067 14.2236 11.1734 7.3394 4.8508 4.8350 5.3058 9.6426 16.4370 30.4669 23.1172 58.2459 59.8620 65.4307 64.7254 8.7669 8.9781 -9.4271 3.9643 12.7190 32.3693 28.7696 17.6471 27.0770 70.5636 86.6175 96.8912 110.2895 116.1208 120.3994 117.7967 118.7896 118.2700 116.2795 116.6237 118.6352 120.3000 119.7883 121.8230 123.2426 122.4191 119.6048 120.9851 120.5702 120.0080 118.8399 124.4184 124.1274 123.3502 120.8436 121.3338 119.5390 118.6811 120.2062 119.9593 119.6608 119.0101 121.2853 123.7249 121.1665 121.4090 122.1523 122.9810 117.8684 112.7797 104.2322 89.3047 81.4732 75.0759 75.3529 78.2901 77.0819 71.1606 65.6136 61.8659 60.2091 60.2088 59.5601 57.1263 57.4195 56.9980 56.9612 56.9818 48.3498 47.8582 42.2952 37.4584 30.2443 20.5440 0.2861 7.3874 5.4598 2.4884 8.5610 60.6000 59.5000
166.3000 160.7000 155.1000 151.5000 167.8000 153.5000 146.9000 131.3000 130.3000 127.4000 126.6000 125.8000 125.5000 125.6000 125.2000 125.1000 127.4000 129.1000 127.8000 127.7000 128.2000 126.9000 125.0000 129.3000 128.2000 126.1000 124.1000 125.3000 143.6000 146.0000 139.2000 136.4000 123.2000 116.3000 116.5000 114.4000 109.5000 109.2000 108.3000 108.2000 108.0000 107.6000 108.0000 108.7000 107.4000 108.2000 106.6000 108.0000 108.0000 108.4000 110.0000 111.1000 107.4000 94.8947 96.8033 91.9309 90.0512 88.2735 92.1968 92.1577 97.3781 110.4661 111.5057 113.6023 113.2627 112.7080 112.0064 113.4000 113.6000 116.6214 118.3387 117.1006 116.3095 113.9275 110.9161 111.2796 110.7976 110.0836 109.5158 110.9372 110.9446 109.6928 107.2086 99.7607 98.4125 92.7397 93.9866 93.9001 92.7858 91.4404 90.1087 87.3094 86.5132 91.5833 103.4046 102.1125 101.8236 69.4993 70.3918 62.8738 58.5515 56.4024 49.8044 56.8002 44.4436 25.9851 28.3286 25.9846 27.0231 18.6239 17.7326 13.5746 8.2058 3.3660 0.0262 6.2534 8.2825 12.5249 10.9721 33.0469 36.5609 61.3560 64.7635 70.1043 71.2678 55.2827 11.1357 -7.6980 11.4974 26.1654 32.6905 38.7020 30.7790 64.0021 71.0359 89.0431 103.9212 108.1205 114.5573 113.5877 116.1884 116.5212 115.6357 114.0064 112.2660 114.5131 118.1076 118.2431 116.0009 113.3247 113.1146 116.5778 118.9071 118.1519 122.8333 125.3255 126.4231 126.2766 125.2325 125.6101 124.1325 121.0983 122.4909 123.2709 124.1836 121.3521 120.5806 122.3998 125.8513 122.5452 120.4227 120.6233 118.7544 115.3032 111.6228 107.8808 96.5431 84.5564 75.3333 82.4665 83.2490 78.0069 74.0612 70.3232 62.3688 60.5596 59.3824 58.7149 57.3327 57.8982 58.2999 57.2164 51.2088 52.6786 43.9472 34.5505 25.6085 18.6145 11.8681 4.9796 2.9247 1.7410 11.6718 60.5000 60.9000 60.7000
167.5000 163.5000 158.8000 152.8000 148.3000 146.2000 149.6000 151.1000 139.4000 129.8000 126.0000 125.3000 125.2000 124.9000 124.7000 124.8000 124.4000 124.7000 126.3000 125.1000 126.8000 128.1000 124.0000 120.8000 120.7000 123.6000 125.2000 122.9000 120.8000 123.0000 147.4000 158.1000 142.3000 134.2000 129.2000 122.2000 115.6000 112.8000 111.3000 111.7000 112.2000 112.4000 115.1000 117.0000 116.9000 118.4000 119.8000 122.3000 117.2000 123.8000 123.6000 118.8000 118.6000 94.0606 90.8755 92.6017 90.0358 91.5589 94.8992 98.2000 99.4577 111.6101 112.3063 113.3817 114.5217 113.9743 116.5000 116.4000 117.0000 117.0000 118.2621 120.9000 120.1675 116.1442 113.6226 113.4209 112.5068 112.0195 112.6772 112.5865 109.2910 106.4741 104.7905 106.2023 102.6847 100.3844 93.9831 95.0625 94.0982 92.4166 91.9958 91.0039 91.2645 92.9118 92.3650 108.2556 108.9253 59.4911 59.2286 55.7156 50.8073 49.6554 46.1907 61.5392 23.4513 30.5132 30.4903 25.9304 22.1685 18.9222 16.7089 11.0185 6.3872 0.5902 -0.2929 5.3474 10.5913 13.0169 5.3792 -23.2853 44.3704 59.1909 66.5141 69.5007 69.9577 60.2076 13.1902 -4.9236 16.1189 19.8490 35.6189 34.9965 46.8996 63.0753 64.5597 78.7124 98.9209 105.4940 108.9739 114.6987 117.6291 114.9759 112.5598 112.2222 111.2167 113.2506 115.7945 116.0077 115.6257 113.4647 118.6184 118.8304 120.3385 118.8703 122.2382 123.4103 125.2114 124.6347 124.4503 123.9507 123.1873 122.1874 124.4442 124.6866 123.3012 124.0555 123.7261 123.8380 127.5472 123.8906 120.0961 118.1324 112.9267 104.5771 100.8189 100.0537 91.8563 84.7918 78.2610 85.0000 85.7462 81.0362 76.1678 69.2715 63.6336 61.4995 60.1219 59.4940 59.3439 58.1848 58.3079 58.0277 57.6734 52.5978 44.2548 33.5754 24.6946 19.5320 14.4554 9.8521 -14.9728 -17.8828 -1.4900 60.7000 60.9000 61.6000
158.4000 157.1000 156.0000 150.6000 148.7000 145.1000 143.8000 144.3000 149.4000 152.1000 138.3000 125.3000 124.6000 124.7000 124.6000 124.4000 124.1000 124.8000 124.4000 124.0000 126.4000 126.4000 124.1000 121.2000 119.0000 118.2000 120.2000 121.5000 120.7000 118.4000 117.8000 119.8000 121.8000 122.3000 128.4000 125.2000 117.6000 118.6000 118.6000 117.4000 120.3000 120.0000 118.7000 119.4000 123.1000 124.4000 127.1000 129.3000 130.6000 129.0000 121.4000 121.7000 97.5476 96.3670 92.1966 87.1058 87.5459 90.4377 93.6089 99.1000 110.9277 111.3242 111.7038 114.6952 115.4049 115.4732 122.0000 120.8000 121.0000 120.5000 119.9000 119.5212 118.3968 118.1567 113.1852 113.2181 114.5871 115.2763 114.1840 113.3106 110.5639 107.6746 108.5822 111.8240 110.2213 103.6275 102.3147 95.2142 95.0314 94.3910 93.6174 92.4311 90.9003 92.9802 93.2030 90.9516 111.8438 56.9419 48.8529 46.8472 44.8399 42.2054 41.0045 36.0792 35.1983 32.1711 30.0433 25.4713 20.9807 16.9191 12.4916 9.3147 6.2832 4.2097 3.6632 5.8683 10.1843 21.2361 -33.9750 35.5785 47.3698 58.4054 64.1579 67.4200 69.1626 63.9519 54.8395 17.2127 18.9674 24.1872 24.2136 25.0457 35.4089 49.2426 62.4517 78.0877 92.9335 101.3204 107.5934 111.5397 111.5146 115.0719 113.8070 109.3317 109.1849 106.6179 109.5945 110.7253 111.9497 112.5129 114.7192 114.8381 115.1762 117.7213 118.2341 121.2352 123.2890 124.1135 123.8061 124.6529 124.4464 124.4631 123.8385 124.8823 125.6731 126.5743 125.4367 126.3827 128.7549 126.0916 123.4359 119.2377 115.1970 108.9594 94.4881 84.1355 82.0823 82.5583 80.4826 83.8000 86.6452 81.8619 75.2076 68.3760 64.6041 62.3106 60.2697 58.9997 58.6341 57.8881 57.9741 57.2715 58.1196 46.4067 42.3675 35.5981 28.5840 24.1689 19.1489 0.9559 -4.1339 -9.7553 61.0000 61.0000 61.3000 61.3000
151.2000 153.9000 153.3000 149.7000 145.5000 143.5000 142.0000 141.0000 139.2000 140.6000 160.3000 146.1000 125.7000 124.5000 124.2000 124.2000 124.3000 125.2000 125.6000 124.9000 123.4000 122.5000 124.5000 121.0000 118.2000 120.6000 117.6000 116.5000 115.4000 115.5000 114.4000 114.0000 113.2000 112.8000 111.9000 113.0000 132.1000 126.5000 125.3000 124.2000 123.6000 123.7000 123.5000 124.2000 122.5000 106.6000 115.0000 138.6000 156.7000 132.4000 124.9000 100.4248 102.1967 94.0791 87.2507 85.7325 86.8953 89.8175 93.7522 95.9557 109.1792 109.6583 109.7597 113.7318 116.4930 119.2000 122.9000 124.2000 122.8000 123.4000 123.6000 121.3798 116.6741 113.1390 113.4001 112.9484 114.9872 115.2071 113.2921 111.2682 110.2718 114.0322 113.8110 115.6551 115.9431 113.2828 109.4705 103.2680 95.2395 96.7448 96.3907 94.2750 91.8967 91.0389 91.5147 91.1371 108.7081 101.8093 62.7441 59.8948 57.5860 52.3271 44.8960 -2.8993 39.3633 32.2749 29.5134 18.6574 3.7241 42.3840 4.8757 12.1066 9.7153 9.3671 8.4869 8.1364 12.6646 16.4157 27.0487 29.5501 44.4497 72.6160 62.7425 71.0341 73.1849 64.8127 51.2766 28.3422 32.9221 22.8171 24.0833 31.8323 44.4526 57.2947 65.8384 73.9911 84.2916 94.6111 104.1655 108.3053 107.3733 110.2484 107.8075 109.5146 109.0000 110.1770 113.3000 111.4792 111.7293 113.0606 117.4605 120.2473 121.6035 121.1786 122.1944 122.7106 123.7016 124.8392 125.9785 127.1201 125.1706 124.2493 124.3947 127.6100 130.0661 129.9485 130.6324 130.4489 131.2785 131.1893 127.2031 122.6964 112.0225 102.0865 101.8014 96.7774 90.4739 86.0635 85.1604 89.4566 88.8666 82.3087 76.7883 70.4640 70.2102 67.0931 63.1038 59.2079 59.0336 58.1645 57.6081 57.0299 57.0291 56.3447 37.6645 33.5217 33.7531 27.4135 15.1757 9.6330 -2.0319 -2.0918 61.3000 61.3000 61.6000 61.0000
149.8000 147.3000 148.8000 151.5000 157.4000 152.6000 146.3000 144.4000 142.0000 140.2000 136.7000 136.4000 128.7000 126.1000 124.4000 123.9000 125.9000 126.2000 125.1000 124.6000 123.9000 122.3000 121.6000 121.5000 120.4000 118.5000 118.0000 116.6000 116.2000 130.1000 120.9000 117.6000 113.9000 113.2000 111.5000 110.5000 121.2000 126.1000 119.5000 128.4000 126.9000 126.4000 126.3000 126.9000 127.2000 123.2000 106.7000 131.7000 122.6000 125.5000 101.6638 102.4000 96.6111 91.1409 86.9123 85.3515 86.3279 89.2798 95.0250 94.8572 108.2955 108.4646 110.0399 114.7396 115.4647 118.5000 120.1000 122.3000 122.0000 123.1000 124.4000 119.7482 113.8350 110.7061 110.2105 112.8859 115.6400 115.7653 115.2514 114.3572 113.9261 113.7701 114.4994 116.0636 118.8454 118.3441 114.2212 110.5611 98.2065 100.2098 98.1332 95.7386 92.3541 89.9475 89.1898 89.5720 88.5722 97.7540 71.7686 75.3761 70.0519 62.9562 52.3427 0.8181 44.4742 35.2175 23.7480 13.7588 32.2695 32.0427 37.0485 10.0970 12.2378 11.9728 11.1734 8.2568 5.4296 -0.4658 20.5790 19.5225 27.8432 53.2860 54.0860 61.8113 69.6772 58.2846 48.5269 33.7086 34.2910 19.7910 21.2329 30.1107 44.1023 63.7091 65.7146 71.3037 77.7455 84.3868 91.2157 101.7357 102.8715 105.6461 105.6082 108.0384 109.6162 116.1000 118.8000 121.0000 123.2000 125.1000 127.3000 124.9848 123.2504 121.7653 122.7586 124.8890 126.2153 128.5325 128.2100 134.4000 135.2000 136.0000 135.8000 136.3000 133.5900 133.7102 132.2632 131.4783 132.7618 133.1749 129.6298 124.0269 118.4715 110.3359 101.2545 94.8231 90.3701 85.7914 83.5765 90.7000 89.9890 83.5776 76.0976 74.5287 71.3109 66.5046 64.9289 60.9694 58.2180 58.3016 56.4145 56.5187 56.3146 55.9116 38.5727 39.1708 37.6736 30.9444 23.8199 27.1591 -0.1097 -0.2524 62.1000 61.7000 61.9000 61.7000
148.5000 146.9000 146.1000 143.6000 141.5000 156.3000 173.4000 149.5000 147.4000 148.8000 141.1000 135.2000 133.9000 129.7000 137.0000 129.1000 126.3000 124.0000 124.4000 124.4000 122.8000 124.2000 122.6000 120.3000 119.4000 118.7000 117.0000 117.1000 119.2000 128.0000 136.2000 134.8000 132.6000 125.5000 118.6000 114.8000 112.0000 111.0000 109.6000 108.7000 108.0000 110.4000 110.5000 108.8000 108.0000 108.9000 110.1000 118.8000 116.6000 122.5000 103.9355 98.5895 92.5350 90.3390 87.9308 87.3512 88.6312 92.7849 95.5554 95.9735 110.3089 107.1131 109.7863 115.7813 116.5780 117.4000 118.7000 120.2000 120.3000 120.6000 122.5000 116.5088 115.9433 112.5524 112.6414 114.2797 116.5821 117.3954 117.2529 117.0930 116.9655 121.0535 124.4000 124.9997 123.3697 120.1791 114.9623 116.7229 115.1596 99.7117 100.7920 97.1496 93.0141 90.3443 88.7843 87.9741 88.6232 88.2296 91.2951 89.0593 81.6748 70.9975 58.5381 20.0002 35.2534 32.9936 27.1169 -3.7709 20.1892 18.2912 26.3061 13.6889 14.2530 13.0501 13.0168 12.8935 12.9707 -34.7343 13.5548 17.6293 22.4426 32.8030 48.0089 44.6655 67.2801 63.0917 53.6222 40.7618 25.7307 10.9622 21.1849 29.0603 43.6815 55.5960 66.8516 68.6111 73.7617 84.1510 85.6221 98.0345 101.9372 105.0777 106.8137 107.5738 112.2000 114.2000 118.9000 121.7000 123.4000 124.9000 126.2000 124.5796 125.3132 122.7887 123.6822 126.8636 130.6076 134.5796 138.6000 140.0000 141.0000 141.0000 140.7000 141.0000 140.0000 133.1878 132.4839 132.1678 132.6803 133.3061 127.1384 123.1586 119.6095 111.7385 102.0472 93.1224 85.6460 85.5156 85.3277 92.7000 92.5928 87.6215 79.1161 75.8818 72.3583 68.9997 66.9050 64.6722 62.0384 59.8673 58.4359 55.3069 55.6114 55.5288 53.5469 43.0255 42.1288 38.9385 36.5840 31.7545 1.3845 62.6000 62.2000 62.3000 61.8000 61.7000
148.6000 146.6000 146.3000 148.3000 145.9000 144.1000 139.7000 140.7000 138.1000 137.0000 135.7000 134.5000 132.9000 130.3000 130.3000 128.0000 128.5000 127.8000 125.8000 124.8000 123.9000 122.4000 121.2000 120.1000 119.1000 117.8000 122.4000 119.9000 123.0000 134.0000 134.7000 131.4000 143.5000 137.2000 129.8000 125.1000 117.9000 114.9000 112.1000 110.9000 110.0000 108.2000 107.1000 107.7000 106.8000 106.5000 105.5000 108.1000 107.5000 101.7707 101.3557 96.2916 90.6854 89.7292 89.2396 89.5956 92.1815 90.8502 96.8790 97.5082 113.0912 115.9019 115.3077 118.9306 119.1750 118.4102 121.3000 123.6000 123.3000 121.8000 121.6000 122.9000 124.1000 115.4538 116.7637 117.0470 119.3368 120.6238 121.0334 121.0740 119.8614 122.5228 124.8644 126.9835 129.3058 131.1447 127.0354 121.8536 112.8677 108.9300 97.4335 97.0942 94.7646 91.5996 90.4247 86.6838 85.5894 90.6194 87.9820 80.2848 75.9273 70.3115 62.5626 47.1954 47.9830 14.0828 -1.3321 44.5347 25.1216 14.3806 -10.9622 5.8041 7.0223 11.1220 13.3509 16.4183 5.8338 12.2300 16.5298 20.2361 27.9017 46.1137 31.9016 42.5854 46.6650 53.4131 53.8970 37.8133 31.1387 16.8243 24.0459 26.9111 52.7004 52.1322 58.4324 65.0946 75.8115 84.7516 95.8105 102.7975 102.7614 106.2383 114.1000 115.3000 118.2000 117.1000 119.2000 121.5000 123.1000 124.8000 124.2000 125.2336 124.1161 125.0902 124.6062 127.0511 130.6836 136.0000 141.6000 144.2000 144.9000 145.4000 145.4000 144.2000 144.6000 143.1000 138.3000 135.9000 135.7000 137.3000 127.2023 125.2061 119.1982 111.2037 103.0245 96.7637 90.3222 86.7296 88.5573 90.9362 94.5827 89.7471 79.7507 76.3315 72.5232 70.7046 65.7184 62.7882 63.3210 61.0698 59.6686 60.2266 57.4365 54.7216 53.7000 45.9018 47.1743 45.6972 42.0578 38.6413 23.9268 62.8000 63.3000 62.9000 64.3000 62.4000
139.3000 145.8000 144.3000 143.2000 142.3000 141.8000 140.6000 138.3000 134.5000 132.9000 133.0000 132.7000 130.7000 130.5000 129.4000 127.6000 131.7000 131.1000 135.5000 126.4000 122.9000 122.1000 121.1000 120.3000 119.2000 118.9000 123.1000 130.4000 134.5000 140.0000 140.8000 144.9000 140.1000 136.2000 132.5000 129.2000 123.7000 124.2000 120.1000 115.6000 112.5000 111.5000 111.1000 111.8000 117.7000 115.6000 109.7000 106.9000 106.6000 102.3772 99.4144 94.9039 90.2702 90.1911 90.4833 92.5457 90.8760 92.1566 99.6292 108.7000 117.6962 118.1329 117.0604 118.0660 119.4775 122.2000 123.6000 126.2000 125.8000 123.8000 123.2000 123.9000 124.5000 125.3000 119.3683 121.7238 122.6096 123.4601 123.3466 123.8674 122.4909 123.6425 126.4334 128.9177 130.8898 130.7048 133.6784 131.2673 127.9743 117.8468 113.9951 95.6983 96.1145 95.2634 95.7600 87.0420 85.4806 85.2521 78.8991 89.8081 74.4780 63.5763 60.3760 49.6456 52.9057 26.7384 46.7479 51.2137 15.6433 -32.3321 -17.8866 -7.1728 -2.1152 5.0752 -20.8364 -6.7157 35.1472 5.8034 -17.1349 26.1918 40.5721 47.9628 47.8458 38.9289 38.4344 46.1705 51.9741 54.7903 29.8570 32.1430 -21.3796 29.0375 36.3118 46.0264 62.5653 66.9688 77.2766 92.0451 98.8610 104.7473 103.6243 114.5000 116.3000 118.5000 119.6000 121.9000 123.5000 125.4000 125.6981 124.7867 126.1759 127.4744 128.0763 125.7609 134.1000 136.3000 136.4000 138.2000 140.8000 142.2000 142.5000 142.8000 143.1000 142.4000 141.8000 141.1000 139.9000 138.4000 137.7000 137.9000 135.7000 132.9000 118.5360 108.4572 100.4025 93.3360 89.9063 87.7664 87.1873 90.5501 95.0474 89.9064 81.2460 77.0193 75.0247 71.1498 67.3799 63.5359 60.2141 59.7271 58.9752 58.1246 55.8206 54.8569 55.0893 55.3017 51.2785 49.0383 46.8683 42.5224 63.2000 62.9000 63.7000 63.2000 64.4000 64.9000
137.1000 136.9000 137.7000 140.2000 141.2000 140.1000 139.1000 136.9000 133.9000 137.5000 141.9000 138.9000 135.4000 136.6000 142.6000 133.0000 133.0000 135.4000 132.9000 144.9000 145.4000 126.0000 119.2000 119.5000 119.4000 119.2000 118.8000 121.2000 126.6000 134.2000 137.2000 140.4000 141.2000 139.0000 140.8000 152.7000 137.3000 137.6000 133.9000 127.4000 129.6000 122.8000 122.8000 124.9000 125.8000 122.1000 118.4000 112.3000 100.9601 100.9263 98.8480 92.2061 91.5998 91.7383 94.3251 91.5353 91.5549 93.8306 96.0829 109.0000 115.1157 116.3596 118.5715 119.3602 118.9679 122.4000 124.8000 126.6000 126.1000 124.6000 124.3000 124.8000 126.2000 127.6000 127.7000 122.7555 127.3204 126.6478 125.3029 125.2270 125.3711 125.5212 126.9519 129.4429 132.1550 132.3315 132.9053 130.0609 128.4248 125.4373 116.0779 95.8365 94.9304 98.4453 95.9774 90.2866 90.8559 85.2598 83.2877 80.6276 66.1401 62.8376 58.0942 45.5584 42.4261 38.9129 37.6102 16.7888 12.3594 -57.7677 -55.1441 -38.6485 26.4316 7.0739 -4.8087 -0.7706 7.3964 7.7954 5.0935 34.8599 -4.5160 46.6468 46.5894 40.7435 35.7529 43.9885 54.6252 59.4004 36.1563 39.3220 31.0661 29.7454 33.0247 47.3799 52.6310 68.1373 84.8035 94.6725 100.1609 100.6233 102.7262 119.4000 121.5000 122.6000 123.3000 124.3000 125.9000 125.2240 126.1357 126.1719 127.0617 129.9000 128.7501 133.4000 137.0000 138.4000 140.2000 142.3000 142.4000 142.7000 143.6000 145.1000 144.8000 144.4000 144.1000 142.5000 140.9000 140.6000 139.3000 139.0000 136.4000 132.0000 127.6000 120.2000 112.0000 93.0195 90.0353 88.8041 87.3760 88.9486 91.0183 89.8028 79.7267 77.1806 73.7276 68.8858 65.2573 61.2088 58.7309 56.9565 56.7098 57.0879 55.5856 56.4404 56.8591 55.9679 51.2168 52.3595 48.1004 49.3994 63.3000 64.3000 64.1000 63.5000 63.3000 62.8000
136.8000 136.6000 136.7000 137.9000 139.1000 137.2000 135.7000 135.1000 138.5000 141.8000 145.5000 155.6000 150.4000 142.8000 175.0000 136.5000 136.4000 141.4000 135.8000 137.1000 143.6000 156.7000 161.3000 124.0000 119.9000 119.1000 119.7000 119.9000 121.9000 123.7000 125.0000 127.5000 136.6000 145.2000 145.7000 153.2000 146.5000 157.1000 168.0000 159.7000 144.9000 139.3000 134.4000 131.6000 127.7000 123.6000 124.2000 101.2562 100.9326 99.6043 99.0824 94.1252 93.5868 94.4676 93.2859 93.7301 93.6607 106.2287 115.5769 111.5246 115.1278 118.0298 118.8254 119.1059 120.2000 123.0000 125.2000 126.8000 127.2000 126.2000 126.4000 127.2000 128.4000 129.4000 130.4000 135.3000 127.7183 129.1867 128.4280 127.2108 127.8301 127.3974 126.8410 126.6930 127.6613 126.5446 127.4316 126.7327 125.8608 123.9450 123.3279 121.3007 96.6069 93.6686 98.0424 97.9359 97.7679 91.7615 79.4421 75.6310 79.5562 63.6685 49.9575 52.7779 44.4423 34.2986 18.3664 10.7850 -2.9316 -3.2801 -21.4614 -36.8344 -29.3530 -9.8103 5.0364 0.9081 44.3705 45.2780 51.2746 41.0569 33.2688 43.9025 42.1156 47.9017 41.5276 48.6551 59.4626 63.9826 42.4344 37.0039 40.2326 33.5014 36.3616 36.4540 53.5485 62.8491 76.0750 94.6226 100.4171 100.7821 104.7522 114.9152 116.8227 118.9948 119.9830 120.9089 122.2976 124.2000 125.3364 124.9604 126.5212 131.2000 132.7000 135.7000 137.5000 140.3000 143.1000 144.4000 144.8000 145.9000 146.7000 146.7000 146.4000 146.0000 145.5000 144.2000 142.3000 142.0000 141.1000 137.9000 134.3000 128.6000 128.0000 121.8000 111.8000 92.1976 91.4174 90.1956 86.1837 86.3761 86.7482 89.3167 80.1901 78.5838 75.6478 72.0250 64.1985 60.1384 58.5199 55.7984 54.6203 55.5156 56.9110 57.9631 58.5444 58.7118 56.8253 53.2402 48.2557 64.6000 64.0000 64.1000 64.5000 64.4000 63.8000 63.6000
136.4000 136.9000 136.8000 137.3000 136.7000 139.1000 139.9000 141.8000 145.0000 150.4000 152.6000 156.5000 151.8000 149.7000 164.6000 165.6000 140.5000 153.0000 163.8000 148.2000 142.4000 146.8000 152.8000 150.6000 148.3000 132.2000 127.7000 127.1000 124.8000 124.4000 125.9000 124.1000 128.5000 133.8000 136.6000 136.8000 140.9000 137.9000 139.5000 145.8000 143.6000 141.7000 131.9000 132.5000 128.9000 101.0074 100.9403 101.6066 101.5453 100.8267 96.1760 97.0667 96.6875 96.8656 96.0944 94.6301 95.1513 95.6704 117.7479 118.4226 118.4639 119.0303 119.6666 121.8000 123.6000 125.9000 127.5000 127.9000 127.5000 127.7000 128.3000 128.6000 129.7000 130.8000 132.2000 132.5000 131.8000 129.1539 129.8470 128.2879 127.2425 127.0247 127.8474 127.2830 126.2022 126.1233 125.8382 125.6282 125.9172 123.4356 123.1254 123.1320 119.9852 96.7498 93.3127 99.5599 91.6568 85.4411 83.5382 74.7459 72.5401 55.9649 57.3455 49.5008 46.4126 33.8481 15.3696 -2.1585 -13.9687 -31.8983 -49.2510 -52.9154 -50.0372 -30.9453 -14.1504 -1.3821 12.7715 37.8916 45.5551 48.1286 46.7950 35.7974 43.1463 56.2960 53.2376 58.5218 66.5440 70.2432 47.7001 50.9772 44.3250 37.2638 38.3407 45.7331 58.5036 65.3778 73.9549 92.1656 101.8883 102.1476 106.5519 107.5614 117.1968 119.0362 120.7515 120.1612 121.8139 123.0153 122.9050 123.4061 125.8075 126.0146 132.0000 132.6000 135.4000 141.5000 144.7000 146.2000 147.3000 148.5000 149.4000 149.7000 149.2000 148.8000 147.3000 146.4000 143.4000 141.2000 141.4000 140.2000 137.1000 133.9000 131.2000 123.3000 115.6000 97.2168 95.1400 91.8173 88.1952 84.9741 85.1516 84.4958 83.1743 80.1755 77.7823 72.5806 65.6662 61.1949 58.1674 56.2363 55.1461 56.4854 57.9503 59.0229 58.3111 59.2338 57.4406 55.6553 53.5579 62.3000 61.3000 64.6000 64.6000 64.6000 64.2000 64.4000
137.8000 137.6000 137.7000 138.5000 141.9000 146.8000 151.1000 154.7000 159.2000 154.2000 167.9000 166.9000 157.8000 174.0000 163.2000 166.2000 148.3000 146.2000 156.3000 154.1000 157.1000 147.8000 145.8000 141.9000 140.6000 145.2000 151.1000 134.8000 127.4000 124.7000 126.3000 126.9000 125.6000 129.2000 131.1000 132.9000 136.7000 122.7000 121.6000 123.8000 126.1000 134.6000 121.2000 126.2000 100.7456 101.3196 100.7624 101.9223 103.0794 98.7494 99.1743 99.7766 100.9796 100.0081 97.4321 119.8373 111.8230 98.1992 103.7685 118.2100 119.6287 119.1973 121.1000 121.7000 123.0000 124.8000 125.6000 125.9000 126.5000 127.9000 128.6000 129.4000 130.7000 132.0000 132.3000 132.4000 131.7000 129.4000 127.9913 127.8492 127.8704 128.6407 126.9290 128.5798 128.2403 127.2326 126.8094 125.7580 125.0872 124.5609 122.8106 121.8521 121.7232 117.8968 98.5727 96.3095 106.7041 85.0064 84.8022 81.5864 72.1843 54.3040 52.8881 52.4470 48.2314 34.8084 14.6478 -3.8499 -19.8409 -43.4786 -51.9115 -57.3230 -46.0291 -29.5607 -9.9255 6.4039 11.6000 31.4262 47.0353 51.9048 53.2174 49.7389 52.2550 67.7702 67.6307 70.5059 75.2786 76.8981 58.7848 55.1193 48.2941 41.2731 41.9637 45.9496 50.1901 63.8479 73.1243 85.0104 97.6707 100.2580 106.5395 108.1900 115.1629 117.6754 118.3435 119.4988 121.1223 122.5781 123.1088 123.0000 124.9688 127.2675 128.8447 130.6898 132.6984 134.5891 136.3782 141.3000 143.3000 147.5000 149.0000 149.0000 149.3000 148.5000 141.5875 140.1844 140.1320 139.8704 138.9407 140.5000 136.3000 131.6000 130.0000 124.9000 103.3313 98.9786 94.4646 91.9227 87.5306 84.5607 83.4118 83.5620 83.0526 84.3649 80.8715 74.9753 68.7198 62.7851 59.1507 58.0661 56.3359 56.6551 57.6668 58.6334 58.7559 58.9951 57.2954 57.0806 56.8818 66.8000 64.1000 65.7000 64.2000 65.4000 65.6000 64.3000
138.4000 138.5000 138.7000 142.2000 144.4000 149.5000 154.2000 164.0000 173.1000 181.1000 173.5000 188.1000 173.4000 178.5000 194.1000 192.7000 186.0000 161.7000 158.0000 168.6000 162.6000 165.6000 157.4000 144.1000 140.7000 138.0000 138.4000 146.9000 147.2000 130.9000 125.8000 125.7000 124.2000 125.0000 125.1000 124.4000 130.0000 122.3000 119.3000 117.8000 115.0000 113.1000 99.3831 99.8586 100.5382 101.2659 101.3853 102.7390 103.2682 100.8537 101.3574 103.2897 104.8917 101.6265 120.3732 119.9879 118.9473 114.4350 105.0573 107.0489 112.3342 114.8000 116.5000 119.0000 121.1000 122.8000 123.6000 124.7000 126.3000 127.7000 129.1000 128.9000 127.9000 127.4000 127.1000 126.5000 124.6000 125.0000 125.1752 125.9812 126.8055 127.7099 127.2658 128.1817 128.0815 126.9290 126.7143 125.8849 125.1354 123.9620 123.3895 121.0731 118.6442 117.8757 114.9926 100.0674 103.7423 108.1844 86.2441 83.8773 74.9413 54.3952 52.6784 56.2054 51.5422 38.5959 21.8546 1.9777 -23.5822 -37.7546 -55.4318 -49.0713 -34.1003 -18.2645 0.1086 13.4636 31.8442 40.2124 54.9927 58.2973 57.2199 58.3519 65.1318 74.5913 79.9958 82.1013 84.0772 74.4538 67.6418 61.4010 52.8701 46.1668 45.3788 49.1510 53.3020 61.1236 75.3038 81.8396 89.4275 95.1464 102.7231 111.3737 109.3878 116.4527 117.9926 121.5000 121.6000 121.8000 123.9000 123.7000 125.2000 126.8000 128.5096 130.7000 132.7000 134.5351 136.4294 138.1700 141.6000 143.1000 144.5000 145.4000 141.4376 142.7000 141.2552 140.6550 138.6430 141.0979 139.8702 135.8541 137.0000 130.9000 124.7000 121.4000 122.6000 119.2000 109.1000 100.1000 86.9688 84.9114 81.5764 81.7162 89.9000 82.8830 83.2447 77.9508 71.8065 64.7125 60.5584 59.1867 58.4518 58.3952 58.1777 59.0413 58.6882 58.9742 58.7614 57.9096 66.0000 66.8000 66.2000 64.7000 65.0000 66.2000 64.6000 65.4000
139.1000 139.1000 142.4000 144.2000 146.9000 152.1000 160.1000 166.0000 171.8000 177.4000 183.7000 189.7000 191.7000 193.3000 188.4000 189.8000 192.9000 197.0000 194.6000 182.7000 170.4000 165.3000 148.4000 151.4000 148.3000 136.1000 133.0000 132.7000 133.4000 139.7000 138.3000 140.3000 143.6000 136.1000 127.5000 123.6000 122.9000 121.2000 118.3000 116.4000 112.7000 110.1000 98.9498 99.3411 99.1412 100.7195 101.0594 103.5711 104.2260 103.7331 104.4682 106.6000 104.7917 117.6455 120.3820 120.1804 119.9803 119.8024 118.1691 106.8324 110.3910 112.6000 116.9000 118.8000 120.3000 121.0000 120.7000 120.7000 120.9000 122.6000 122.5000 122.0000 121.0000 119.6000 119.0000 119.8000 122.0000 120.5981 122.9017 123.9687 124.3822 125.4682 126.2751 126.6855 126.9199 126.8426 125.7431 124.4486 123.5940 123.0480 120.6712 116.6126 116.5312 115.0745 114.1531 103.7735 105.0096 106.0574 84.1109 82.2112 75.7175 63.2718 57.6191 57.9543 54.1864 45.9704 31.1198 6.7199 -6.7568 -25.8802 -41.5035 -33.2735 -24.6260 -7.3685 10.6065 24.6999 38.0558 64.9065 62.6986 62.1693 63.3317 67.4492 76.2167 82.4253 87.3935 89.2495 85.9839 81.4126 74.3071 66.8515 59.5881 51.0654 49.5836 52.4210 55.9334 62.0843 71.2265 79.8186 85.0000 90.9854 93.5815 104.2266 106.6057 112.4662 114.8000 119.2000 120.9000 123.1000 124.8000 125.6000 124.9000 129.1000 126.8639 129.4000 132.6000 133.7945 135.7000 137.1000 138.6000 140.3000 139.2303 139.0933 140.7455 140.7150 140.5428 139.5210 139.2255 140.5000 138.9610 133.9950 133.2000 130.1000 127.6000 129.7000 128.6000 123.4000 114.9000 106.5000 101.6000 85.9184 81.9260 79.9507 77.6885 78.1157 83.0511 79.0336 72.1446 65.2638 62.6198 62.0313 60.2266 59.8916 58.5822 58.5946 59.2688 59.3933 58.9671 58.6315 66.3000 67.1000 66.6000 66.0000 65.9000 65.9000 64.7000 64.4000
140.6000 145.3000 148.8000 152.3000 154.5000 157.7000 158.7000 162.9000 168.8000 171.9000 176.2000 180.3000 183.2000 181.4000 181.6000 181.8000 189.4000 191.9000 186.4000 183.0000 183.2000 171.1000 159.4000 170.6000 165.5000 152.0000 147.7000 131.8000 129.3000 128.7000 129.4000 130.3000 126.1000 128.7000 159.5000 146.2000 138.4000 135.3000 129.0000 120.7000 112.1000 99.3986 98.7743 98.6314 99.2315 99.9580 101.0175 102.6191 106.9679 107.2354 106.3529 107.1727 115.3767 118.8965 121.6608 121.2300 119.5351 119.5833 118.8780 116.1887 117.6739 112.4834 113.6000 113.1000 113.4000 113.7000 114.2000 114.7000 115.4000 116.0000 116.5000 117.0000 117.6000 118.5000 118.2000 121.7000 119.3721 119.7969 120.3217 121.4867 123.2667 122.6593 123.6289 124.4848 126.4312 126.3169 124.1731 125.0276 124.1449 121.6095 120.0770 117.2436 111.9678 111.2242 111.4978 109.0442 104.1987 107.2365 106.8958 78.6610 78.0542 75.8116 59.0638 61.6178 66.3464 59.1973 46.1712 29.4629 12.3863 -4.3883 -17.2111 -10.8162 1.3182 10.8420 20.4720 34.6618 66.4424 67.3635 65.0462 64.2199 68.0293 69.2213 68.9824 86.5658 91.5081 89.0747 87.1656 86.2829 82.4502 74.4605 66.5443 58.5635 55.6588 56.3171 57.7472 60.7418 67.6370 76.1349 82.8487 87.8506 89.6741 92.3571 91.9850 93.7951 114.1000 119.9000 121.5000 122.0000 119.1000 120.0000 121.5000 123.2000 128.1000 132.0000 130.6809 132.6000 137.1000 138.2000 139.6000 139.8000 137.3042 138.8000 140.3515 139.5941 139.1849 139.6647 139.8604 142.4000 139.6808 135.7083 135.5431 135.2000 133.3000 132.7000 128.5000 127.2000 117.0000 112.0000 104.7000 84.9297 84.1759 80.1776 76.7119 73.9137 73.6570 75.8142 73.0640 66.6761 62.8002 61.5603 59.3128 59.1030 58.9574 59.0838 59.5539 59.3582 58.8878 59.3106 66.9000 68.2000 66.1000 65.3000 65.6000 65.6000 64.7000 64.5000
151.7000 175.6000 170.8000 164.7000 176.3000 173.8000 168.3000 167.5000 165.7000 166.8000 169.5000 174.6000 177.3000 172.8000 171.7000 183.9000 193.8000 185.6000 176.7000 176.6000 168.3000 179.1000 178.5000 173.1000 163.2000 163.2000 158.9000 151.4000 143.4000 134.6000 131.0000 129.6000 127.6000 134.7000 123.5000 135.2000 151.8000 127.9000 121.7000 120.7000 100.7589 100.0597 99.1116 98.3858 98.8388 100.2893 99.9600 101.7482 104.1427 108.1609 108.7909 109.2004 118.7157 120.7697 121.6349 120.6537 119.0286 119.7026 120.4007 118.4307 117.0524 115.2109 113.9000 113.5000 113.4000 114.2000 114.7000 115.1000 116.4000 117.5000 118.6000 116.6116 117.0206 120.3000 120.1000 118.8000 119.7000 120.6196 121.1039 121.9372 122.2664 122.6926 123.5782 126.3228 127.3318 130.1000 124.7910 125.1721 124.8696 122.4216 120.4382 119.3029 118.6088 116.6095 115.6102 114.9223 107.1692 107.4637 107.9882 106.3426 81.1266 83.5811 80.1823 67.2240 73.7079 71.9431 64.3082 50.9221 37.4274 21.9402 13.2913 18.6385 27.8214 30.5963 37.7759 49.2526 63.7843 67.6637 67.6122 67.6357 71.1917 73.6572 74.4095 81.0110 86.6257 87.4418 88.0830 90.1769 86.0709 80.2401 73.0383 66.1397 61.3993 60.6326 60.6587 61.1419 65.8820 74.8917 81.4303 85.0412 86.4112 83.1708 88.9821 90.0494 92.5863 117.0000 120.6000 120.5000 122.4000 123.3769 126.0000 130.8000 133.4000 135.8000 132.6395 137.9000 137.9000 141.2000 143.9000 144.0000 143.9000 144.8000 143.3000 143.2000 139.4812 139.6028 139.7013 142.4562 140.9932 137.6607 134.8084 135.2385 135.4000 133.2000 132.2000 128.4000 117.3000 114.6000 103.9000 88.0261 84.6019 81.7564 78.9958 74.7608 74.4616 84.6000 85.3000 80.9000 73.8000 62.5260 60.7295 60.2973 59.4308 60.5754 59.8766 59.4182 60.0768 59.9783 67.1000 67.7000 67.5000 65.4000 64.5000 65.7000 65.1000 65.4000
161.2000 167.3000 174.3000 165.0000 155.5000 173.2000 166.4000 163.3000 163.1000 162.4000 163.0000 167.2000 166.9000 164.2000 171.2000 176.2000 178.7000 175.2000 167.5000 168.2000 163.5000 168.9000 170.9000 179.2000 175.0000 165.9000 158.0000 152.6000 146.0000 144.8000 137.0000 135.0000 134.2000 126.3000 120.9000 119.2000 120.7000 142.3000 117.8000 101.9834 101.7435 100.2998 99.6702 99.2703 99.8518 100.8956 101.3483 100.6855 119.1000 109.4602 109.2376 109.8336 121.2469 121.2219 121.2515 120.5217 119.3462 119.4887 117.9534 117.8647 116.0021 116.4230 115.7999 114.7000 115.5000 115.6000 115.2000 117.6000 119.8000 121.6000 122.1000 118.7712 118.5584 117.8249 116.6021 119.8000 121.8207 120.7366 121.6696 122.6121 123.6081 124.5266 125.2055 126.2592 131.4000 131.7000 131.3000 124.9169 124.0480 122.4732 120.6613 119.3387 119.4925 118.5795 116.9807 116.6805 109.1057 108.1959 109.1835 107.1892 106.1899 87.0597 88.3141 83.1807 80.1957 69.9864 62.3911 53.6378 61.8938 55.8277 49.3100 51.3706 51.6320 52.5726 53.0988 64.0895 65.3116 66.5193 68.9100 71.4134 73.3667 75.5510 78.0300 80.6711 84.8240 87.3241 89.5461 87.6991 86.8494 81.0144 76.9258 73.6902 71.4536 69.1904 60.8490 62.8697 67.2125 72.4157 78.3426 81.8906 82.7951 77.2524 91.2336 92.7951 107.4022 114.7000 117.7000 122.0742 124.7101 125.0378 127.8519 130.6000 133.1000 136.3000 139.5000 140.7000 141.6000 140.7000 143.1000 143.8000 144.1000 144.2000 144.3000 144.7000 144.7000 144.0000 140.4359 139.1501 140.8490 142.0921 137.8243 135.9697 132.3517 131.9588 130.9000 126.8000 122.2000 117.3000 102.1000 85.8329 85.4980 82.4192 82.2000 82.0000 79.6000 80.0000 85.6000 81.6000 76.9000 62.0954 62.6809 61.4450 60.3671 60.7957 60.9727 61.2328 60.9704 60.4077 67.3000 68.0000 68.4000 66.0000 65.7000 66.8000 67.4000 66.3000
157.9000 167.3000 166.5000 158.6000 155.5000 154.7000 161.2000 160.8000 159.2000 159.0000 161.4000 163.9000 162.3000 158.0000 163.2000 161.1000 165.9000 164.6000 158.0000 157.4000 151.2000 161.7000 157.1000 168.2000 168.7000 174.9000 182.4000 180.1000 172.6000 155.4000 142.8000 145.6000 128.0000 124.8000 129.8000 120.8000 116.0000 114.5000 104.4165 103.3832 103.4478 101.1856 100.6408 100.8072 101.3016 103.5438 101.2626 123.8965 118.6687 108.3399 109.1592 122.7628 122.6026 122.3926 121.9282 121.0400 119.3106 119.5479 117.4511 117.4535 119.1221 117.2097 117.2881 116.0936 113.7288 115.4000 119.7000 122.2000 123.7000 124.3000 124.2000 122.1801 119.2725 117.7069 118.5224 120.3618 123.2586 123.3388 123.8285 123.2591 125.1887 125.6298 127.8041 128.1483 132.0000 131.4000 131.2000 125.4008 125.5778 123.1066 120.0303 118.3846 117.4774 117.7261 116.3278 113.7498 111.0864 107.8169 109.5656 108.5123 106.1785 90.5915 96.4009 91.5803 85.8065 84.8671 82.7655 81.4896 80.5841 55.6772 58.5931 77.8642 73.7921 69.2211 65.3771 64.4703 66.4900 68.3485 71.0250 72.0257 77.6213 83.2204 85.1431 88.2863 92.2532 92.2096 90.2321 89.1801 86.3256 82.2299 84.1302 83.1683 82.5375 79.2528 73.3811 71.7228 67.3417 71.1235 75.5747 78.2645 79.1087 87.3147 93.8086 99.9754 105.2659 106.8134 116.0000 122.0746 122.3858 123.3735 127.9000 131.5000 133.6000 135.9000 140.2000 142.2000 143.8000 145.1000 146.4000 148.0000 148.4000 147.7000 147.0000 147.0000 147.1000 146.8000 144.9000 144.8000 141.0703 142.1901 140.8049 137.9652 133.7995 129.7251 128.6459 129.1000 125.9000 116.6000 119.4000 87.8460 85.2058 85.3714 87.8000 85.7000 82.9000 81.6000 85.0000 80.1000 77.0000 62.7673 62.4451 61.6973 61.9526 60.6674 60.3833 60.6836 60.1759 67.7000 68.3000 68.7000 67.6000 66.8000 66.7000 66.7000 66.9000 67.1000
151.4000 155.9000 158.7000 158.8000 159.9000 160.2000 159.8000 158.2000 158.0000 157.1000 155.6000 156.8000 158.4000 155.9000 150.7000 152.2000 157.8000 153.5000 151.5000 149.0000 159.0000 157.2000 149.2000 163.1000 161.1000 162.1000 168.3000 170.8000 171.0000 173.4000 167.5000 144.7000 136.4000 143.6000 122.7000 118.5000 116.1000 104.7094 104.5223 104.0179 103.1845 102.7673 102.4186 102.8626 104.5354 102.1269 124.6623 125.5787 109.1253 109.0362 109.6311 117.2000 122.5385 122.0587 122.5648 121.8439 120.7053 121.7181 120.5253 117.0352 119.2934 119.6397 118.4547 117.5035 116.5129 116.2367 118.5000 121.0000 123.5000 124.1000 124.2000 120.9069 120.5470 119.8236 121.1269 120.8401 122.3372 123.3707 123.3896 122.5356 124.3865 125.9230 127.0233 128.3047 129.4609 130.8000 130.1000 129.4000 126.5766 124.3147 121.1731 119.0786 117.3244 117.6269 118.2107 116.8597 114.5724 114.3512 108.3672 108.9790 106.4678 104.9583 95.3731 98.1382 91.6654 88.6997 88.8205 85.6542 82.7166 82.0211 82.4832 82.2261 73.3949 72.7021 67.9710 65.1823 64.4814 69.4570 71.6208 73.5042 76.2931 79.6701 82.3107 87.4673 92.0447 90.1306 92.2242 89.6994 86.8011 93.2868 92.4492 83.2786 81.6529 78.6038 78.7948 76.3276 75.1179 72.7390 72.6711 74.4013 74.5071 73.9356 93.1513 90.1231 106.5057 105.6951 106.1557 99.4584 116.8817 119.5233 127.4000 133.0000 133.7000 137.2000 140.6000 143.8000 143.2000 141.0000 141.0000 141.4000 144.4000 146.4000 145.3000 145.0000 144.4000 143.6000 143.4000 143.3000 143.1000 141.5044 141.5181 137.9711 133.2660 129.7931 126.4196 128.8000 127.5000 122.8000 118.2000 108.2000 92.8342 87.8038 94.1000 88.5000 84.5000 84.2000 83.6000 82.4000 77.9000 62.8874 63.1758 62.8814 62.3540 61.0509 61.1730 61.2413 60.8114 68.0000 68.8000 69.0000 67.1000 66.2000 68.2000 68.1000 68.4000 68.6000
149.4000 152.8000 158.6000 166.4000 168.4000 166.8000 163.9000 162.7000 162.5000 159.6000 157.6000 154.6000 152.9000 153.8000 152.4000 145.2000 150.0000 149.1000 150.1000 141.9000 148.0000 149.6000 141.9000 145.9000 149.7000 150.7000 156.0000 161.2000 165.6000 168.1000 175.1000 183.9000 173.1000 133.6000 122.6000 116.5000 104.6751 104.7181 104.5516 104.6296 104.2845 104.6390 105.7739 106.8271 105.4839 121.0305 122.5488 123.2091 110.0198 109.9999 111.0710 110.2207 122.5032 123.7331 123.5707 121.6937 121.7562 120.9829 120.3633 124.2035 123.0427 121.7858 120.6700 120.9529 120.1218 120.6125 118.6875 120.6000 120.8000 122.6000 123.2000 123.4000 121.6280 121.8998 122.3938 120.8779 121.9685 122.0680 121.6665 122.4043 122.0005 123.7834 124.8573 125.8260 127.7977 130.8000 131.3000 131.0000 126.2504 127.8600 125.4927 123.4550 122.1418 120.2217 119.4409 118.4058 116.5360 117.4173 115.6548 108.4120 108.0892 106.0676 104.5804 95.5229 96.7652 92.2574 91.8938 96.0538 87.4306 84.8960 84.0054 83.7912 85.8454 87.6996 69.5427 72.3152 70.2296 71.7278 73.4363 74.5855 73.9257 71.5433 78.8926 80.8341 88.6516 90.2756 94.9170 92.6579 96.7743 96.5698 100.4649 94.0995 91.1291 87.0832 81.8187 76.4687 74.5176 73.5093 74.7543 71.6939 70.8580 71.7818 81.9211 87.9138 86.0593 94.7865 94.5398 97.6797 119.3024 117.9026 130.4000 133.6000 135.4000 139.5000 142.6000 144.3000 144.2000 140.9000 144.2000 146.9000 146.5000 145.6000 145.7000 145.0000 145.7000 145.4000 145.3000 145.1000 144.2000 144.6000 140.8030 140.7371 137.6491 135.2370 133.3088 130.8172 130.8000 125.0000 121.7000 115.9000 106.6000 97.6000 98.6000 85.4228 86.7000 88.7000 86.7000 85.7000 80.2000 63.7817 63.0414 62.8627 62.7541 62.6096 60.8469 61.1448 61.3837 68.4000 69.2000 69.2000 68.3000 71.3000 71.8000 70.4000 73.9000 70.7000
158.1000 159.1000 160.4000 164.9000 167.3000 169.0000 166.8000 165.8000 164.3000 161.7000 159.8000 157.2000 154.1000 150.9000 146.1000 143.6000 139.1000 137.3000 135.6000 139.0000 141.0000 138.6000 137.4000 139.4000 139.1000 141.8000 147.5000 154.4000 148.3000 154.0000 160.1000 169.2000 162.5000 164.3000 147.9000 105.8489 104.6934 104.5795 104.6595 105.2545 105.2986 107.1774 110.7814 110.7104 118.5102 120.2020 121.5712 123.5724 111.0345 110.0233 110.0436 118.2946 118.8190 123.2690 123.6871 128.7621 129.5987 129.2136 128.5323 128.1109 127.7239 125.1740 124.1452 124.4108 124.0385 124.3084 123.9737 122.7950 122.3693 122.6496 123.6000 123.2000 122.9168 122.5135 123.5490 124.3004 121.0127 121.4095 121.5589 122.9149 123.7138 124.3932 125.3586 126.6029 127.2222 130.9000 131.6000 132.2000 132.7000 127.4651 129.0425 127.8875 125.2572 121.9819 121.4197 118.2321 116.2230 120.1487 121.4455 117.3960 106.7664 106.4970 105.8527 104.1077 95.4903 97.4482 95.0291 93.7672 94.7203 86.6849 86.4719 87.3522 88.0713 88.6772 84.3870 84.0274 72.0973 74.1166 74.1791 75.9375 74.3771 74.2202 78.9784 85.4172 84.9676 95.9177 98.1148 94.7760 90.5563 102.9374 103.2748 99.1200 93.7676 92.1662 84.0446 79.8113 78.6795 75.7811 72.1805 70.5419 68.7914 69.9513 66.4322 82.6944 75.1449 80.4475 75.9284 81.4840 80.1717 118.9425 124.3385 128.6085 136.9000 137.7000 142.0000 143.6000 140.4000 143.6000 146.7000 147.9000 148.9000 149.2000 149.8000 149.0000 149.4000 149.9000 148.7000 147.9000 142.0128 140.0459 140.2562 142.9855 139.0234 135.3653 133.3106 130.2296 132.3000 129.3000 124.8000 117.5000 107.0000 100.7000 87.0539 86.4887 87.2000 92.3000 91.3000 93.0000 86.2000 64.8834 65.1281 62.2346 60.6857 60.5930 60.2974 61.7650 68.3000 69.8000 69.3000 72.1000 72.9000 73.2000 74.0000 74.4000 76.3000 71.7000
162.0000 178.2000 175.4000 174.0000 172.1000 169.7000 167.7000 166.0000 162.2000 160.3000 156.1000 156.7000 156.4000 152.3000 149.5000 147.4000 143.1000 135.7000 133.8000 132.0000 130.9000 129.9000 131.4000 129.3000 132.4000 137.0000 140.6000 144.8000 138.5000 134.8000 144.1000 136.8000 120.5000 108.4400 107.2748 106.3842 105.0434 104.7184 105.0423 105.1332 106.5912 109.1470 108.7040 118.2324 119.1188 120.6654 123.0757 120.9794 112.1867 109.0571 112.1867 131.6621 135.0130 135.7538 134.1065 133.9101 133.9004 133.5635 133.8394 133.5895 131.2488 132.0516 129.2748 129.3267 127.7656 127.6183 126.4911 125.7222 125.7944 125.4718 125.3384 124.1939 124.4104 122.8553 124.0150 124.6774 123.6811 123.1808 123.3483 124.2484 125.1773 124.6691 125.8714 127.1446 128.1206 130.8004 132.3000 133.3000 133.6000 133.2148 131.7924 129.9162 126.8953 126.2380 125.8272 125.6051 117.5095 120.1744 121.5443 118.6044 116.8551 105.9312 106.4438 105.8442 104.4510 97.3700 97.6103 94.3116 92.1955 87.6555 92.7294 91.1488 91.5537 87.0018 85.0357 83.3229 82.0060 80.0826 74.7444 74.1194 74.8449 75.8586 79.5386 89.6075 93.2184 95.5027 99.9745 98.2913 99.9563 102.9052 104.2489 100.7516 92.1875 95.2971 89.5863 83.2518 81.1745 77.4554 74.2095 71.5221 69.8093 59.2747 62.3402 57.8838 73.7356 50.5826 57.9080 58.8101 82.7129 120.2354 124.4284 128.3516 133.0455 131.8886 139.6000 138.9000 142.1000 144.6000 147.9000 149.7000 150.2000 150.5000 151.3000 151.0000 152.3000 152.4000 148.6000 143.6239 141.6759 140.7388 137.7232 139.0966 137.3924 134.1205 132.6450 129.4521 128.8596 126.9000 121.4000 112.3000 104.6000 100.1000 88.9377 89.2502 88.6000 93.2000 95.4000 95.5000 90.2000 66.7318 66.4809 62.0745 60.7779 60.2590 60.8113 60.9579 69.3000 70.1000 71.8000 73.9000 76.1000 79.7000 77.9000 77.4000 77.4000 76.2000
180.0000 179.9000 177.1000 174.3000 172.1000 164.8000 157.2000 154.4000 152.1000 150.4000 151.6000 153.5000 153.1000 151.0000 145.6000 140.5000 136.4000 133.8000 144.7000 134.9000 132.9000 129.5000 127.4000 126.5000 128.0000 134.7000 138.7000 139.0000 136.1000 133.0000 119.3000 116.9000 110.0752 108.6514 107.7585 106.9991 105.4992 105.8807 106.5026 107.2726 108.9839 107.2407 120.0519 122.0306 119.8136 122.5145 122.4966 120.3123 114.1059 114.4566 113.6939 142.7000 144.5000 143.8601 141.8654 140.3788 139.1033 142.0177 142.3000 139.5810 138.5362 137.3506 135.9687 134.5259 133.1897 132.1665 130.2854 129.2809 127.1722 126.8799 127.1873 127.3469 127.3102 126.8539 126.1051 125.8936 125.0458 125.0216 126.6121 125.0795 125.5347 127.3686 129.2903 129.3023 130.7322 132.2436 132.1053 133.7345 134.8967 134.6382 134.2819 133.1118 132.3608 130.5792 128.8233 125.4377 122.8065 121.3648 121.6010 117.6678 116.4851 118.7831 106.0331 106.8112 106.3566 105.7884 99.3924 94.6921 90.9868 88.9272 91.1849 98.5007 92.6691 90.4820 89.5237 85.6476 82.4000 79.9235 75.8616 73.3794 77.3807 77.8843 83.1857 90.3915 93.9136 98.6249 100.1804 101.9893 104.6272 102.7195 106.8160 96.5660 99.0495 100.8384 95.6327 91.1820 86.5192 80.9808 77.9997 69.1238 70.7603 53.5683 42.6828 40.8101 41.5248 31.1524 40.1583 45.7414 68.8551 114.3793 122.0996 128.1258 130.1796 132.5318 131.7974 131.0924 140.7000 145.2000 149.5000 151.2000 151.7000 153.1000 154.1000 154.7000 154.4000 150.9000 143.5934 143.9779 142.4384 139.4745 137.4357 134.9051 135.1743 133.4313 129.8735 126.8972 129.8000 126.1000 117.1000 114.0000 104.9000 99.9000 90.8963 91.0741 90.6436 90.1949 97.4000 96.9000 90.7000 67.6030 68.5866 64.8656 62.1131 61.2294 60.7666 70.8000 70.7000 72.9000 74.4000 78.9000 81.0000 80.8000 81.3000 86.4000 83.0000 81.2000
180.2000 178.9000 176.9000 171.1000 164.7000 161.7000 158.2000 151.8000 148.2000 146.7000 147.8000 154.4000 149.5000 143.1000 138.9000 137.6000 135.2000 142.5000 146.3000 145.6000 143.7000 140.1000 132.8000 127.7000 125.5000 122.8000 123.1000 123.6000 118.9000 118.2000 109.8176 109.6446 108.4497 107.6986 107.5660 107.3934 107.1651 108.3678 109.1305 109.3946 107.8837 126.7042 125.6170 123.8706 124.3138 123.6579 123.6803 120.4076 116.3421 116.5448 117.2343 141.0078 141.7209 143.3170 152.0000 152.3000 149.8000 155.0000 153.0250 155.7000 151.0000 149.9000 145.0000 141.1038 138.6773 137.1172 134.4785 133.7084 131.6945 131.1179 129.3020 128.2078 128.3136 129.3353 128.1482 127.3928 127.7874 127.6091 128.0777 127.0351 126.3551 129.1413 130.9115 131.6134 132.1654 133.1685 134.3428 134.3862 135.1379 136.4995 135.6549 134.4322 134.3848 133.6371 132.8091 132.2554 128.7461 126.0426 123.0402 119.1825 120.9168 118.9475 121.0763 106.8647 108.4264 109.0495 95.8202 93.3763 94.2202 90.6712 90.6330 93.8180 98.1792 96.4581 92.5020 89.0203 86.6789 83.1596 79.2948 75.6072 79.3164 83.9692 85.1731 90.3217 95.0902 99.0894 99.6160 104.1822 106.4256 108.5964 107.9266 107.3623 107.2888 102.6812 98.3999 84.3354 80.6956 87.6385 83.7957 73.4135 62.6080 41.6719 22.1154 11.3426 4.3487 19.0918 17.6656 38.9189 50.4020 68.4733 125.8000 126.4908 125.9759 128.4000 127.9000 132.0000 136.7000 141.9000 150.1000 152.9000 154.5000 156.3000 155.9000 156.7000 154.4000 152.7000 150.2000 143.1783 142.2673 139.7829 137.2718 133.9917 132.7411 130.4359 127.9262 127.7847 127.4000 127.2000 119.8000 111.9000 100.2077 95.0147 93.2108 90.0500 89.0290 91.8985 93.4039 98.0000 93.3000 67.6695 67.7416 64.9932 64.2086 62.5171 71.9000 72.4000 74.6000 76.1000 78.5000 85.7000 85.5000 84.8000 84.7000 84.5000 90.2000 90.8000
179.5000 174.2000 168.5000 165.7000 161.1000 158.4000 156.2000 155.0000 148.7000 146.3000 144.9000 143.5000 141.6000 139.9000 138.6000 139.2000 141.0000 146.1000 146.1000 145.3000 143.7000 141.5000 140.7000 136.9000 132.5000 124.8000 121.8000 119.5000 109.7488 109.6364 110.0905 109.7260 109.8817 108.1040 107.5077 108.9877 111.6034 108.0667 108.2976 123.5509 124.1934 124.5667 127.3554 126.1446 124.2370 123.5383 118.6306 116.6405 116.0893 117.4427 119.4931 120.2561 132.9470 133.3096 141.3270 145.6316 151.7892 159.4000 170.9000 160.9449 155.4653 150.6602 147.4790 151.8795 148.3643 143.3498 140.5860 138.6000 136.2000 133.7764 131.0164 130.7386 130.6027 130.2243 129.3918 129.1154 128.5300 127.9749 128.9736 128.4173 129.2199 130.6765 132.2955 133.1930 134.5954 135.6645 136.1211 136.5554 136.5228 137.7136 138.3769 136.4290 135.3774 134.6861 134.0610 132.4741 129.6774 127.5279 127.5000 125.8000 122.2802 123.0373 121.2440 123.0817 109.4102 112.7548 109.3802 94.7047 96.5175 92.8369 93.3280 93.6293 96.1647 98.1801 97.2835 93.5393 88.1479 85.4651 82.4238 80.0401 83.3839 88.3496 92.1536 95.5948 97.9645 101.0747 103.7428 102.0139 111.3141 111.5355 110.8281 110.2798 109.7485 107.0917 89.1844 96.5624 83.8365 81.4247 75.8568 76.7236 52.8767 29.7098 5.1870 -21.4867 -27.1360 -25.1677 -7.7057 12.3319 49.6179 86.9468 117.0387 121.3000 126.1000 131.0000 131.0638 138.3000 141.1000 145.2000 147.0000 149.3000 151.6000 153.1000 154.1000 153.1000 151.6000 150.5000 148.1000 145.3000 142.6000 139.6000 138.9000 128.6466 129.7025 129.1777 126.9648 127.2619 123.5235 118.7395 110.5876 104.6887 99.7893 96.1450 90.9138 87.8851 88.7806 92.3000 94.5210 96.4000 92.9000 67.5320 66.6802 65.9059 72.5000 71.9000 72.1000 74.8000 77.9000 84.6000 81.5000 84.5000 87.0000 89.8000 89.3000 88.5000 88.1000 92.8000
167.0000 164.7000 162.5000 159.8000 157.7000 154.7000 152.1000 150.0000 147.6000 145.7000 145.5000 145.6000 147.1000 157.7000 163.0000 148.7000 151.9000 148.8000 146.1000 146.1000 145.2000 142.7000 139.7000 138.0000 138.6000 136.0000 120.5000 121.0000 109.3344 110.2755 111.0265 110.7563 109.9755 109.0133 108.8597 111.0185 110.7863 121.1193 119.4440 120.0707 120.5898 124.1583 126.4421 126.8160 125.1526 123.0956 119.2111 114.8753 118.9570 118.3021 118.4000 118.9000 119.4077 128.5206 133.1820 138.6860 139.4208 153.0357 161.6658 156.1000 172.7000 190.8000 189.9000 154.3364 162.0000 152.6953 149.5268 145.0833 141.6327 138.9494 135.6105 133.2519 133.0323 131.6705 130.9333 130.6987 130.0582 130.3491 131.8843 133.1420 133.9114 134.6668 135.5496 136.0983 137.7414 138.5574 139.3017 140.0753 140.1023 140.2518 140.0540 139.1552 136.3430 135.6773 135.2721 133.6498 131.3507 130.4871 129.5566 128.1880 128.8333 127.8311 123.2898 122.5446 121.5227 111.6838 112.7276 107.3570 95.1833 96.1956 97.1791 96.7456 93.6126 89.2721 96.9621 93.7025 89.4337 87.9246 87.4668 86.8941 89.2388 92.4829 95.5825 98.7539 100.8603 101.7352 104.5183 106.1400 108.6726 111.6608 114.0113 111.9535 111.1656 108.6386 102.8711 91.9002 88.5313 88.2120 77.5561 77.4333 56.1615 30.4454 2.2483 -21.8421 -44.4186 -43.7579 -32.9945 -2.4189 42.0028 82.3327 84.9938 127.2000 130.1000 134.5000 137.7000 137.6000 141.7000 143.4000 145.5000 148.1000 150.7000 151.6000 151.9000 151.0000 149.8000 151.1000 146.5000 144.3000 142.4000 139.7000 123.8565 122.4955 123.4962 126.5219 123.0608 123.4388 124.0957 119.2975 112.8253 105.5388 98.0802 92.9957 90.0158 86.9012 88.4000 93.6000 96.3698 89.9382 74.1745 68.1741 67.7937 72.5000 73.3000 73.3000 76.2000 78.7000 79.7000 83.8000 87.0000 85.9000 91.2000 92.3000 93.8000 94.2000 92.6000 97.1000
171.8000 168.8000 167.1000 168.3000 166.7000 161.6000 153.0000 150.6000 148.9000 152.9000 152.4000 154.5000 161.9000 143.7000 147.7000 154.3000 152.0000 149.8000 150.8000 144.3000 141.4000 139.7000 139.4000 138.9000 140.9000 141.2000 121.5000 110.6353 110.3357 111.0815 111.5436 111.5196 110.7988 109.1696 107.9433 113.4974 113.3587 120.5071 119.4631 118.9752 120.3699 122.8520 124.3569 125.1009 125.2053 124.5550 120.6471 122.1109 122.8482 120.7428 119.2990 119.3839 119.4541 120.2715 124.1789 127.0395 133.2424 137.5611 147.9109 148.5000 158.2000 168.4000 190.2000 195.5000 188.0000 161.2906 167.2000 155.8212 150.0000 145.6000 141.1409 138.5797 135.8353 133.9816 132.3734 131.8789 134.0985 134.1971 137.1453 138.8272 139.0735 140.1408 140.1857 142.8535 140.7340 142.6615 143.1779 144.2862 144.7453 143.3861 143.0184 141.3152 140.3127 138.8798 138.2381 138.3673 136.5331 134.4218 131.5111 130.1843 129.3481 128.4387 124.0728 123.9999 122.8212 114.6521 114.7316 111.4410 103.6522 99.7580 101.8426 99.7582 96.9833 94.4409 90.6662 94.4319 90.3647 90.6637 91.4841 93.3304 96.1029 98.2609 99.6333 99.6938 100.8246 102.4315 104.0582 105.1549 106.3012 107.7609 110.6457 111.5141 114.2625 111.8486 108.2461 102.1971 95.1030 89.9009 91.9400 78.5115 55.5270 33.5467 22.2018 -3.1656 -47.8389 -58.8742 -53.2677 -21.0412 12.9492 67.7382 102.9576 122.3000 126.2000 134.1000 135.1000 137.8000 140.3000 142.9000 144.7000 146.4000 147.7000 148.6000 149.7000 148.8000 148.5000 147.7000 146.7000 145.3000 143.1000 127.8778 123.1034 120.5884 115.5868 124.2444 121.4334 116.3896 120.4422 116.1799 111.4427 106.1657 97.6713 91.7896 86.9574 86.0124 87.8547 94.3000 98.8034 90.6113 69.3857 68.5268 73.5000 73.4000 75.5000 79.2000 81.6000 85.2000 88.3000 93.0000 91.1000 90.4000 90.0000 92.0000 96.6000 98.0000 97.4000 97.5000
175.2000 175.1000 171.8000 165.2000 158.9000 155.3000 152.3000 156.9000 166.8000 170.6000 168.5000 165.8000 161.9000 154.1000 152.1000 147.1000 144.6000 144.3000 147.4000 145.5000 142.8000 139.7000 136.1000 135.3000 140.8000 111.7753 110.7029 111.0652 111.7384 112.2377 112.6004 112.3120 110.3918 110.8081 112.4647 114.7259 115.7170 122.9587 121.5041 120.8022 121.7913 123.7029 128.4834 126.9986 127.2963 123.6153 130.0161 125.9270 125.9690 127.0246 127.4911 120.8302 121.3425 121.7106 126.4000 127.3467 125.9759 134.5239 131.1001 158.4000 171.5000 167.2000 165.7000 178.4000 188.6000 198.9000 194.6000 159.8719 155.6564 164.3081 151.7540 145.4471 139.7950 138.2601 135.4110 134.3032 139.4929 142.8013 144.6193 145.6711 144.9847 144.9300 146.1000 146.4864 146.7786 147.8008 148.2415 148.3158 147.7855 148.2196 147.2758 145.6524 144.5114 143.1736 143.0853 143.0627 141.3429 139.6833 136.6388 133.0861 130.9783 129.9379 125.3527 125.2495 122.6465 117.5049 115.2558 110.2498 106.8616 106.7030 107.5373 103.3959 98.7918 95.1544 92.9543 89.5672 92.8146 93.5380 96.1246 101.4437 105.0306 104.5298 103.4209 102.5392 103.5752 101.1639 101.8602 103.5393 104.2087 105.4696 107.7588 110.8806 115.8671 114.0857 112.5265 108.2637 95.9512 97.2801 99.6000 61.7988 52.1155 42.9978 35.8181 -0.7028 -34.7400 -58.1479 -63.1701 -34.8602 -5.7296 37.0225 103.1093 88.2653 121.2000 132.7000 135.0000 136.2322 137.6396 140.2896 138.4772 144.6000 146.7000 147.4000 148.1000 148.4000 148.7000 148.1000 147.0000 144.7000 125.3084 123.5105 116.9220 114.2104 112.2952 113.5106 118.2608 113.0233 113.4000 110.4870 102.3440 95.5544 90.1688 87.8304 86.0512 84.1259 85.7316 91.4000 96.8354 74.1937 74.7000 74.4000 75.3000 80.3000 83.3000 82.7000 93.8000 97.2000 95.0000 97.3000 96.5000 97.1000 99.2000 100.7000 98.1000 102.5000 101.4000 100.4000
178.3000 174.5000 171.0000 163.1000 159.2000 155.9000 157.2000 160.9000 176.1000 162.0000 157.1000 158.2000 166.2000 153.3000 153.5000 148.5000 141.6000 140.7000 138.8000 134.2000 137.7000 136.1000 124.0000 122.7000 113.9420 112.2722 112.3509 112.4734 113.5672 114.3156 114.2227 113.3308 111.9381 113.1416 114.5207 118.0933 118.0260 124.3405 124.8864 124.6808 124.9414 125.8435 127.8419 128.9414 128.5361 130.8017 132.3888 130.1192 127.7584 129.5680 127.2793 123.8888 123.1405 122.3503 118.0791 122.2013 123.5704 124.9430 127.3723 127.3643 147.6000 156.9000 160.9000 143.2000 155.1000 171.0000 177.2000 183.0000 157.8714 158.9720 153.2762 146.2304 142.6183 139.2333 138.7733 142.3000 147.9000 154.8480 153.8141 153.4868 152.5707 151.0521 150.2111 150.3220 151.7825 146.6000 143.5000 150.2672 150.9061 150.7803 149.8449 147.9858 146.6196 145.8695 146.2462 146.0896 145.2476 142.9751 137.9299 136.7978 134.8905 132.8486 127.3296 126.3844 122.1121 117.2622 114.8933 114.8242 111.2733 110.2498 105.8367 106.5039 102.3967 99.6792 97.4632 101.6461 96.0429 100.5347 103.1647 108.2950 115.1847 113.3540 111.0881 108.9911 104.2998 101.3329 101.3884 101.8069 101.8148 102.5249 106.0846 108.5730 111.6669 115.5433 114.7031 114.2867 112.6183 114.2580 109.0140 59.6789 61.0413 56.3183 31.5992 7.9605 -23.3800 -53.9454 -63.2925 -57.2164 -2.2429 33.8493 58.7291 73.9881 120.2125 126.1000 130.9000 133.7000 136.3772 137.3166 136.9715 139.2000 143.3000 145.3000 147.7000 151.2000 149.4000 149.0000 148.0000 145.2000 140.5000 124.5369 118.5504 113.6689 110.3268 107.0769 109.6382 107.2260 106.1000 107.3749 104.3908 94.9245 94.9000 101.1116 90.8230 83.9725 80.3803 89.4000 75.3576 74.6000 74.9000 75.8000 85.7000 96.6000 97.5000 99.1000 97.8000 99.8000 100.4000 102.7000 102.5000 103.1000 105.4000 106.5000 103.1000 106.5000 105.7000 105.2000
187.7000 179.7000 170.9000 163.5000 159.9000 157.2000 157.5000 159.7000 166.2000 164.6000 158.0000 153.7000 152.0000 153.8000 156.2000 155.9000 153.1000 153.2000 143.9000 136.5000 132.3000 124.9000 123.4000 116.5178 115.6363 113.9174 113.8524 114.0884 115.1865 115.2349 115.1624 114.0396 112.9129 115.5103 115.9625 120.4627 120.3035 127.1902 128.7052 128.7740 127.0762 134.1468 133.4034 133.0209 132.4000 134.8507 135.9744 134.8960 132.7411 132.5248 129.0372 126.6445 124.9311 124.6142 124.3007 124.6025 125.1442 125.0202 125.7460 126.2472 127.0998 135.4000 147.1000 130.3418 130.2972 152.4000 155.3000 160.4000 148.9826 150.3342 146.4275 143.8423 142.7744 142.1003 141.9433 144.7684 158.1091 171.7443 174.7000 170.4608 162.7765 156.9913 154.9434 154.4536 145.2000 141.8000 138.6000 150.4702 149.6447 149.7032 148.3255 147.5831 145.7606 146.4752 145.3653 144.2996 143.5907 140.7864 140.8053 139.2206 137.9034 136.0261 130.7781 126.4138 119.0260 118.9634 120.9840 117.3622 124.3985 127.8930 115.1972 105.2358 106.8069 102.5596 99.0636 102.1454 93.9715 100.3588 103.9981 108.8815 114.2820 120.2944 117.1948 111.1752 107.9801 106.4760 100.7180 100.1249 98.8782 100.6723 103.4079 106.7146 110.1990 113.4292 114.9880 114.2722 115.4286 103.3351 102.3839 68.5389 65.8798 69.3765 42.8024 7.3225 -17.8788 -34.6380 -53.4759 -37.8330 -16.0338 23.7160 49.0190 85.0950 119.6000 121.7000 130.2000 133.4000 134.4038 134.3253 136.4293 137.1456 135.5278 139.0000 142.9000 148.3000 148.5000 149.4000 148.6000 145.5000 142.8000 122.6116 124.7476 121.2232 117.4553 116.5211 111.8866 109.2602 104.4427 98.4350 98.6441 102.7000 106.9000 106.4144 101.0505 84.5276 78.5420 85.2000 73.4847 76.0000 75.8000 80.6000 92.4000 102.8000 103.5000 103.5000 105.7000 106.2000 107.1000 107.2000 108.0000 109.4000 109.9000 109.9000 109.6000 111.1000 109.9000 108.2000
177.8000 171.6000 169.7000 175.6000 171.3000 164.6000 165.2000 164.3000 163.1000 165.5000 171.8000 166.2000 157.3000 149.9000 147.1000 153.4000 168.9000 148.9000 141.1000 143.4000 137.2000 124.4000 124.6000 117.1287 116.7884 115.6112 114.9888 115.2194 115.7190 115.9033 114.8493 114.3504 130.6822 119.3844 119.1898 123.3546 123.7835 131.3353 132.0822 129.1417 130.4553 136.4383 135.8000 135.3612 137.0211 139.3263 138.3063 137.4893 135.9501 133.6786 130.0293 129.8000 126.5335 124.6153 124.5058 124.6825 135.2000 134.2000 133.4000 126.3643 130.6000 128.8309 128.5000 129.1905 130.1725 130.5286 131.4328 146.0000 143.0745 143.5499 142.5567 141.0708 144.9279 143.5703 142.6912 143.5365 149.5140 156.0486 163.5709 166.4165 161.9384 157.4927 154.7786 151.9334 150.8626 151.2096 148.0337 149.0702 148.3291 147.2879 145.5371 144.6721 142.6724 141.2506 139.7958 139.7903 138.4466 138.9980 139.8734 139.1001 137.3839 137.4741 130.6595 123.8316 118.9406 118.2553 119.3333 119.2294 120.3335 129.0443 129.9455 115.4973 105.1995 104.9846 102.7162 103.7933 108.0804 103.4605 125.5708 123.6631 124.1906 124.4357 115.2371 112.2840 109.4293 107.8145 104.4678 99.6533 97.3906 99.2008 102.5514 106.7732 109.6770 111.3081 114.8522 114.8685 114.3409 109.0072 95.0233 78.5712 78.6955 75.8717 71.3067 31.5819 -0.0697 -2.5650 -18.1292 -4.4471 -11.9175 13.0299 62.9750 94.3058 124.0000 124.1279 129.3000 132.7000 132.5154 131.4419 134.4888 135.4203 134.1382 131.6040 135.9000 141.2000 146.6000 147.2000 146.5000 144.7000 144.1000 138.1000 125.7885 126.9605 122.6461 123.8407 120.1863 118.4302 115.6011 112.6153 113.2535 116.2816 114.9686 111.5308 106.0049 87.6224 76.5058 75.1624 75.5000 76.1000 80.6000 92.0000 95.4000 106.1000 108.8000 111.5000 116.2000 116.4000 116.1000 114.9000 115.4000 116.8000 116.3000 113.6000 110.2000 111.6000 113.0000 112.5000
170.7000 174.7000 166.2000 189.1000 185.7000 169.8000 174.0000 176.1000 169.8000 165.7000 169.7000 188.6000 175.5000 157.9000 145.1000 141.2000 148.8000 152.5000 138.8000 131.1000 127.0000 125.4000 125.0000 119.0754 118.2482 117.0886 116.7121 117.5782 117.0516 117.0131 116.2926 128.0510 132.7604 123.0395 123.0011 124.8747 128.4422 131.4492 133.2346 133.4502 132.6872 138.0457 137.2210 136.3548 137.7080 140.0188 140.8017 139.8044 138.2587 132.7499 132.9749 131.7985 140.0549 139.0000 141.8272 142.6000 143.3000 144.4000 144.3000 144.6953 141.8179 139.0545 134.2612 128.5211 128.2827 131.8101 131.9596 138.8000 136.9987 142.1707 143.3145 146.4475 146.8989 146.2341 148.1285 150.5334 150.4310 151.6880 153.0918 153.8214 152.2545 150.4726 149.4008 149.0286 147.7438 147.6763 148.6068 147.4593 145.5345 143.9643 142.8002 141.7041 139.4659 137.1475 135.6597 133.4320 135.8234 132.1871 138.0306 139.4372 137.2649 134.8472 127.2812 118.2829 119.3305 119.8625 120.0339 124.9985 122.5595 128.3179 129.3264 118.1997 106.9885 106.4470 104.4183 107.2499 108.3298 109.3949 128.2701 126.4029 126.0171 124.8684 122.9534 119.9858 109.9808 110.3952 107.0367 102.4545 99.9569 100.1860 103.0559 106.6212 110.0901 111.0336 113.6566 114.4885 110.8442 110.5894 102.5250 90.2108 91.1383 87.7335 83.1100 70.5538 57.8545 39.3877 38.0458 28.8678 6.3833 21.3625 56.7702 100.2993 122.4000 123.2426 129.7000 130.1000 130.6887 129.6415 133.4615 132.3661 130.9812 131.9000 129.1000 133.6000 139.6000 139.0000 142.3000 144.0000 142.6000 138.4000 136.2000 130.2228 128.9288 126.7547 126.9951 124.6673 121.8786 118.1754 119.5466 119.6468 117.7210 111.0901 105.7692 93.9755 79.7635 77.2000 76.6000 80.4000 94.4000 107.3000 103.1000 113.0000 117.9000 121.4000 124.4000 124.9000 125.6000 124.9000 123.0000 121.7000 120.6000 118.9000 114.4000 112.8000 116.1000 115.3000
180.7000 160.6000 155.8000 151.0000 150.7000 146.2000 145.1000 142.4000 141.4000 169.3000 170.3000 165.0000 189.3000 171.7000 149.1000 138.5000 133.4000 133.4000 143.6000 158.9000 129.4000 126.0000 126.0000 120.5995 120.8091 118.9697 119.4182 119.0416 118.6092 119.4045 125.3813 128.9018 133.7364 127.0394 126.9278 127.5329 130.4441 131.1416 133.5308 135.4696 135.4625 139.6925 139.4772 138.2439 139.9409 142.2305 142.9182 142.2477 142.0325 135.5664 135.2455 135.5664 142.1990 146.1634 147.8942 148.6158 148.6812 149.8464 149.8038 150.1739 146.7766 143.5537 138.5958 131.0060 129.7354 129.8747 131.4771 136.4312 141.6657 142.8688 146.2736 153.7025 153.4626 150.6627 153.0855 154.3267 154.7399 152.8324 152.4227 149.4458 148.2452 149.5757 148.1855 147.6374 146.6929 146.9841 146.7635 146.8971 145.5393 143.2467 142.4788 139.8871 140.4249 136.3988 135.6951 134.5779 132.7682 131.6932 130.2299 129.6214 123.8063 119.7567 119.4201 120.6604 119.5776 120.2451 129.6426 125.9159 125.7100 129.0651 128.2598 121.1194 120.5260 109.5338 106.1662 105.5484 111.7745 109.8392 129.8543 129.4203 127.4530 126.0671 125.4849 123.9033 119.5625 108.3578 107.6414 105.2244 102.5606 101.2561 105.4626 108.1839 110.9694 111.5398 112.6005 113.5175 112.2429 109.3452 110.7603 100.1307 100.7985 98.4764 94.6755 84.5176 80.5475 78.2904 48.4783 87.7152 89.8641 93.0083 99.5314 101.3576 118.9300 118.0570 128.5000 125.7888 126.7781 125.5513 127.0000 129.7402 130.2750 123.1000 121.0000 124.6605 120.7939 123.4236 136.7000 137.6000 136.8000 137.3000 136.2000 129.6609 129.8311 126.5000 125.3963 125.5717 123.3081 120.8813 116.8988 113.2917 113.1314 102.1042 98.5752 94.1000 77.4000 77.1000 79.8000 99.6000 106.9000 114.9000 118.2000 122.8000 128.3000 129.2000 126.4000 128.1000 129.8000 130.8000 130.6000 129.0000 127.5000 124.9000 119.7000 115.7000 118.3000 116.4000
159.0000 183.5000 184.7000 153.7000 146.5000 145.0000 143.1000 131.8394 130.4942 128.0374 125.4065 126.2381 125.0448 123.6041 121.9464 121.2171 121.1997 120.9536 120.6804 120.4682 120.4833 120.9359 122.1169 122.2381 122.6270 122.3103 120.7533 121.3022 118.8394 123.8000 126.5422 132.7579 136.3860 131.9710 131.1893 129.9682 132.9088 134.7713 137.4217 137.4675 138.1867 141.6737 140.9271 141.3499 142.0278 142.7650 144.9297 146.5279 143.0463 143.4666 138.1855 144.4418 144.9316 148.2571 150.2832 151.1197 151.9691 151.0237 150.9121 149.3085 146.6672 141.0014 134.9272 133.4221 129.9137 127.3709 132.3670 132.9898 138.3229 144.4633 152.6000 152.7426 150.4146 151.8267 149.8335 151.8345 153.7206 152.9572 150.5382 150.5101 150.1927 148.9274 147.3840 146.9133 148.0959 149.1054 148.6807 146.8997 146.1498 144.7042 141.8709 141.0222 137.7313 136.8317 136.1113 134.8929 132.9016 131.9652 133.7944 130.0748 121.7331 115.4389 115.7275 123.5067 124.9609 121.2013 133.9850 128.5437 128.1507 128.2008 128.8208 122.3928 124.2913 109.0004 105.1175 105.8750 109.4134 112.5992 132.8000 131.8784 130.0492 127.5595 126.4360 126.0210 121.6570 118.2861 115.2909 104.9017 104.1804 104.6798 105.4468 108.5095 111.6319 112.0379 111.9496 111.5697 111.2612 110.3777 110.5769 112.4717 108.4552 105.6605 102.7145 99.0070 93.6414 88.9388 91.4339 88.8115 92.8643 96.0522 97.7323 99.5975 101.9195 110.1929 125.6000 122.3705 120.1000 122.6226 126.0000 128.0127 124.9526 119.2549 114.6218 110.8085 110.1000 121.1667 116.4104 120.2768 128.0000 134.1000 132.1000 130.3000 128.5148 127.1556 126.6704 118.6546 116.0000 108.8045 99.4741 87.7267 88.5561 75.3373 79.1000 78.6000 77.3000 79.5000 91.0000 99.0000 111.9000 115.4000 131.3000 128.4000 128.9000 127.9000 125.2000 125.2000 125.9000 129.9000 132.0000 132.8000 130.7000 126.9000 120.5000 119.3000 120.7000 120.9000
154.6000 151.6000 148.5000 147.6000 145.8000 136.8277 133.2397 132.2722 130.0062 129.2043 127.5327 126.3316 125.6817 123.1213 122.0092 121.4379 121.1884 120.9553 120.7171 120.3687 120.3188 120.7623 121.7266 123.7407 123.4946 122.4821 120.4815 120.1790 138.4757 130.7532 132.0875 131.0979 135.0882 134.9096 137.7960 135.0241 135.8153 134.1651 140.5945 141.6229 140.7424 143.3880 144.0716 144.1694 144.4846 145.5615 147.0519 149.0828 148.8664 142.0087 150.3000 150.3963 148.8763 151.4000 151.1828 151.4118 150.3894 149.2905 146.7758 144.0742 140.5620 138.1726 135.8623 135.1514 133.9788 134.7294 135.6661 136.1805 137.5000 141.4211 139.5378 141.2814 144.4267 150.0000 149.4000 150.5000 151.2795 149.4608 151.4509 150.0870 148.3820 148.9792 148.7904 150.5787 149.5096 148.6885 149.6891 148.0082 145.7987 143.9991 141.3676 140.1607 138.7928 137.4937 136.3852 135.9016 136.3417 137.3847 136.8595 128.1286 121.6329 119.1125 119.0932 122.1312 142.3731 141.3583 131.7657 133.3863 130.9396 128.6576 128.1560 122.6497 122.3610 113.4014 115.1843 114.1514 116.6097 115.5086 130.3242 132.2178 128.8756 128.6569 128.7769 127.6714 125.7780 120.6469 116.7367 113.1688 111.1403 105.7377 108.6435 108.2565 112.3657 111.6283 110.9889 110.2758 109.3714 110.9187 111.3746 110.1893 105.8054 105.6101 102.8789 100.5443 103.2816 95.7354 95.8243 95.6056 94.0383 94.5661 95.8839 100.0244 100.6949 105.3685 110.3207 112.6000 121.7586 118.1240 121.2778 122.8000 123.2836 120.3110 114.1701 103.1587 110.3000 116.7792 112.5572 115.1385 113.2000 119.0482 125.9000 126.6000 128.6000 127.5000 120.9000 88.6281 100.3424 84.5332 82.5920 75.4540 74.6623 77.9000 79.2000 79.8000 87.6000 100.7000 103.6000 96.1000 114.0000 126.3000 126.9000 127.6000 128.8000 127.1000 125.3000 125.2000 126.6000 129.7000 131.0000 133.6000 132.4000 128.9000 123.4000 120.3000 131.1000 129.4000
151.6000 151.1000 149.3000 134.2224 123.0544 121.1839 125.6435 133.4170 133.8443 133.8770 134.2180 129.1425 125.2030 122.8518 122.1201 121.9760 121.7845 121.5852 121.3892 121.1919 121.1896 121.7479 122.8726 123.8127 123.5974 124.2387 123.8389 146.1681 140.8288 133.4733 133.2765 131.4409 132.4987 137.1418 136.5662 136.4000 136.0711 142.7921 143.3315 143.1366 143.9309 146.4958 147.1871 147.3275 147.3333 148.0919 149.3937 151.1599 150.6370 147.3807 149.2379 151.8367 150.8303 152.4042 151.3125 150.4122 149.4342 147.2359 146.6110 145.1437 143.7776 143.9747 142.4392 139.7668 138.0442 136.3044 135.0311 134.2973 135.9000 137.0401 138.8000 141.0000 145.1000 148.6800 145.1877 146.3155 148.0254 149.1440 149.7000 150.1414 148.9607 149.6042 150.5773 150.4375 150.3678 150.3088 150.2142 148.1558 145.1189 144.2156 142.5307 142.2303 140.6666 140.2088 139.9849 139.7371 139.1975 138.1691 138.5499 135.6024 139.9229 140.3986 139.9832 139.4870 138.2789 139.1970 130.8897 132.0860 131.5074 130.3326 131.1252 122.2571 121.2970 118.3294 119.9024 119.1716 120.5027 119.3445 123.0736 130.4300 131.8220 131.0434 131.4558 130.5822 127.0748 122.8594 118.9634 115.4435 112.1891 111.2001 109.5876 109.6702 112.3935 111.2185 110.7553 110.3297 109.2745 110.7405 113.3810 114.3436 111.8155 112.6326 105.2150 105.1000 104.6928 98.2804 95.7734 95.3626 88.0960 90.1069 95.3168 94.9480 97.4971 100.9627 110.1270 109.6000 110.6542 112.2000 112.9483 118.1000 119.4136 117.6593 111.9870 101.6410 97.4451 115.8000 114.0643 100.1076 111.8618 110.9195 113.1000 117.1000 116.9000 110.1000 82.4632 87.0109 78.5312 76.6673 78.2378 77.5694 79.8000 82.0000 91.7000 96.5000 102.6000 109.1000 107.1000 98.9000 110.8000 125.6000 128.8000 127.1000 128.4000 129.2000 130.1000 128.0000 127.5000 128.8000 128.7000 131.1000 132.2000 128.7000 124.6000 121.7000 121.8000 124.9000
162.0000 133.4696 126.4956 128.3046 122.4161 118.4424 122.6934 135.7948 141.7627 139.6264 135.0971 131.1700 126.4372 123.7278 123.4402 123.2250 123.1290 122.5025 122.6106 122.4109 122.4530 123.5873 122.7604 141.3107 138.9189 126.0719 127.7965 129.2370 142.1406 141.3325 137.7758 134.9000 133.5000 134.7626 138.0832 138.0432 138.0832 146.1697 146.6530 147.0331 147.4095 149.1902 149.4240 149.5943 151.0639 152.0069 153.1598 153.2088 153.7428 147.1863 148.5558 150.1525 149.7713 150.1131 152.4331 151.4205 150.2413 149.8971 149.7690 148.1300 147.7168 145.9991 143.9315 141.4779 140.2515 139.0302 137.2317 135.2038 138.4327 138.1931 139.3064 141.8325 142.1715 141.9604 144.4789 145.6317 148.8358 149.6086 151.9876 148.6962 149.1943 148.1458 150.9718 151.7335 151.8288 152.5242 148.5708 147.2941 148.9380 146.0603 144.6690 145.0497 143.7465 141.5960 140.2927 139.5531 139.0346 138.6822 144.7273 142.5624 142.4167 140.5311 139.1585 133.4809 131.9909 132.3889 129.5489 131.0386 132.4006 132.1281 134.2123 122.9586 123.1133 120.5204 119.9016 120.9935 120.9209 121.5703 119.9935 123.3986 137.2046 136.6163 136.1792 132.9456 130.8955 125.8628 121.2233 117.8794 115.0683 113.5609 112.0803 111.9304 112.2280 111.6183 111.6624 111.5183 113.5290 113.4300 112.1997 112.2764 108.3352 113.6435 112.1373 114.3000 129.7000 123.8000 121.3000 90.6911 88.1863 95.3638 95.1933 95.8001 94.7998 96.7963 107.9000 106.9624 105.6631 102.9392 107.1000 112.0468 112.0058 113.6095 114.5762 102.5844 91.9332 94.4000 99.9641 97.9815 97.2000 97.6748 91.0983 79.4492 79.6210 81.2848 79.0938 81.5453 80.7365 82.0000 81.1000 82.5000 83.0000 88.3000 105.7000 107.3000 110.2000 111.1000 109.8000 108.6000 109.3000 119.4000 125.3000 128.5000 129.8000 130.6000 130.1000 128.9000 126.4000 127.2000 128.4000 133.3000 133.8000 131.6000 127.9000 124.8000 125.0000 125.7000
160.7000 139.4439 134.4692 131.4178 126.8450 124.2264 130.0928 131.9592 134.6708 135.6032 137.9713 134.8654 129.0122 121.9968 122.6684 122.9918 124.6852 124.3525 123.8240 123.6154 124.7011 125.7818 124.9984 140.5429 139.4525 128.0087 128.1806 129.9932 134.9776 142.2000 143.3318 141.5949 139.0826 148.3000 148.2906 139.8047 143.0000 150.7000 150.7625 151.3931 151.2460 152.2735 153.1462 154.1085 154.8689 155.3978 156.7267 156.1581 150.6254 150.1272 149.8340 149.1917 149.7377 150.0084 153.9719 153.2283 153.0861 151.8062 150.5832 148.8957 148.2824 146.2010 143.2990 142.1516 140.0943 138.5581 137.2850 136.8958 135.6709 140.8000 139.7656 140.0141 141.2283 139.5249 142.5933 146.4663 148.1458 149.9053 151.3949 152.7524 148.6788 149.4373 150.2837 151.5932 151.8386 150.8583 149.1567 148.3405 148.6019 148.4593 149.6429 148.2943 147.2510 143.3306 141.8573 147.8132 147.2532 146.3240 144.5079 141.6846 140.7791 138.8276 132.6708 133.8682 131.2490 130.4576 131.1637 132.4604 134.2058 135.6047 135.4548 124.4630 124.2720 120.9177 121.7572 119.5323 122.0327 122.0796 122.7020 123.1271 126.7752 134.8768 138.0622 136.5407 133.0318 128.7313 123.6736 120.6246 117.9063 116.4285 114.9851 114.9008 115.7433 111.8362 111.5997 114.8595 122.7283 121.6548 114.8902 111.2275 125.7100 109.6000 112.8261 145.4000 138.9000 131.6000 126.4000 113.0000 94.8739 94.1156 92.3036 91.9636 91.9162 91.0618 91.7986 102.9663 100.1103 97.9197 93.9839 97.8000 97.9995 97.0943 100.6000 93.8673 89.8732 90.8720 90.8622 91.8420 89.4000 87.7976 80.2379 78.8620 79.2479 79.0894 79.8227 82.8000 83.2000 81.6000 91.5000 108.2000 102.0000 92.5000 92.1000 89.7000 92.3000 93.5000 94.6000 99.8000 110.3000 111.4000 119.7000 124.9000 128.4000 129.2000 129.7000 127.1000 124.3000 124.9000 127.7000 132.5000 132.1000 133.3000 131.3000 131.7000 131.1000 130.7000
146.5386 147.9676 149.8135 148.1996 127.4964 126.6719 125.5234 128.1340 127.9341 126.6549 136.8976 138.6710 133.6196 121.7614 119.8066 122.2116 127.2807 130.3425 126.0628 124.0468 127.1160 128.6261 129.0878 141.5132 137.2386 130.2487 129.8090 131.1802 134.9000 137.8115 145.6221 146.9383 148.8118 152.8667 152.1342 144.4675 147.0000 153.1000 154.9000 155.6460 154.8688 155.5916 156.5190 156.9258 156.8929 157.9375 158.5247 158.0655 153.8318 152.2096 148.5482 145.0697 151.5163 152.0744 154.8910 154.7786 153.9691 152.7382 149.7579 149.3759 148.2972 147.3158 144.9204 142.3321 139.8816 138.4284 137.3668 136.2475 137.0083 137.0974 138.9731 141.3038 140.9032 138.2470 143.4116 146.1770 147.1167 149.7074 151.2617 153.0471 154.4517 156.7304 157.9785 158.1688 157.2846 150.6179 152.1076 149.6497 150.2429 151.1992 149.8354 149.0808 146.9479 145.9103 149.7095 147.3066 146.4426 145.4805 144.4322 142.0096 141.6099 139.4319 140.8180 133.4809 131.8583 131.5931 134.1397 135.3047 136.5726 135.9746 136.9485 125.7295 125.2680 121.6574 121.0942 120.2795 122.7462 138.6846 131.6775 123.1894 123.7392 125.7784 137.9000 140.3246 136.2002 132.4629 127.8668 124.6553 122.4053 119.6772 118.4810 117.2924 117.0378 119.1634 121.6900 125.5384 129.9666 133.7888 131.7376 131.5286 129.4146 112.0483 115.2857 155.0000 146.5000 140.0000 136.2000 125.3000 103.4000 100.0000 93.1276 91.4214 89.5024 90.7140 88.4236 72.2293 88.2286 94.1831 90.9582 88.9827 87.9912 85.9637 85.0138 85.9414 81.9139 79.6360 77.3676 76.6982 73.6251 71.1730 70.3565 77.1760 79.0664 83.8000 83.3000 83.1000 85.6000 100.0000 105.0000 102.4000 114.2000 117.7000 121.1000 121.8000 121.8000 121.5000 107.3000 106.4000 98.7000 99.5000 105.0000 119.6000 122.7000 124.3000 125.3000 126.0000 124.0000 126.2000 128.2000 130.0000 130.7000 132.1000 133.3000 136.2000 135.5000 131.7000
153.9871 152.2044 151.0074 153.4397 149.9209 148.6437 146.5533 126.9782 126.3212 134.4481 136.4442 143.9402 141.3338 135.3494 129.5752 126.3629 127.9882 135.1454 176.9000 167.1000 132.6564 132.8555 132.6564 164.9000 155.7000 155.3000 130.4126 132.0123 136.5457 141.2000 153.3000 150.2036 147.9488 149.5000 146.9070 144.4275 141.1851 156.5000 158.2000 158.9018 158.1641 160.3289 160.1832 161.5885 161.9235 161.1283 161.8384 162.5283 159.6533 156.0863 152.9977 153.3466 154.3812 154.6363 154.8660 154.0692 153.0577 151.5325 149.2189 146.8769 144.6421 143.1282 142.5797 141.4678 140.7822 138.9126 136.8569 137.2438 138.7393 138.6399 139.2155 139.7026 141.4895 141.1169 142.6355 145.3068 150.0863 151.6867 153.8587 155.1857 157.1152 158.0492 159.1595 158.8762 157.4281 154.0819 152.5206 151.1826 151.6969 151.6189 151.1277 148.7436 146.7592 147.5007 149.2379 148.0535 147.2821 146.1782 145.7642 146.3699 142.3553 142.3970 147.7281 145.9291 142.9563 142.1244 140.5761 138.2880 136.6524 136.3068 135.2291 127.1184 126.9129 122.2484 122.1208 121.1670 123.5772 138.3950 136.3818 133.2906 127.8796 124.7023 127.9348 128.6702 137.9673 137.9725 133.2700 130.8456 126.7476 124.0298 122.2765 121.3162 121.8761 122.5472 125.5653 129.7019 133.4138 137.1202 137.7028 135.1104 121.3815 122.6817 113.6265 114.0642 153.6000 145.3000 144.3000 135.8000 126.7000 105.1000 100.4000 98.1000 89.2186 84.5855 80.1684 66.0469 51.3835 39.7219 84.0253 82.0997 86.2593 86.3229 85.6396 84.2897 82.4971 79.6392 77.9006 75.8970 73.8321 71.7182 84.5000 84.5000 84.4000 86.4000 94.5000 106.3000 114.5000 101.5000 108.6000 117.6000 119.2000 127.1000 129.9000 133.3000 130.8000 125.8000 122.0000 123.9000 122.5000 108.0000 101.9000 105.6000 117.3000 112.5000 115.3000 118.8000 120.5000 120.6000 125.5000 125.9000 130.7000 130.5000 132.3000 131.4000 134.5000 129.9000
162.1000 161.7894 163.2612 162.9075 165.6931 236.1000 268.9000 252.6000 211.0000 136.7058 149.6096 152.7121 153.5688 151.7368 141.2737 133.7431 135.9682 167.5000 176.2000 186.3000 143.3779 136.4876 137.9870 195.3000 188.4000 174.4000 162.3000 157.0000 157.3000 151.5000 153.1000 159.6000 155.9000 153.5000 146.9291 144.1732 145.3797 145.3492 161.7206 161.2100 162.8166 161.8671 164.0631 166.6666 165.3494 164.4066 165.1563 166.9496 165.0659 162.2347 159.0104 157.3936 159.2977 157.0986 155.5852 154.1175 153.4236 151.5508 149.5418 146.5643 144.5247 141.1585 142.0225 141.9029 142.4566 141.0354 140.2196 145.2000 139.4471 140.9621 141.7723 141.0017 141.3825 143.0859 147.3998 145.8850 149.2015 153.8342 156.5948 157.3435 157.7475 158.7711 161.2105 159.8416 157.2265 155.8827 154.0956 153.6525 153.7113 152.6841 150.6479 150.1278 147.7139 148.7881 150.9679 149.2501 148.8999 149.5881 150.7761 147.6367 154.3000 151.5072 149.4866 137.4000 146.2258 143.0929 142.4441 137.5799 135.3269 136.2531 135.8447 129.0757 128.6322 127.7034 123.5300 122.5795 125.6823 139.4280 138.6774 132.7210 129.9762 128.9511 125.7662 123.9962 128.0114 125.2165 129.9375 131.5162 132.4195 128.8313 124.7812 124.5040 126.8257 127.1990 129.6659 131.9054 134.2240 137.0203 138.1055 136.5620 134.7509 115.8721 111.3081 112.7000 150.2000 149.2000 142.8000 138.6000 130.8000 118.1000 101.8000 99.0000 97.2000 93.5000 70.6542 51.8159 39.4772 28.3049 83.3213 90.0000 89.3000 95.6000 92.2000 89.6000 88.8000 89.1000 89.1000 88.0000 86.9000 87.3000 86.0000 88.3000 107.7000 100.3000 100.2000 113.4000 121.4000 103.5000 112.6000 127.2000 130.8000 133.4000 135.4000 134.3000 131.1000 128.3000 129.2000 130.3000 127.3000 119.0000 114.1000 104.1000 116.5000 125.5000 124.5000 124.3000 123.6000 125.1000 124.9000 126.5000 129.3000 132.3000 131.0000 130.7000 133.2000 131.8000
166.0000 188.7000 168.2670 185.1099 177.0873 184.5587 264.3000 287.5000 248.5000 242.1000 190.3000 151.9635 156.3695 167.4605 155.6374 147.7985 146.7251 197.0000 179.5000 161.0737 145.6882 140.7843 141.8205 165.0000 176.0000 193.2000 195.7000 190.3000 175.6000 167.4001 164.1262 166.5000 165.6653 150.3132 151.2627 147.4437 146.0631 148.1559 153.8666 164.2677 166.1000 165.3398 170.0894 171.2503 168.8683 167.7134 167.9623 168.8407 168.0565 164.6882 161.2437 162.9707 160.3225 158.4712 156.5905 155.6196 152.7149 150.7366 148.8379 146.9292 145.8694 145.5901 146.9838 148.1000 144.6705 144.0736 145.2000 150.5000 149.4000 148.2000 141.2454 144.8469 147.1196 147.8584 148.0254 151.4806 150.2388 154.1625 155.8110 157.5470 159.1861 162.7785 162.3364 160.7705 158.3991 157.7965 156.2954 156.2993 154.9200 153.8150 151.7687 151.4751 149.1714 154.1097 154.2225 152.8326 152.5551 153.7342 152.4827 157.7000 160.8000 154.5337 152.2599 147.9795 145.8163 142.9225 142.2534 139.1792 138.2106 135.0380 136.9192 127.4939 130.2058 128.2750 128.0168 127.0580 127.3873 135.9094 132.1022 132.3541 133.7068 132.8158 129.3458 126.1072 120.4293 121.2258 119.7667 120.4883 124.6716 129.3565 128.7085 128.7458 131.6541 132.5410 134.1542 132.7663 135.0723 138.3501 138.6278 137.3610 136.4370 131.9653 115.9839 111.6149 113.3919 147.9000 145.3000 138.5000 131.2000 118.7000 120.3000 102.3000 99.0000 94.9000 93.7000 40.6931 30.7861 19.6680 87.3627 90.5000 113.1000 114.5000 115.3000 112.7000 112.1000 110.8000 105.0000 112.5000 106.4000 102.0000 98.9000 104.7000 113.9000 108.4000 115.8000 121.9000 122.0000 123.8000 127.4000 127.3000 135.2000 136.2000 135.8000 135.5000 136.3000 133.5000 131.8000 131.2000 129.5000 124.6000 116.8000 110.8000 109.8000 124.1000 126.4000 129.3000 128.6000 127.6000 127.5000 127.3000 128.9000 130.5000 131.6000 134.5000 134.8000 133.5000
168.9000 265.6000 311.5000 183.9838 189.7542 186.8346 272.5000 297.4000 252.6000 218.5000 248.8000 249.8000 261.1000 226.1000 157.3825 158.6336 212.9000 212.8000 193.7000 162.3714 148.6664 143.5183 143.7509 189.0000 210.2000 199.5000 209.8000 211.3000 210.7000 192.3809 180.1916 172.1453 167.1908 156.5075 153.7477 151.0837 149.3278 152.8927 156.7970 159.6208 162.1076 172.8096 175.4181 170.0693 169.2773 168.1813 168.6485 172.6453 168.4615 165.7000 166.3826 165.4963 161.6487 159.5697 156.5908 155.8497 154.1075 152.4342 150.8314 148.8193 147.7962 148.9557 147.1765 153.4000 156.1000 151.0000 156.5000 157.9000 157.3000 156.5000 154.6000 155.4000 155.2310 154.1582 155.1568 153.8672 154.9782 153.9342 156.1176 157.3812 160.0036 160.1735 162.4825 161.7832 161.0461 158.4390 157.4876 158.4603 156.3109 155.3130 153.2566 152.1936 152.0337 156.3262 155.7717 154.5208 155.6810 155.8326 158.2000 160.7090 156.4851 154.2276 151.1916 147.9430 146.1951 145.8368 144.8279 140.1440 138.9477 139.8308 132.8963 132.2714 130.1477 129.4204 129.5833 128.1975 138.7274 138.2708 134.5371 135.1976 135.2097 135.4670 132.4456 128.4997 124.7982 121.5878 120.8904 120.7330 120.5203 122.8302 126.4429 134.4188 137.9350 138.7140 138.6647 136.5833 136.6077 139.3002 138.2456 137.7908 136.3034 123.4231 128.4357 111.3028 139.9000 149.0000 156.0000 144.7000 135.7000 132.5000 127.3000 117.5000 102.4000 97.8000 93.8000 94.0000 92.3000 91.6000 91.6000 92.7000 92.2000 118.1000 118.2000 116.5000 116.1000 114.0000 110.0000 115.9000 117.3000 113.2000 99.9000 121.1000 121.1000 115.8000 124.4000 126.2000 126.2000 128.9000 132.4000 136.1000 140.5000 141.6000 141.4000 139.6000 137.0000 135.3000 133.7000 131.4000 130.1000 122.2000 115.3000 110.1000 106.5000 112.5000 120.9000 128.5000 129.9000 128.2000 127.9000 127.9000 128.6000 129.4000 132.0000 135.4000 135.4000 133.2000
235.8000 328.1000 367.6000 254.7000 273.9000 189.4328 191.7095 292.7000 240.0000 278.6000 308.4000 304.3000 303.6000 249.7000 200.1000 193.4000 226.3000 204.9000 200.0000 154.2510 150.3070 146.5559 146.0753 162.6000 181.2000 203.1000 214.0000 196.3775 192.7839 189.9821 194.0376 172.9991 164.1541 158.3116 157.0612 153.9642 170.2000 156.6291 160.1976 162.2352 166.4668 168.4374 179.1044 177.8546 178.9587 177.4405 177.1149 175.7322 169.6975 170.4867 168.7157 166.4577 162.5977 159.5350 157.6543 156.4678 154.7148 152.4577 150.6950 149.1490 148.5237 154.0000 155.8000 158.2000 161.9000 162.1000 165.4000 167.7000 169.0000 168.7000 168.2000 167.5000 168.8000 168.1943 166.7000 165.0081 161.5197 162.6496 159.0855 160.6154 161.9633 163.4745 163.5939 163.5917 162.6745 160.5835 159.5056 159.3743 158.5427 156.2760 155.8214 154.3918 157.9032 158.8693 158.4817 157.6196 158.9670 160.9436 163.1189 160.7865 158.2217 154.6561 150.0325 148.5606 147.2787 147.2414 139.9396 139.0478 141.4299 141.9914 132.1693 133.6946 131.0132 130.4415 130.0208 129.6610 139.6706 140.2286 139.2137 138.3498 138.7890 141.8646 144.3053 146.4332 145.9393 145.0905 143.5470 137.0718 121.9966 124.5376 128.0056 132.3158 136.8901 141.1146 141.5711 139.3261 137.4364 138.1573 138.1534 138.1230 137.9338 129.2302 112.6034 115.3000 145.2000 149.5000 151.4000 151.6000 144.1000 140.9000 137.9000 133.5000 120.8000 105.7000 99.7000 98.1000 94.7000 92.7000 91.2000 91.0000 91.4000 99.2000 116.0000 117.9000 116.3000 115.3000 115.6000 118.6000 121.7000 122.1000 119.1000 112.3000 126.6000 126.3000 129.5000 132.0000 133.0000 135.7000 139.0000 139.8000 142.0000 143.2000 144.7000 143.3000 142.0000 139.1000 136.9000 135.5000 131.2000 127.4000 119.5000 112.9000 110.0000 109.5000 124.0000 126.5000 128.5000 127.5000 126.9000 127.2000 127.5000 128.0000 131.3000 135.3000 135.3000 133.9000
316.6000 401.6000 325.1000 305.0000 357.9000 378.6000 346.7000 294.4000 283.1000 276.0000 306.8000 260.1000 248.6000 230.7000 204.0000 219.3000 228.4000 222.9000 216.0000 158.1971 151.7154 149.0148 148.9911 210.3000 210.3000 199.7000 201.4043 195.4545 192.2738 191.0265 178.7783 176.0647 165.2029 162.2810 161.6631 187.1000 188.4000 180.3000 162.9742 166.4898 168.8080 173.0375 175.4181 182.1972 182.7000 182.4751 180.1784 178.2837 174.0000 172.6746 168.0677 166.4608 165.6105 161.3494 157.8857 158.8000 157.8000 160.2000 159.3000 162.1000 161.9000 160.0000 159.4000 162.4000 166.0000 173.1000 183.5000 188.5000 194.9000 201.5000 189.2181 185.9786 180.7308 178.5550 177.9246 191.5501 177.5672 173.7051 167.2000 175.4000 176.3588 169.8010 165.1026 163.4123 164.0295 163.1293 162.4718 161.1413 158.0602 157.5368 159.5210 161.0719 161.3271 161.6592 162.5104 160.9421 163.0340 164.5356 165.4907 159.6250 158.1907 154.9873 152.4773 151.3277 151.2955 150.2701 148.4195 137.4825 140.1565 135.1925 133.9174 134.1397 131.4952 130.1546 130.7419 143.3702 143.3332 143.2906 142.2744 142.6597 146.0434 148.0778 155.7871 153.9103 149.9396 149.7875 145.9513 140.8598 139.3815 137.7107 131.7101 134.0163 134.0996 133.2927 135.7766 139.6794 139.9767 136.5925 138.0921 136.2289 123.5664 121.6817 117.0000 125.1000 145.3000 153.5000 158.7000 165.1000 155.5000 150.5000 150.0000 143.7000 134.0000 119.6000 116.5000 112.7000 103.1000 94.3000 93.7000 92.3000 92.4000 92.3000 109.8000 115.2000 116.5000 118.2000 119.9000 124.4000 126.6000 127.1000 128.4000 125.5000 132.2000 133.1000 134.8000 139.0000 140.5000 141.4000 143.5000 144.5000 145.3000 146.4000 148.5000 147.4000 146.6000 143.8000 140.6000 135.2000 130.8000 125.6000 119.1000 113.5000 110.7000 108.4000 113.7000 121.8000 125.0000 126.2000 124.9000 125.3000 126.4000 126.3000 129.3000 134.1000 135.6000 135.4000
410.4000 414.8000 339.5000 397.7000 412.5000 407.8000 393.3000 353.8000 381.8000 358.0000 305.4000 291.7000 283.7000 229.0000 257.4000 256.3000 273.4000 259.3000 237.0000 167.3189 155.5569 154.3183 156.5658 173.1000 184.7000 200.8651 199.0058 196.3775 193.0227 191.9000 187.2000 184.5281 179.3132 177.1057 165.9987 181.9000 208.2000 212.3000 207.6000 202.1000 171.5141 177.3000 177.4956 184.9000 186.1831 185.3000 182.7281 180.7085 173.9769 171.9942 168.9261 166.2381 175.9000 174.8000 173.9000 165.4000 167.8000 172.3000 170.8000 174.0000 175.7000 175.6000 173.3000 169.1000 171.6942 178.6540 204.7000 212.7000 213.9000 200.6277 203.4247 195.0271 192.4266 189.7227 184.3536 179.8221 178.4544 172.7937 170.8000 173.4401 173.1958 170.4908 167.8353 164.3018 162.8489 163.3022 160.8602 161.7413 164.7832 163.0994 164.8866 164.2526 164.3485 163.2039 166.1744 165.2148 167.7555 168.7010 167.3354 163.7110 161.6033 160.2663 154.7647 151.7002 150.9644 149.9950 138.1241 137.2312 136.8079 137.2236 135.5615 132.3416 131.9543 132.0960 131.6844 147.0446 148.1000 150.4000 149.4413 149.6499 151.2062 155.0784 157.6837 154.6684 152.4837 149.3817 150.2000 147.9051 155.6000 150.3000 145.3886 134.8420 136.4099 133.0382 132.7902 131.0772 133.9656 136.3616 134.9620 133.5052 121.8645 117.8259 118.7000 135.1000 146.7000 153.1000 161.0000 165.1000 167.3000 161.2000 158.0000 152.0000 141.0000 133.7000 125.9000 115.5000 109.4000 100.2000 97.5000 93.3000 92.5000 92.7000 93.1000 122.8000 122.1000 122.4000 124.3000 126.7000 128.9000 129.8000 131.5000 132.9000 133.8000 134.8000 137.3000 139.4000 141.9000 144.2000 146.7000 148.2000 148.7000 148.2000 149.8000 149.2000 146.5000 143.9000 140.0000 134.5000 130.7000 126.3000 120.0000 115.2000 112.3000 110.8000 109.4000 112.5000 118.3000 122.7000 123.4000 123.2000 124.9000 125.1000 129.2000 134.1000 134.6000 135.5000
437.9000 410.1000 371.7000 400.6000 416.4000 408.8000 406.3000 403.1000 397.4000 388.4000 385.8000 335.1000 249.4000 285.3000 318.6000 328.1000 327.7000 290.0000 229.9000 167.3718 159.7071 160.6999 162.2301 189.8000 201.0323 200.1585 209.2000 217.2000 217.9000 215.7000 188.8833 187.1887 188.2522 180.1287 171.1639 169.1228 174.6933 223.0000 233.7000 224.2000 219.6000 209.5000 182.6702 182.9636 189.0120 187.1393 182.4466 176.3096 176.7814 178.8735 182.9112 184.3062 189.2331 193.2000 196.9000 201.3996 215.1000 199.8000 199.1000 197.8000 192.1000 192.5000 185.1000 183.2000 184.0678 183.3112 192.8467 200.9635 202.5670 199.8491 196.6702 192.4384 186.7947 182.1051 181.2725 179.8819 176.2703 176.6438 175.9692 177.8391 176.6304 174.8366 172.0921 168.1678 165.8994 164.4615 168.7965 169.5461 168.6537 168.2865 168.6107 169.5555 166.0522 174.0000 174.5000 168.4969 174.8428 174.4404 174.2025 172.5407 164.5303 174.4000 174.0000 143.1858 141.6026 140.2419 139.0862 138.0441 137.5632 137.4005 137.1499 135.3938 137.4975 139.8975 141.3893 149.6421 157.2649 158.3000 157.5042 156.6196 157.4475 160.8428 159.8442 158.2367 154.7209 154.4000 158.5813 160.4067 158.0044 153.3952 152.9877 145.5056 139.1298 134.1460 132.2262 130.5631 128.6565 130.0945 133.4241 132.7711 121.1473 124.1247 118.9000 133.0000 146.0000 151.1000 157.0000 164.6000 169.9000 164.8000 157.4000 150.8000 143.9000 134.9000 122.4000 113.5000 109.1000 105.2000 114.4000 100.2000 93.7000 94.4000 93.1000 93.5000 117.5000 124.1000 125.8000 127.1000 128.3000 127.8000 130.1000 129.8000 132.5000 132.2000 135.1000 137.7000 139.6000 142.0000 144.0000 147.4000 150.0000 151.0000 150.2000 149.6000 147.6000 144.4000 139.1000 131.8000 127.9000 124.2000 122.0000 115.9000 114.0000 112.2000 111.3000 110.4000 112.9000 118.8000 120.9000 121.9000 123.9000 123.9000 126.8000 132.0000 134.2000 134.0000
442.6000 378.4000 424.5000 430.3000 423.6000 417.8000 412.1000 409.5000 405.8000 393.6000 371.3000 339.7000 337.7000 329.1000 367.7000 343.2000 324.1000 299.5000 237.5000 180.5190 172.5000 164.0986 186.5000 203.7000 235.6000 224.0000 219.0000 215.6006 222.4000 219.3000 217.4000 217.4000 186.3221 190.5854 175.6825 175.8517 179.1053 182.4044 195.2000 202.7000 212.4000 216.6000 190.5942 187.3551 186.4424 186.5745 183.3701 183.0884 184.6000 185.6000 186.4375 185.4835 188.9667 196.1334 201.0000 201.2410 202.4178 207.7000 211.4000 214.6000 217.7000 224.0000 228.8000 206.9529 197.1980 198.6000 202.7844 207.8714 207.4769 205.2010 200.8640 196.3425 192.6011 185.7518 185.5296 183.7139 181.2784 181.9678 181.1514 181.3335 181.0446 177.3531 171.8819 170.2851 172.5492 172.2741 169.7259 170.9211 175.9000 170.5598 168.8176 178.1000 179.8000 181.2000 182.8000 184.5000 186.4000 174.4952 168.0950 161.2715 153.3036 146.5945 144.3392 143.1272 142.0910 140.9502 139.5898 138.4230 137.2266 136.8456 137.4896 139.2841 142.0139 150.7233 156.5000 161.3000 166.1000 159.5189 164.9343 165.3281 165.0729 167.1959 164.8860 162.8087 161.2128 161.7574 162.1025 166.1915 166.0429 159.3080 160.7784 152.6017 143.7759 140.2715 139.2959 131.9461 131.1640 129.5838 131.4973 128.4374 122.2939 119.5300 119.9000 131.6000 149.7000 151.3000 154.5000 160.5000 163.8000 165.7000 153.6000 145.7000 140.5000 137.8000 129.2000 117.3000 108.0000 114.8000 107.1000 98.6000 95.4000 93.3000 93.3000 94.3000 93.8000 97.2000 124.7000 126.0000 126.5000 120.5000 121.5000 128.6000 129.6000 129.1000 133.3000 134.2000 139.0000 142.2000 146.8000 150.1000 151.2000 152.4000 151.7000 150.4000 147.3000 145.1000 143.1000 136.1000 129.9000 126.2000 120.0000 116.9000 114.5000 113.6000 111.9000 113.0000 112.3000 112.3000 113.9000 117.9000 122.5000 122.6000 126.8000 129.5000 132.5000 133.4000
447.2000 404.4000 449.5000 443.3000 442.2000 434.6000 426.1000 408.2000 394.5000 385.1000 380.2000 382.6000 384.8000 382.5000 305.7000 275.4000 244.7000 211.4000 198.2000 198.0000 214.0000 240.7000 202.7000 240.8000 269.7000 251.1000 243.0000 240.0000 227.6000 212.3174 205.4000 198.0000 190.4422 182.6524 180.2355 181.1541 182.6044 181.6836 188.7000 196.2000 196.0148 194.7975 196.7679 195.4146 194.5313 199.5225 199.3137 198.6975 196.9000 198.4000 201.1000 204.4000 206.2000 208.6000 206.5491 206.2183 206.3139 206.6988 207.4000 208.4000 211.7000 215.0000 219.1000 212.6584 208.4000 206.9000 212.3934 216.0000 215.6098 211.7439 209.9741 208.3154 202.0303 197.1616 193.6593 191.3260 189.2958 186.4794 185.1807 184.2204 181.7419 177.6300 177.8190 183.3000 185.5000 185.2000 186.3000 185.9000 186.5000 186.8000 187.2000 188.7000 190.7000 192.9000 192.3000 171.3418 165.3244 159.1102 151.2000 148.4614 147.1465 142.3308 145.4793 144.0620 140.2599 140.7432 139.3033 140.7606 137.5639 136.5385 140.5923 136.6730 143.0254 142.8522 147.4199 153.6000 159.5000 163.6000 166.2000 165.1118 167.5447 172.5818 170.3069 168.5548 169.2251 166.7081 166.9366 166.0032 165.9341 161.4785 157.5318 151.8984 146.5545 144.3775 141.1712 134.6592 133.9673 130.2377 129.7193 125.5370 118.4323 121.0000 120.7000 149.9000 152.8000 153.6000 154.8000 156.8000 158.1000 151.2000 141.0000 136.7000 134.1000 136.8000 127.2000 127.8000 114.4000 115.0000 105.0000 103.9000 98.3000 94.4000 94.0000 94.4000 94.6000 94.9000 95.1000 107.7000 118.5000 110.2000 119.2000 126.2000 124.5000 125.3000 132.4000 136.7000 142.6000 146.6000 149.7000 151.2000 151.4000 150.7000 150.6000 151.1000 149.2000 145.9000 143.8000 139.8000 134.0000 129.4000 122.4000 117.8000 116.3000 114.5000 113.7000 114.4000 113.8000 112.5000 111.9000 116.1000 120.6000 121.8000 125.9000 130.2000 130.6000 131.1000
445.5000 437.3000 423.9000 448.6000 446.4000 441.8000 432.3000 410.6000 401.4000 402.6000 395.8000 396.6000 393.4000 387.2000 326.0000 265.9000 252.2000 247.3000 262.3000 270.1000 296.3000 227.5000 235.8000 257.5000 277.7000 261.9000 271.0000 266.5000 250.6000 237.3000 219.4000 196.5937 189.9736 184.7593 181.6111 180.2988 181.4105 183.8708 182.5800 206.6063 204.7000 201.8221 200.5671 199.2978 194.0243 203.0636 207.2434 226.2000 206.7760 232.1000 235.0000 234.5000 234.0000 227.1000 217.2708 216.3575 210.9000 212.3586 221.8000 221.2000 226.0000 232.7000 237.4000 236.1000 229.3000 227.3000 217.9862 225.5365 218.2753 211.6942 205.5671 203.1020 207.3254 208.4191 205.0063 199.1013 194.3866 191.4312 188.4480 185.5562 182.4115 180.9000 187.0400 191.3059 187.8503 185.0076 182.6195 180.7020 179.3743 178.4397 177.5573 176.1640 173.6469 172.1411 177.3739 171.1291 165.5224 159.3218 149.6176 147.9341 142.5604 144.0126 140.6146 136.7792 135.2677 140.6566 139.2690 145.1834 141.2438 140.1686 139.9423 146.9356 149.5422 149.5294 149.8783 149.7111 156.6000 160.3000 162.7000 166.5000 169.1000 171.9000 175.9491 178.7526 177.6528 174.5672 171.8008 170.3950 166.1433 162.2839 156.1998 150.9297 148.6844 148.1987 147.5871 139.0751 137.7350 136.6503 132.7966 133.4668 117.0656 120.2404 123.5000 148.5000 151.7000 152.8000 154.0000 155.1000 156.6000 158.2000 162.7000 155.7000 150.6000 139.4000 134.7000 132.6000 131.4000 119.4000 117.2000 106.8000 110.0000 105.9000 99.5000 96.1000 96.0000 95.4000 94.9000 97.0000 103.0000 104.6000 112.7000 112.4000 114.2000 125.0000 132.0000 139.3000 143.6000 147.3000 148.6000 148.8000 148.8000 149.0000 149.0000 149.2000 149.1000 147.9000 145.5000 142.9000 136.1000 132.4000 126.2000 120.3000 119.9000 116.3000 114.9000 114.9000 114.3000 113.1000 112.2000 114.0000 117.8000 119.4000 124.9000 128.2000 129.1000 129.1000
456.0000 440.0000 433.1000 451.2000 453.9000 445.0000 433.6000 419.6000 412.7000 413.7000 406.4000 396.6000 395.3000 397.9000 327.2000 265.2000 320.9000 322.3000 315.9000 305.1000 282.3000 269.8000 333.2000 343.0000 320.8000 304.0000 281.8000 276.8000 271.6000 266.5000 250.1000 200.6520 190.4005 184.9385 181.6144 180.0042 180.0304 181.3659 192.4893 204.1505 204.7534 203.8947 207.3579 200.7631 202.5687 200.9295 214.6417 218.7610 238.2000 246.6000 255.1000 265.0000 264.3000 255.1000 245.5000 229.2000 219.3970 216.7000 239.6000 230.9700 243.0000 245.7000 231.0060 228.3778 224.5385 219.8453 216.4265 214.6034 211.3282 208.7307 204.9012 203.0695 201.3353 199.4384 198.1449 193.7384 190.5098 187.6998 185.8492 184.2166 184.7000 187.4710 195.2604 190.8586 187.7986 184.8937 182.3305 180.6344 179.1412 178.3475 177.8305 176.4939 174.1677 170.2792 166.7435 164.2012 159.4324 151.3032 147.8438 145.0106 141.1472 143.5699 136.9134 145.1959 145.6148 141.3964 147.3206 146.3623 144.3250 144.0158 149.2738 149.4491 148.9676 150.3755 151.3324 154.4092 155.0358 158.3000 160.0000 162.1000 166.2000 171.7000 176.4000 178.0382 179.7981 178.9335 175.2050 173.2185 169.3977 164.0010 157.0669 154.6349 153.7030 152.7700 152.5708 144.1485 144.6930 136.3772 137.4715 121.0835 122.5000 130.7000 139.5000 145.1000 150.0000 150.8000 153.5000 155.8000 159.6000 164.2000 167.0000 164.1000 154.6000 146.1000 137.1000 144.0000 141.3000 132.4000 122.8000 123.4000 121.9000 112.0000 104.1000 100.4000 97.0000 95.0000 96.1000 96.8000 98.0000 100.6000 104.6000 108.7000 123.5000 126.4000 133.7000 138.0000 143.6000 145.0000 144.7000 145.2000 145.7000 146.3000 146.2000 146.6000 147.5000 147.6000 147.0000 145.9000 141.3000 136.1000 131.0000 125.0000 121.3000 120.0000 117.5000 116.2000 114.6000 113.3000 112.9000 114.0000 115.8000 118.6000 124.6000 127.6000 128.5000 128.0000
436.6000 442.5000 459.4000 459.6000 455.6000 447.7000 437.2000 429.1000 421.8000 419.6000 415.9000 402.7000 389.7000 330.0000 362.3000 362.1000 369.1000 380.9000 353.5000 359.8000 346.9000 337.1000 305.1000 364.3000 352.7000 336.2000 316.4000 287.6000 257.8000 255.8000 231.6000 226.1000 191.9970 184.8741 182.5432 180.7171 180.7090 187.7021 196.9882 211.8000 216.9000 217.1000 220.2000 222.0000 202.3569 203.5725 209.4618 212.5044 277.1000 277.8000 291.0000 291.1000 295.8000 286.6000 264.7000 243.7000 226.0000 240.1000 231.0000 227.1699 227.0795 232.0000 230.5506 225.4259 222.1936 219.0552 216.7686 215.1634 212.2445 210.0590 208.0370 205.6312 202.7636 200.1354 194.9876 192.9791 189.4823 186.9745 185.0350 185.5381 187.4463 187.9856 185.7499 183.7467 180.8775 179.1621 177.1794 175.8103 172.8452 169.9344 170.9511 169.7532 165.9771 163.8099 162.1722 152.9451 151.1045 147.4115 144.8979 146.0865 141.2061 135.8271 145.2783 142.7509 144.8778 151.8976 151.9779 152.1452 151.4589 152.2005 155.0133 153.1688 151.3714 152.1453 156.3155 156.4660 159.4669 160.5863 160.9000 162.0782 163.6068 168.6000 173.7000 177.8000 179.0121 178.3046 178.6961 176.5268 169.9658 163.0478 163.3000 163.4000 161.5525 159.7430 157.8569 147.4663 149.1875 135.8566 121.1187 124.3000 128.3000 140.3000 142.2000 135.1000 147.3000 150.0000 153.9000 157.6000 161.5000 165.3000 169.3000 171.0000 160.7000 146.7000 148.8000 148.5000 146.2000 141.2000 133.6000 126.8000 119.8000 107.3000 106.3000 101.6000 100.1000 97.7000 97.5000 97.2000 98.1000 98.5000 100.5000 102.4000 106.9000 117.3000 124.1000 136.8000 141.5000 141.3000 140.5000 142.7000 143.8000 143.7000 143.9000 144.3000 146.1000 146.8000 147.1000 146.7000 144.7000 138.5000 132.9000 129.6000 126.9000 123.7000 120.4000 117.3000 114.7000 114.0000 113.5000 114.2000 115.5000 118.8000 123.6000 127.4000 127.9000 127.2000
441.1000 456.6000 464.6000 463.6000 460.1000 451.9000 441.4000 431.9000 422.7000 408.7000 406.0000 399.5000 355.0000 398.0000 417.9000 404.0000 363.4000 391.8000 378.6000 383.2000 374.6000 352.1000 362.1000 362.2000 367.7000 357.2000 336.0000 315.4000 282.1000 268.7000 227.5000 266.5000 293.4000 266.3000 259.5000 184.0173 192.0998 197.4473 198.6643 233.3000 253.0000 248.2000 243.9000 247.8000 235.5000 208.8146 211.9737 262.6000 308.3000 316.5000 296.2000 283.1000 273.7000 248.3000 246.0000 264.8000 240.9000 275.8000 267.9000 233.3158 234.4000 238.4000 232.3000 227.6033 220.7323 219.2588 219.0749 215.9097 215.1089 211.9024 207.9135 205.4222 202.4896 197.9045 195.3885 193.2184 189.7904 188.9457 185.5057 185.9376 188.6572 186.2370 183.9982 181.7051 179.8586 176.9507 172.8699 171.0458 167.8172 165.2618 164.9836 165.4138 164.9214 163.6275 154.3517 149.2366 148.5142 148.5959 145.4068 141.1059 136.3428 145.4514 136.4715 144.2015 157.3792 156.7324 155.2744 155.0829 156.8278 157.3227 156.9079 155.9114 155.1467 158.7353 159.8620 160.8705 164.0476 165.1789 165.0575 165.1997 166.1871 165.5538 173.2000 177.2000 179.5000 181.5000 177.3384 176.4329 175.7184 175.6890 175.4876 173.6885 171.0666 168.4597 165.9768 163.5784 147.1979 136.9830 123.1849 122.4237 137.2000 145.3000 147.7000 148.0000 148.7000 150.3000 152.6000 156.7000 161.9000 166.3000 172.4000 178.0000 172.5000 162.3000 157.5000 152.7000 149.2000 137.5000 133.9000 132.6000 125.2000 121.3000 113.1000 102.7000 114.6000 114.4000 97.6000 97.2000 98.3000 98.3000 99.5000 100.2000 115.9000 125.3000 115.7000 126.7000 138.2000 138.8000 138.1000 140.3000 139.1000 142.5000 144.9000 146.6000 146.6000 146.5000 146.0000 145.5000 144.5000 141.7000 141.0000 137.8000 132.8000 128.6000 129.0000 123.3000 118.7000 116.1000 115.1000 114.7000 116.1000 118.5000 120.4000 123.5000 124.4000 126.5000
445.4000 458.3000 469.3000 470.5000 464.1000 456.7000 451.3000 443.1000 428.3000 424.7000 398.0000 367.4000 403.0000 410.8000 417.7000 406.1000 383.5000 396.6000 394.7000 388.0000 378.7000 377.2000 380.4000 375.4000 367.6000 352.5000 316.4000 323.7000 301.9000 239.0000 245.6000 265.0000 278.4000 296.2000 288.6000 273.1000 246.9000 216.6000 266.0000 278.0000 256.3000 308.5000 297.9000 296.9000 293.7000 284.7000 258.2000 250.7000 291.2000 273.3000 308.4000 298.9000 267.1000 292.6000 312.8000 277.4000 268.9000 287.1000 277.4000 243.4000 269.7000 237.5182 235.5883 242.5486 222.3425 226.7910 220.3052 216.6978 214.3070 210.9477 208.8548 206.1954 202.1901 198.7879 195.9200 196.1642 193.8009 191.6029 187.3299 190.8932 189.8014 187.4905 184.2090 178.0794 175.1265 174.2856 169.0860 166.5499 162.9436 160.9360 158.7750 159.5123 160.9366 160.2445 155.0848 151.7608 151.0507 144.3983 143.3817 150.1517 148.5835 143.7382 163.4328 157.3262 160.3662 161.3760 159.5829 157.3966 161.2312 162.3800 160.8382 156.5674 162.2756 164.6891 165.4356 170.9000 175.7000 174.2254 172.3020 168.3737 166.8676 169.5000 173.7000 175.5000 179.8000 180.9000 176.2551 176.7316 176.7885 177.8880 179.3125 180.9000 180.3000 177.7553 175.9742 168.5117 144.7072 138.9284 122.9675 123.1884 153.5000 158.2000 157.1000 156.4000 155.3000 153.7000 154.5000 155.4000 159.9000 165.1000 172.7000 175.0000 175.9000 166.5000 158.8000 152.0000 147.7000 144.0000 135.0000 136.3000 134.1000 124.0000 114.0000 105.2000 126.2000 128.7000 120.9000 101.8000 100.3000 97.2000 99.2000 99.7000 99.7000 120.6000 125.7000 120.2000 132.4000 132.5000 133.0000 138.6000 140.9000 145.3000 149.3000 150.9000 150.2000 148.9000 147.4000 146.1000 145.3000 145.6000 145.8000 143.5000 138.5000 134.5000 134.9000 130.6000 124.4000 119.9000 117.5000 116.3000 116.8000 117.6000 120.1000 123.3000 127.0000 127.8000
449.0000 465.2000 471.8000 472.3000 470.4000 466.7000 457.2000 452.5000 447.4000 437.4000 432.3000 384.9000 393.0000 425.0000 415.5000 412.3000 407.5000 404.4000 406.4000 403.7000 385.9000 375.9000 378.3000 375.1000 345.7000 309.7000 306.5000 259.0000 253.2000 274.3000 301.0000 303.5000 330.0000 317.1000 276.3000 236.9000 234.2000 272.3000 277.2000 304.3000 300.7000 293.7000 300.0000 300.5000 274.2000 240.2000 237.2000 262.3000 252.0000 305.8000 317.9000 295.6000 268.0000 269.9000 301.8000 307.2000 296.0000 291.3000 256.9000 277.7000 290.3000 290.2000 273.0000 240.9762 237.8424 236.8156 232.1916 233.8000 226.7996 221.9886 209.7223 209.4852 204.4208 201.5908 201.2096 198.4172 194.8218 201.6274 195.7122 191.7372 189.5628 183.2355 177.5773 173.4970 171.4753 169.1877 167.9250 166.9236 164.7790 164.7936 163.9611 163.1992 160.7727 156.2186 154.1532 153.9615 153.6636 148.9199 142.2113 151.4549 149.7300 167.8440 169.3011 165.7414 162.1621 165.6796 167.3474 168.2009 167.9953 167.0968 165.3181 162.3233 168.8253 176.7013 183.3477 188.7961 184.0200 179.2232 174.4641 171.1532 170.4157 170.0000 173.3872 176.4420 177.1581 180.7000 175.5184 175.6007 173.5871 175.1163 178.1863 176.8509 175.2905 174.2602 177.1068 173.7320 143.3001 141.9067 123.4127 123.5979 147.1000 157.0000 164.0000 165.2000 161.2000 158.7000 159.0000 160.6000 161.5000 163.5000 170.3000 174.1000 177.2000 168.0000 160.8000 152.5000 142.7000 141.1000 128.3000 121.0000 119.0000 117.2000 109.1000 110.9000 127.4000 130.7000 121.9000 124.1000 110.3000 103.1000 99.6000 100.0000 100.9000 101.3000 120.1000 130.0000 127.5000 130.6000 136.1000 142.7000 149.1000 159.9000 160.4000 158.5000 155.0000 152.6000 149.7000 147.5000 146.5000 146.0000 145.6000 145.5000 141.9000 143.0000 139.9000 135.8000 131.9000 126.2000 121.3000 117.8000 117.1000 116.8000 119.9000 125.1000 128.3000 131.6000
451.5000 465.8000 474.2000 476.7000 471.8000 468.5000 461.7000 457.4000 444.9000 433.7000 413.7000 394.6000 390.0000 392.1000 427.9000 427.3000 411.3000 406.1000 403.4000 402.9000 402.7000 385.6000 371.3000 359.6000 354.3000 367.2000 296.3000 346.3000 343.6000 346.1000 350.0000 349.5000 326.7000 266.1000 281.9000 268.1000 326.8000 335.6000 323.2000 317.0000 321.3000 312.6000 299.1000 257.0000 267.2000 266.6000 315.7000 309.0000 266.7000 311.2000 308.9000 305.1000 271.0000 285.1000 307.8000 310.0000 303.9000 289.1000 255.9000 301.0000 299.3000 290.5000 289.1000 284.5000 246.7268 240.5192 238.4567 234.3416 234.1295 225.9369 222.9054 214.1743 209.8134 206.8429 202.0907 209.0000 208.7108 203.4760 198.4867 191.5234 187.4214 181.2859 178.6218 175.7186 175.4825 172.4472 171.3103 171.2059 170.6977 172.7729 172.9426 170.9760 168.6813 157.4086 153.6364 153.7322 153.2086 150.5331 154.6631 149.9300 168.3218 172.3898 180.8738 188.7000 183.0309 183.0223 185.5437 189.4644 183.9195 171.3060 168.2517 176.6000 183.3764 187.1867 188.7926 184.0871 179.6400 178.0863 175.8032 177.4666 174.1372 180.2000 179.0992 177.0831 177.1562 177.0331 174.1240 174.2228 168.1584 170.5155 172.3321 172.3159 168.7909 165.4572 163.8462 164.1351 145.0295 139.8859 124.4133 124.2782 150.6000 153.9000 156.9000 160.4000 167.3000 165.0000 166.0000 165.8000 166.0000 167.1000 170.6000 172.6000 174.9000 168.9000 163.4000 158.8000 152.6000 141.1000 141.1000 139.1000 131.8000 118.7000 109.6000 120.4000 135.6000 134.8000 126.5000 120.4000 119.4000 117.4000 102.5000 101.1000 101.0000 101.3000 107.0000 130.1000 135.1000 134.2000 136.2000 143.5000 153.4000 160.7000 159.4000 160.1000 161.6000 160.7000 155.9000 151.4000 149.2000 147.3000 146.6000 146.0000 145.3000 144.8000 143.3000 140.3000 135.9000 127.9000 121.2000 118.8000 115.9000 115.9000 116.9000 122.0000 127.0000 126.9000
463.5000 458.3000 467.6000 473.2000 472.4000 470.4000 465.1000 461.6000 445.9000 429.8000 431.1000 437.6000 425.3000 423.5000 413.6000 422.5000 418.8000 409.8000 391.8000 385.6000 390.8000 404.2000 392.5000 390.5000 382.6000 379.5000 293.9000 378.1000 377.0000 350.3000 294.1000 287.2000 274.5000 308.9000 313.6000 293.4000 308.4000 333.0000 333.8000 325.1000 295.7000 283.0000 263.5000 301.8000 318.0000 319.7000 327.7000 322.6000 287.1000 321.8000 315.7000 291.3000 269.0000 247.0000 311.1000 309.6000 277.7000 288.3000 304.2000 304.1000 307.2000 299.6000 293.2000 267.6000 255.2000 255.6000 247.2000 242.3633 238.4017 232.1252 226.7658 212.9245 214.0967 210.4807 213.4906 214.7540 210.9511 205.5137 204.7000 206.0623 200.8381 196.0000 189.3683 186.4131 182.3610 178.6260 175.6445 175.5541 179.5000 182.8000 182.0169 182.3938 168.1909 153.7905 154.2128 155.4715 155.2242 156.7026 158.7657 169.9527 175.7896 188.8000 193.3735 200.1742 201.9041 198.9569 192.7660 189.4987 183.3409 173.6241 167.9973 197.4194 195.3097 189.4845 187.1284 191.9352 190.7086 187.3152 183.3952 197.3000 203.1000 184.8975 184.5416 185.8609 180.5587 176.7384 173.5540 170.5038 167.7221 164.8436 169.8724 168.8776 166.7749 161.3739 157.5883 150.5801 148.2354 138.3671 125.0086 126.4487 166.2000 169.1000 168.1000 165.9000 167.4000 170.3000 174.7000 175.9000 172.7000 170.9000 171.3000 173.2000 170.3000 166.3000 161.4000 157.0000 153.6000 144.0000 130.5000 115.2000 114.5000 110.9000 111.4000 140.4000 143.5000 141.7000 139.7000 138.9000 133.7000 130.9000 125.1000 102.0000 100.4000 102.2000 103.2000 113.1000 129.7000 124.6000 133.9000 140.9000 152.8000 156.6000 155.8000 156.2000 158.3000 159.3000 161.7000 158.6000 151.8000 149.4000 147.5000 146.6000 148.4000 146.8000 146.2000 141.6000 135.5000 130.3000 123.8000 117.9000 114.2000 113.6000 113.7000 114.4000 123.7000 126.3000
467.1000 465.0000 472.9000 476.4000 475.6000 470.4000 463.0000 455.0000 452.2000 445.1000 446.6000 455.7000 446.9000 423.7000 409.8000 417.3000 413.8000 415.9000 396.1000 389.1000 371.7000 373.6000 341.2000 327.9000 344.9000 325.6000 352.5000 351.5000 325.6000 358.5000 363.4000 344.9000 345.9000 333.4000 345.0000 341.4000 330.3000 344.6000 341.3000 339.1000 279.8000 343.7000 331.2000 340.1000 344.0000 344.4000 339.7000 306.5000 328.3000 329.4000 307.1000 303.3000 293.1000 308.6000 302.1000 281.1000 271.4000 309.3000 317.0000 316.5000 309.6000 298.1000 285.4000 257.6000 289.2000 264.1000 268.7000 254.5587 242.4442 243.3102 232.1000 228.8418 225.1203 220.7140 217.5231 220.1431 219.0840 214.1122 230.0000 204.2815 203.6485 200.8247 203.4715 192.1265 184.3629 184.4309 181.5564 183.2485 184.8559 194.5000 190.5904 184.1291 158.9009 155.8241 154.4823 156.2389 157.9050 164.4411 175.0751 178.8690 178.8864 186.6671 193.2730 194.2580 200.5695 199.8439 192.5990 181.9295 182.4824 176.3581 190.3000 200.8726 197.5572 196.5911 199.6238 204.6417 202.4277 195.9000 204.0000 210.4000 208.1000 201.2027 195.3520 189.6133 182.2136 178.0122 175.8660 173.4688 170.2133 165.4879 160.7897 160.2193 159.8258 158.0783 153.2334 147.5000 143.5035 138.3686 129.9242 128.5732 167.3000 183.9000 183.9000 181.5000 176.6000 176.0000 176.7000 175.1000 175.3000 171.8000 168.7000 165.7000 162.1000 153.2000 153.0000 152.7000 148.2000 142.2000 125.5000 144.3000 134.9000 126.8000 142.9000 129.5000 146.4000 148.6000 146.0000 143.7000 134.9000 119.8000 110.7000 104.1000 102.1000 103.6000 103.2000 106.5000 122.0000 133.7000 137.4000 142.2000 149.7000 154.8000 153.7000 152.8000 154.3000 156.7000 158.9000 161.3000 156.9000 152.0000 149.2000 147.7000 149.9000 149.5000 148.6000 143.9000 138.9000 132.7000 127.8000 121.7000 117.2000 112.6000 109.1000 103.7000 104.6000 126.1000
470.5000 468.6000 482.9000 495.8000 482.3000 473.5000 464.1000 462.4000 458.1000 452.7000 455.7000 452.4000 443.6000 425.0000 430.7000 426.6000 420.0000 411.1000 392.8000 385.7000 384.3000 382.2000 353.1000 383.8000 339.3000 353.6000 361.8000 359.9000 382.7000 373.0000 374.0000 368.5000 367.6000 372.7000 370.2000 362.7000 330.9000 347.5000 349.4000 341.1000 298.7000 355.1000 350.8000 344.3000 347.5000 345.5000 339.7000 342.4000 336.7000 320.8000 327.7000 311.5000 321.3000 305.5000 288.5000 312.9000 320.0000 302.5000 322.2000 319.9000 282.7000 273.3000 286.4000 297.4000 285.0000 262.9000 281.5000 285.6000 245.8736 243.8252 238.2000 244.8000 243.4377 234.1330 224.9424 224.1303 223.4000 230.2000 245.0000 237.4000 235.1000 210.8992 203.5766 191.4914 192.7464 192.0300 191.5014 192.0291 189.9690 191.8890 195.1724 179.1489 160.5084 156.7664 156.4466 154.4854 164.2467 181.6000 176.0640 182.3175 196.4395 197.0827 200.3637 197.1161 198.2238 213.7000 211.1000 186.0500 188.3494 181.0530 176.1358 182.2705 198.3155 198.1549 202.7540 204.1996 202.4669 212.2000 214.3000 213.4000 209.1000 207.4592 200.7968 198.5000 199.3704 194.6099 188.8093 180.6092 177.7021 173.3527 166.6370 159.8467 157.6192 155.8284 156.7158 155.4331 141.5693 140.4475 130.7868 129.6177 160.9000 169.1000 175.2000 182.4000 181.9000 179.5000 177.0000 175.8000 172.7000 169.0000 164.5000 160.6000 152.8000 148.8000 144.3000 141.7000 144.5000 134.4000 123.7000 153.5000 154.0000 151.1000 151.3000 148.3000 140.5000 149.3000 149.8000 138.8000 142.4000 138.0000 125.6000 117.1000 105.1000 103.0000 103.9000 103.7000 109.1000 121.6000 137.0000 140.9000 151.5000 156.2000 154.1000 151.7000 149.8000 153.3000 157.4000 158.9000 157.9000 152.6000 149.8000 147.7000 149.7000 152.2000 150.4000 146.9000 141.9000 135.9000 131.5000 126.0000 120.6000 117.7000 105.6000 102.8000 101.1000 115.4000
478.4000 474.3000 476.1000 481.4000 482.2000 479.8000 478.4000 474.0000 468.2000 467.4000 461.9000 455.6000 437.3000 425.1000 437.2000 438.1000 422.4000 409.2000 393.4000 392.6000 404.4000 381.0000 404.9000 386.7000 388.5000 392.2000 378.5000 364.3000 357.9000 397.9000 396.3000 387.0000 383.6000 386.3000 383.1000 364.5000 351.8000 347.8000 345.0000 346.8000 312.2000 340.8000 361.6000 356.4000 357.5000 353.1000 347.0000 348.7000 337.3000 336.3000 340.2000 322.6000 314.5000 285.9000 320.6000 331.8000 330.7000 325.0000 323.7000 283.1000 323.4000 328.8000 321.0000 308.5000 274.9000 287.8000 300.6000 300.9000 279.3000 241.8003 263.2000 276.9000 278.9000 245.5312 228.6235 231.2882 226.9533 231.1000 248.3000 244.4000 213.5008 215.0232 205.3717 198.9009 200.6000 200.2778 201.3694 194.8641 191.4596 188.1226 187.1634 174.5691 159.5508 158.5477 155.9216 163.1233 179.6000 187.0000 199.7000 214.4000 240.1000 197.9620 222.0000 223.1000 228.8000 227.9000 224.8000 196.0101 191.4386 187.2466 181.8834 177.5143 188.9681 197.0482 201.9674 202.7610 217.6000 219.9000 219.6000 215.5000 215.4000 214.6468 211.2376 207.7000 213.3182 205.2830 201.7267 193.5819 187.2506 177.2912 171.6591 165.1682 159.2613 153.8695 153.3711 153.7131 144.2051 138.3517 128.1421 130.6284 161.5000 164.0000 164.7000 166.3000 170.0000 177.2000 178.5000 175.9000 171.5000 167.3000 164.8000 162.3000 159.6000 154.8000 145.8000 143.3000 140.1000 131.6000 127.1000 128.4000 129.6000 151.6000 154.1000 155.2000 153.9000 153.6000 152.5000 146.0000 151.1000 146.9000 141.5000 119.2000 110.0000 103.8000 104.2000 104.9000 105.5000 119.9000 116.9000 123.8000 143.6000 148.4000 142.6000 155.6000 159.7000 159.0000 156.6000 156.3000 157.5000 151.8000 149.6000 148.1000 147.6000 150.4000 149.7000 148.2000 143.2000 138.2000 132.5000 128.3000 122.8000 114.6000 117.3000 112.9000 106.2000 98.9000
482.4000 479.9000 483.1000 491.0000 500.5000 502.4000 497.4000 484.3000 478.3000 476.1000 461.2000 455.7000 446.2000 432.2000 454.4000 442.0000 425.3000 408.3000 411.9000 407.5000 402.3000 391.2000 416.2000 406.1000 403.0000 393.4000 378.0000 359.5000 378.9000 381.6000 392.4000 398.7000 395.2000 392.0000 384.0000 373.4000 359.5000 339.2000 335.6000 320.5000 339.2000 310.6000 335.6000 365.4000 366.2000 360.7000 353.7000 351.3000 339.7000 342.2000 336.0000 309.3000 315.9000 313.5000 339.1000 335.2000 331.9000 329.0000 300.3000 325.3000 324.8000 330.6000 315.0000 285.7000 310.8000 317.2000 316.1000 307.8000 255.5000 248.9000 296.4000 290.3000 287.1000 278.1000 244.0000 250.4000 243.4000 241.0000 243.1000 243.8000 237.1000 214.5802 211.0000 208.8128 202.5043 201.2243 203.6972 198.7921 194.5566 187.7932 175.9275 165.5910 163.0233 162.3661 164.2956 168.6379 189.2000 196.0000 204.8000 228.8000 243.5000 249.3000 246.0000 249.1000 250.3000 246.8000 245.4000 215.4309 208.2422 194.6656 190.2161 187.7557 222.3000 226.1000 222.8000 219.8000 218.9000 223.0000 222.8000 226.4000 224.6615 220.5666 215.5151 218.9000 222.4178 217.2121 214.6178 206.4261 201.0904 189.5260 177.2892 168.2557 161.2761 155.6202 154.9258 150.1398 142.7609 133.0889 132.9563 146.0000 155.1000 157.3000 158.7000 159.9000 162.3000 164.9000 166.8000 173.7000 172.8000 169.7000 165.8000 162.1000 157.2000 156.9000 155.6000 150.6000 135.2000 130.0000 139.9000 145.0000 138.5000 139.7000 135.5000 156.4000 159.7000 160.5000 159.0000 157.3000 157.2000 152.4000 151.5000 143.7000 122.6000 105.7000 107.2000 105.4000 106.1000 110.5000 130.6000 133.7000 133.6000 146.9000 153.6000 164.8000 168.3000 165.1000 159.3000 156.0000 157.5000 152.3000 150.5000 148.1000 146.4000 148.8000 149.9000 148.9000 144.9000 140.6000 135.3000 129.3000 124.0000 117.1000 125.2000 121.1000 113.6000 104.2000
490.7000 487.0000 494.3000 509.1000 521.8000 527.1000 519.3000 508.3000 490.0000 479.2000 472.5000 469.0000 460.8000 460.4000 457.5000 454.3000 437.6000 425.5000 421.3000 413.3000 418.0000 403.4000 420.5000 412.7000 397.2000 393.5000 373.1000 384.5000 396.3000 384.1000 393.6000 403.8000 403.5000 399.0000 390.7000 377.9000 358.4000 346.6000 336.6000 345.3000 352.2000 351.8000 313.3000 366.2000 366.3000 362.9000 360.3000 352.3000 343.3000 338.5000 325.3000 324.1000 343.0000 344.4000 339.5000 336.1000 332.8000 315.1000 315.1000 333.5000 334.9000 330.5000 294.6000 316.1000 323.8000 323.4000 316.4000 285.2000 311.9000 309.9000 303.6000 308.0000 282.2000 250.8000 283.6000 264.9000 261.3000 253.9000 250.0000 248.6000 236.1000 216.3819 220.7991 214.4595 227.3000 250.0000 253.1000 209.4443 189.7979 182.6646 169.6829 166.3362 166.5366 165.6000 176.6674 181.9000 197.9000 210.3000 219.4000 222.5000 268.1000 275.0000 282.1000 281.4000 277.4000 266.6000 244.6803 245.4953 216.5474 202.0054 200.1964 205.0000 229.8000 233.4000 233.5000 231.6000 232.0000 233.7000 235.4000 226.0918 226.4260 219.8400 218.2108 229.9000 226.2714 219.1826 216.3386 214.4429 208.2292 200.0705 189.0695 178.3858 165.9097 155.0025 154.1657 150.1307 139.0766 124.4725 129.9862 142.7000 151.2000 152.2000 153.9000 156.6000 159.9000 160.4000 161.1000 163.1000 164.5000 167.1000 167.4000 164.0000 157.1000 153.8000 137.9000 135.2000 152.1000 162.4000 164.1000 160.5000 158.1000 153.9000 142.8000 165.7000 172.1000 173.9000 170.9000 168.4000 166.2000 165.2000 161.9000 158.8000 155.6000 140.7000 122.1000 106.4000 105.8000 108.3000 131.8000 151.5000 153.9000 154.2000 158.3000 163.1000 163.1000 163.2000 160.1000 157.2000 155.8000 153.5000 152.3000 149.2000 146.5000 144.0000 147.2000 144.2000 144.7000 141.5000 136.4000 130.2000 124.0000 115.4000 130.7000 126.7000 118.9000 114.2000
501.8000 495.1000 507.9000 525.2000 539.9000 549.2000 547.4000 529.7000 502.6000 498.2000 490.0000 470.1000 461.1000 465.4000 461.8000 456.1000 442.9000 444.8000 420.2000 415.3000 420.9000 421.5000 420.3000 409.2000 386.8000 388.4000 374.6000 389.8000 408.6000 411.3000 408.7000 414.7000 409.9000 401.3000 391.3000 384.7000 361.4000 355.0000 355.7000 361.0000 360.5000 356.7000 346.5000 361.2000 366.1000 363.2000 357.2000 353.9000 325.7000 329.3000 327.4000 348.5000 349.6000 346.4000 342.1000 331.3000 316.1000 325.6000 328.8000 341.1000 338.6000 319.5000 329.3000 321.6000 317.2000 297.6000 281.1000 308.6000 317.1000 311.6000 294.1000 269.8000 267.2000 296.4000 289.2000 290.9000 277.8000 267.3000 268.5000 259.2000 254.1000 249.7000 240.1000 238.8000 245.6000 257.1000 198.7384 204.5408 185.3783 178.7159 163.3403 165.6760 167.7742 167.3000 174.0436 193.2000 200.6000 217.2000 235.3000 243.2000 242.2000 276.1000 290.5000 291.2000 292.1000 291.1000 259.1985 229.3470 215.0459 210.9445 204.3821 207.8000 234.7000 239.4000 243.2000 240.2000 247.6000 250.0000 248.6000 229.0886 227.1879 217.3128 211.4114 219.0031 219.1864 210.8974 211.2000 206.0923 194.6117 194.6233 183.1739 163.3312 165.1000 159.6896 161.8000 150.7971 138.1187 129.4270 127.7406 142.2000 149.8000 150.4000 154.3000 156.2000 157.7000 159.4000 160.0000 160.2000 160.6000 160.5000 160.1000 157.3000 144.3000 155.5000 163.2000 163.6000 164.3000 166.9000 167.3000 164.8000 160.8000 148.5000 164.8000 171.2000 181.9000 185.3000 185.2000 180.5000 175.8000 173.7000 170.2000 168.3000 165.0000 157.9000 136.9000 109.2000 106.9000 106.8000 111.6000 128.7000 151.4000 152.5000 148.3000 152.1000 157.1000 158.7000 160.7000 162.2000 163.6000 161.6000 156.6000 152.0000 148.2000 144.7000 140.4000 139.2000 134.9000 130.5000 130.6000 124.9000 129.0000 131.1000 135.3000 131.0000 125.6000 118.1000
507.9000 511.4000 517.1000 525.8000 534.1000 540.2000 541.2000 529.4000 512.4000 506.3000 492.1000 475.6000 470.5000 471.9000 465.1000 461.2000 450.7000 432.9000 437.1000 429.9000 421.9000 425.5000 423.7000 410.3000 396.2000 392.1000 396.2000 386.5000 412.1000 424.8000 428.8000 419.1000 412.8000 405.7000 391.5000 378.5000 378.4000 373.6000 370.2000 367.6000 362.1000 354.2000 327.9000 364.3000 366.7000 361.1000 343.8000 343.3000 352.8000 344.7000 346.4000 350.1000 347.5000 346.9000 345.0000 330.7000 338.5000 347.5000 345.5000 338.7000 314.5000 335.9000 332.5000 324.8000 310.3000 314.2000 306.2000 276.2000 311.9000 304.6000 313.8000 287.6000 275.3000 314.2000 304.2000 301.9000 291.6000 291.2000 274.5000 270.0000 262.9000 245.3000 250.2000 244.2000 229.7000 232.0000 219.9000 182.2299 175.4785 167.8850 166.1631 166.1915 164.7594 169.5625 190.0000 201.7000 198.3000 226.8000 247.6000 266.0000 262.7000 265.1000 283.4000 287.0000 277.9000 241.1792 226.7936 214.2575 213.4505 217.6000 232.6000 223.1000 242.8000 250.4000 252.1000 246.7527 246.7575 242.5139 235.0145 235.5911 227.1492 216.6656 208.3967 203.2827 201.1017 208.8556 198.0000 197.1402 175.4214 174.8829 174.0000 196.4000 198.3000 175.5429 160.7386 143.9158 131.0690 129.3222 137.2000 154.9000 156.2000 155.7000 156.3000 157.3000 157.5000 158.4000 159.4000 159.8000 159.2000 158.2000 156.4000 156.0000 156.3000 152.5000 166.5000 172.6000 171.4000 168.6000 166.5000 164.2000 162.2000 161.0000 148.4000 148.1000 159.4000 174.3000 181.7000 184.6000 182.1000 177.6000 171.1000 167.4000 165.7000 160.0000 141.9000 123.5000 107.3000 107.4000 107.9000 116.5000 139.1000 122.9000 144.7000 150.5000 158.9000 161.1000 162.7000 164.2000 168.0000 165.9000 160.4000 155.6000 150.7000 147.8000 146.0000 144.7000 141.4000 133.6000 131.4000 136.0000 137.3000 135.4000 139.0000 134.7000 129.9000 126.5000
515.4000 522.9000 527.3000 530.2000 535.8000 539.3000 546.2000 546.9000 521.9000 514.8000 503.8000 490.2000 488.1000 480.5000 474.7000 461.5000 447.9000 449.8000 446.5000 429.0000 437.6000 440.6000 437.8000 424.8000 399.9000 397.4000 394.2000 391.7000 406.1000 422.5000 430.0000 423.0000 414.6000 406.2000 396.0000 389.1000 380.0000 373.0000 365.3000 361.5000 352.0000 350.7000 370.6000 371.1000 366.3000 358.0000 362.3000 357.0000 355.3000 333.5000 356.6000 349.2000 338.6000 342.7000 326.0000 334.2000 353.4000 350.7000 343.3000 339.8000 339.3000 342.2000 339.2000 329.0000 326.9000 318.0000 309.9000 289.9000 318.6000 319.4000 296.0000 315.9000 311.5000 298.0000 318.8000 310.5000 308.6000 306.9000 299.7000 276.4000 270.3000 264.9000 254.8000 252.0000 262.6000 240.8000 226.1000 175.5596 171.4925 167.2523 164.7532 164.5692 165.1733 203.2000 223.3000 227.0000 227.8000 212.4000 242.2000 257.9000 264.8000 270.1000 272.9000 266.6000 252.0000 237.5455 226.1989 228.0267 238.6897 228.1000 249.6000 244.2000 252.6000 260.2000 249.6369 250.8572 246.6281 241.0783 235.5917 227.7970 224.2814 209.6580 202.2919 199.3787 194.9350 191.4420 189.1956 193.6000 195.9036 190.9568 185.4644 185.0937 184.0829 189.4799 173.4684 137.4733 136.7142 158.4000 161.6000 164.0000 164.4000 164.5000 162.8000 161.6000 161.7000 160.8000 161.7000 161.7000 162.4000 163.2000 163.6000 163.1000 162.6000 160.9000 160.0000 155.9000 166.4000 168.5000 167.2000 166.5000 164.8000 155.0000 163.0000 158.3000 152.5000 154.9000 169.1000 174.6000 175.8000 175.1000 169.7000 160.6000 150.7000 139.6000 136.0000 145.8000 113.0000 107.3000 109.1000 108.6000 116.4000 139.1000 155.4000 163.9000 167.2000 167.8000 168.1000 167.2000 166.2000 164.5000 162.4000 157.4000 151.9000 148.9000 146.9000 146.4000 145.1000 143.9000 139.6000 139.7000 139.8000 142.0000 142.0000 140.9000 133.7000 120.6000
510.1000 524.1000 519.6000 527.4000 542.3000 550.1000 558.9000 561.0000 535.5000 542.7000 520.4000 515.9000 509.5000 496.1000 477.1000 465.8000 458.6000 462.6000 446.6000 449.5000 454.9000 454.9000 446.9000 432.3000 420.6000 412.1000 405.5000 398.9000 405.6000 425.9000 428.5000 421.9000 416.7000 408.5000 397.0000 387.5000 377.5000 362.3000 359.0000 367.1000 370.8000 371.3000 371.7000 372.8000 366.3000 353.1000 364.2000 362.5000 354.7000 354.4000 353.5000 349.5000 346.5000 348.2000 345.3000 346.0000 351.4000 348.3000 351.7000 353.7000 350.5000 345.8000 341.5000 340.9000 334.6000 317.3000 301.8000 327.2000 327.6000 317.2000 327.3000 323.8000 309.8000 327.3000 325.8000 321.2000 316.2000 309.9000 302.5000 308.1000 295.7000 277.4000 259.3000 274.2000 265.3000 271.6000 263.7000 256.7000 168.9703 167.1388 165.3828 169.3744 202.3000 226.4000 232.5000 253.7000 244.2000 237.5000 226.9000 261.0000 271.5000 277.3000 279.5000 248.2042 252.8000 250.8000 262.9000 250.6315 246.9420 241.0000 267.3000 259.1000 263.2000 268.8000 248.3978 251.3009 244.4531 237.0693 234.4209 224.3860 218.9536 218.0903 215.7950 203.9055 207.6662 201.1416 199.8380 202.1375 200.1088 190.5409 185.5639 185.3774 184.3398 177.1345 165.3470 141.7907 144.2784 191.6000 186.7000 188.6000 180.9000 177.5000 172.0000 170.7000 169.6000 168.0000 167.4000 165.4000 164.9000 166.5000 166.1000 165.7000 164.2000 162.6000 158.3000 160.8000 161.1000 164.4000 167.5000 165.6000 166.6000 166.2000 167.2000 166.2000 161.9000 161.2000 156.8000 157.2000 160.4000 171.7000 171.5000 165.5000 164.2000 156.9000 157.1000 159.7000 154.9000 109.1000 108.2000 109.7000 109.2000 128.0000 147.1000 164.1000 168.6000 168.6000 168.0000 166.8000 164.0000 161.3000 160.3000 155.8000 151.7000 149.5000 148.9000 148.6000 146.3000 143.8000 139.8000 144.1000 147.6000 149.0000 147.0000 140.4000 119.6000 127.6000
483.1000 492.8000 506.9000 524.1000 540.8000 555.9000 558.7000 554.6000 550.7000 541.5000 538.1000 537.1000 525.7000 504.0000 480.7000 473.9000 469.8000 461.4000 445.4000 462.4000 463.1000 457.6000 444.5000 437.0000 434.8000 433.5000 417.5000 413.7000 429.4000 430.5000 425.2000 418.3000 410.7000 400.5000 390.9000 379.7000 370.3000 377.0000 376.4000 378.9000 380.0000 378.6000 376.1000 373.0000 367.5000 366.7000 367.1000 362.2000 359.2000 362.4000 360.2000 358.4000 357.5000 350.9000 346.5000 346.2000 354.0000 357.5000 360.9000 358.5000 349.3000 344.4000 346.0000 337.7000 313.2000 328.6000 313.8000 331.5000 333.0000 333.6000 332.9000 328.8000 312.6000 319.3000 322.5000 324.3000 321.9000 313.8000 317.1000 315.3000 299.1000 302.8000 291.5000 289.1000 285.4000 280.7000 263.7000 167.6953 167.6020 166.1727 171.0066 192.6000 244.4000 261.1000 269.8000 278.4000 278.0000 278.3000 236.8000 276.7000 289.2000 286.6000 278.6000 265.5000 257.8000 276.7000 286.2000 261.4906 255.4035 234.1181 230.8059 248.7000 261.4000 262.9000 245.9330 243.0353 243.9646 240.6978 240.5711 234.4531 229.0009 225.3683 214.4395 223.2078 215.5722 212.4862 206.0721 202.6287 203.5970 196.8691 183.4267 175.2473 170.7729 168.7506 165.6954 151.5146 142.1000 191.5000 207.0000 206.0000 209.0000 199.3000 188.4000 183.6000 178.8000 175.4000 173.9000 171.0000 169.6000 167.7000 166.9000 166.9000 165.0000 161.7000 164.8000 166.4000 166.6000 167.4000 168.8000 168.6000 174.6000 178.1000 175.3000 173.8000 173.2000 172.5000 170.1000 168.4000 160.4000 172.4000 176.5000 173.8000 171.2000 166.7000 166.4000 164.5000 161.3000 157.1000 126.2000 113.2000 111.2000 110.8000 124.7000 141.3000 154.1000 158.8000 166.5000 166.3000 164.4000 161.6000 157.8000 154.1000 151.3000 150.3000 150.3000 149.2000 146.1000 142.2000 146.2000 149.4000 149.7000 146.1000 144.2000 139.2000 125.3000 143.1000
473.2000 508.2000 512.9000 529.5000 548.5000 563.6000 560.7000 562.2000 563.9000 554.2000 564.4000 541.0000 519.4000 502.3000 494.6000 486.8000 476.2000 467.4000 454.1000 474.3000 476.7000 462.2000 451.7000 446.2000 443.3000 436.9000 426.5000 430.7000 436.2000 435.5000 426.4000 410.7000 403.0000 401.2000 392.1000 380.2000 383.3000 389.5000 391.0000 388.2000 387.5000 388.4000 384.2000 376.6000 368.1000 370.4000 369.0000 366.4000 372.2000 370.4000 367.1000 363.9000 358.2000 346.7000 343.8000 358.7000 360.4000 361.0000 361.4000 356.9000 346.5000 338.6000 330.3000 323.8000 318.9000 336.1000 330.9000 336.7000 340.7000 339.8000 335.7000 332.3000 326.1000 317.3000 324.8000 322.5000 318.5000 322.4000 318.6000 311.8000 301.4000 311.1000 309.3000 298.0000 270.8000 254.3000 220.4000 166.6580 166.5137 171.2477 177.4199 234.3000 215.1000 256.7000 284.3000 284.1000 289.3000 255.3000 281.0000 293.2000 289.7000 274.0000 263.0000 264.8000 259.9000 272.9000 266.3712 269.7404 255.1772 244.6722 236.5321 257.8000 245.1815 245.7278 243.6678 253.8000 256.4000 256.3000 237.5226 237.5436 231.1095 225.4664 225.3580 219.9673 221.3563 214.4403 208.5588 207.0719 201.0316 192.5337 186.2421 176.4736 168.2572 169.6256 153.3634 150.3535 135.0091 176.8000 211.8000 208.5000 197.0000 191.9000 191.9000 192.6000 189.9000 184.3000 180.5000 176.8000 173.9000 171.5000 169.1000 166.2000 164.6000 163.6000 164.9000 167.7000 171.2000 171.5000 172.1000 172.6000 173.8000 178.5000 180.2000 177.4000 175.8000 173.9000 170.7000 166.6000 163.9000 172.6000 178.8000 178.3000 176.7000 172.8000 166.8000 154.0000 150.1000 139.9000 124.7000 141.0000 109.5000 110.4000 110.5000 125.4000 135.7000 158.0000 165.7000 168.3000 166.7000 162.3000 158.7000 154.9000 151.9000 149.8000 149.0000 146.9000 145.5000 147.0000 149.2000 147.5000 147.8000 144.4000 140.7000 134.3000 144.1000 151.7000
487.4000 493.6000 498.7000 508.6000 530.6000 544.8000 549.2000 556.1000 566.3000 568.1000 573.7000 560.3000 529.6000 522.9000 514.6000 499.9000 489.2000 488.8000 472.9000 489.4000 491.5000 473.5000 460.0000 455.4000 448.1000 441.4000 432.6000 434.4000 436.9000 439.5000 433.2000 418.1000 403.6000 395.9000 391.6000 390.1000 394.7000 396.4000 393.7000 392.6000 393.5000 389.5000 382.7000 377.3000 376.6000 379.2000 373.8000 371.3000 376.5000 372.4000 367.9000 363.1000 363.8000 357.7000 351.6000 357.9000 359.9000 363.3000 359.5000 355.9000 349.2000 343.0000 329.6000 318.2000 326.1000 336.6000 340.0000 341.2000 340.3000 338.2000 336.4000 329.9000 326.5000 325.8000 325.6000 323.8000 321.1000 321.6000 317.6000 306.1000 303.7000 316.8000 316.0000 312.6000 309.3000 287.7000 278.6000 165.5954 165.8583 170.0203 234.8000 225.8000 277.0000 270.2000 267.7000 286.6000 283.2000 292.9000 298.3000 286.7000 291.2000 280.6000 287.5000 285.9000 268.8000 273.8065 268.8235 257.9950 256.8962 261.9000 265.2000 261.9000 245.3044 244.5124 244.6360 257.3000 259.3000 252.1000 250.3000 231.2584 231.5058 224.6396 221.4826 220.3309 219.0237 216.0027 214.5028 214.4760 220.5000 200.2306 188.3997 186.9794 165.7695 168.7424 150.2037 145.7000 145.7000 149.9000 186.6000 184.5000 178.6000 180.3000 184.9000 190.2000 192.0000 195.9000 191.6000 180.9000 176.5000 172.0000 168.5000 168.6000 168.6000 169.2000 169.4000 170.4000 172.5000 174.6000 176.3000 175.4000 174.5000 175.4000 176.4000 174.4000 170.1000 168.4000 168.9000 168.0000 168.3000 166.7000 175.8000 180.3000 182.2000 179.3000 165.9000 154.5000 150.7000 153.6000 146.8000 147.8000 139.9000 110.8000 111.2000 113.2000 136.0000 154.1000 163.6000 166.4000 167.0000 163.5000 159.8000 156.3000 152.6000 150.4000 151.2000 150.2000 149.9000 150.3000 149.8000 147.8000 144.5000 142.5000 139.0000 139.0000 144.3000 150.9000
477.8000 493.4000 497.2000 503.3000 517.8000 530.1000 531.2000 543.6000 553.3000 556.4000 571.1000 569.6000 546.5000 531.0000 533.2000 519.5000 509.4000 498.2000 490.7000 500.5000 509.2000 482.9000 473.1000 460.0000 452.6000 450.9000 443.8000 436.3000 434.2000 442.2000 435.9000 419.6000 408.1000 400.1000 397.8000 400.5000 401.5000 400.3000 399.1000 396.6000 393.0000 384.6000 377.6000 378.0000 384.4000 380.8000 378.4000 375.6000 375.5000 371.1000 367.7000 367.6000 365.6000 361.3000 358.5000 361.2000 360.0000 357.9000 351.3000 349.5000 339.7000 335.3000 327.6000 334.3000 342.5000 344.2000 340.9000 339.5000 336.6000 335.5000 330.0000 325.9000 333.4000 332.6000 327.9000 329.1000 326.7000 324.5000 316.3000 314.7000 314.9000 313.4000 316.0000 318.4000 314.5000 308.3000 303.4000 280.3000 164.4143 179.8000 290.3000 252.8000 284.7000 302.1000 299.7000 298.6000 294.8000 302.0000 291.1000 298.0000 290.9000 289.7000 286.1000 286.3000 285.9000 286.5000 266.8750 275.7000 273.4000 275.8000 269.9000 239.9278 241.0739 242.3192 253.9000 252.6000 246.1000 243.8000 255.0000 223.5827 224.8746 213.5069 214.8693 216.4000 227.7000 213.1988 221.1555 208.6526 213.6868 204.6006 196.3929 179.7094 157.0610 158.7826 148.5000 157.4000 167.5000 167.0000 169.5000 175.9000 181.8000 165.6000 171.2000 188.1000 192.1000 189.4000 188.2000 181.8000 179.5000 177.0000 176.3000 174.8000 174.5000 176.8000 174.8000 174.5000 175.0000 176.8000 177.3000 177.7000 177.1000 177.3000 176.5000 175.8000 180.8000 183.0000 180.4000 176.0000 174.0000 169.9000 171.1000 173.5000 179.7000 182.2000 179.4000 169.0000 169.3000 157.1000 142.1000 146.0000 149.7000 136.1000 118.7000 111.7000 113.2000 128.9000 151.4000 162.3000 162.3000 161.2000 158.9000 157.0000 157.0000 154.1000 154.2000 153.5000 151.7000 150.2000 149.0000 146.0000 144.0000 140.3000 143.3000 145.8000 147.5000 149.5000
472.6000 490.5000 502.8000 510.5000 514.4000 514.5000 515.5000 535.3000 548.2000 553.2000 564.3000 572.1000 558.0000 541.1000 536.9000 528.5000 519.5000 507.6000 510.0000 525.0000 526.4000 504.4000 481.7000 469.3000 460.8000 454.3000 444.1000 433.1000 426.3000 430.4000 427.5000 419.0000 409.1000 403.4000 402.0000 401.8000 402.1000 401.6000 399.9000 394.4000 395.9000 392.4000 389.5000 386.7000 385.9000 384.2000 379.0000 374.2000 371.6000 361.4000 367.6000 367.7000 364.5000 356.1000 352.5000 359.5000 359.6000 357.2000 356.6000 354.5000 348.2000 341.0000 345.1000 346.6000 346.0000 340.4000 338.8000 338.1000 339.4000 337.2000 338.0000 336.8000 330.9000 333.8000 331.4000 330.2000 328.3000 327.7000 322.3000 321.9000 318.3000 313.2000 308.8000 307.7000 282.4000 269.6000 233.6000 220.5000 196.3000 221.3000 285.1000 299.2000 306.3000 305.0000 302.4000 294.3000 301.2000 298.1000 295.8000 292.0000 288.6000 290.1000 286.8000 293.0000 293.3000 291.0000 284.3000 260.2613 280.6000 271.3000 233.2962 237.3379 237.1409 228.0697 248.7000 240.2000 228.3000 214.0000 235.0000 229.9000 214.3678 204.1566 201.0003 212.3000 234.6000 228.6000 203.9382 203.8765 194.7555 187.9704 187.3332 189.0275 152.1363 151.6000 158.7000 190.6000 199.3000 185.3000 195.8000 195.0000 191.8000 185.5000 174.2000 192.0000 190.8000 189.0000 185.7000 182.6000 197.3000 199.3000 188.8000 184.8000 184.0000 183.9000 182.7000 181.4000 179.6000 180.0000 179.5000 180.2000 180.3000 180.3000 179.2000 176.5000 177.8000 185.3000 189.7000 186.7000 182.7000 177.8000 177.3000 177.3000 176.6000 180.0000 184.3000 180.8000 161.3000 166.0000 170.2000 156.9000 164.5000 159.7000 141.6000 111.6000 112.7000 123.2000 141.9000 136.8000 151.2000 159.3000 161.4000 159.9000 158.8000 157.3000 156.0000 155.1000 154.4000 152.1000 151.7000 151.0000 149.8000 151.9000 154.0000 154.0000 151.9000 150.2000
479.1000 480.0000 495.1000 506.9000 511.1000 501.3000 526.0000 543.2000 551.5000 557.0000 565.3000 566.9000 558.6000 547.3000 544.6000 545.0000 524.3000 518.0000 531.8000 546.3000 551.3000 526.7000 494.0000 478.6000 465.8000 458.1000 442.2000 426.8000 420.5000 420.7000 424.3000 420.1000 410.2000 403.7000 399.4000 400.3000 402.4000 402.9000 401.8000 400.9000 400.7000 400.4000 395.9000 392.7000 388.9000 382.9000 374.8000 372.6000 367.3000 347.8000 365.6000 366.3000 351.6000 339.2000 342.1000 358.2000 359.6000 357.4000 355.5000 357.0000 356.3000 356.6000 356.3000 362.3000 347.0000 332.9000 335.1000 337.1000 344.5000 343.3000 335.9000 323.8000 323.7000 324.1000 335.1000 333.3000 332.5000 327.0000 326.8000 321.4000 318.6000 313.6000 302.9000 253.3000 237.4000 209.7000 183.1000 190.5000 191.5000 273.3000 284.5000 311.5000 314.5000 310.4000 301.6000 300.9000 305.7000 303.3000 301.1000 293.9000 294.6000 283.0000 278.1000 288.4000 289.2000 286.9000 267.0310 263.4971 249.9000 235.5040 235.2447 227.3059 226.0695 222.6981 226.3701 210.3652 207.0198 202.6349 199.3545 194.2618 194.2160 192.5369 190.1000 217.3000 223.0000 190.3777 190.3215 188.0164 183.8390 172.6592 184.2476 176.1657 156.9000 158.4000 182.3000 212.2000 206.1000 204.8000 204.3000 201.0000 198.8000 192.3000 186.8000 176.0000 197.3000 192.5000 187.4000 185.2000 190.2000 198.2000 201.3000 198.6000 196.4000 193.2000 190.6000 188.3000 187.0000 185.4000 184.2000 183.2000 183.0000 182.3000 181.9000 178.2000 180.4000 182.3000 188.6000 193.8000 190.2000 186.2000 184.7000 181.8000 180.2000 181.8000 185.2000 188.1000 186.1000 182.0000 180.2000 174.1000 171.3000 156.6000 135.1000 120.8000 112.9000 114.6000 131.8000 154.1000 142.9000 157.6000 164.7000 165.6000 163.2000 162.1000 160.6000 159.1000 158.0000 156.9000 158.3000 158.7000 159.1000 161.2000 160.6000 158.1000 155.0000 150.8000
510.2000 502.7000 499.5000 495.5000 498.2000 495.7000 510.1000 521.7000 528.4000 550.6000 558.6000 559.7000 548.1000 535.7000 542.2000 546.7000 532.9000 531.7000 550.2000 569.1000 563.7000 528.5000 495.9000 481.5000 465.0000 453.3000 438.9000 426.6000 418.2000 414.0000 422.9000 408.0000 393.2000 394.8000 389.3000 399.2000 404.4000 402.3000 402.6000 400.5000 399.3000 396.3000 390.5000 389.2000 389.8000 383.3000 376.2000 370.3000 366.0000 356.4000 330.8000 357.2000 351.7000 340.8000 347.0000 353.7000 353.8000 354.6000 353.1000 353.6000 357.0000 361.6000 357.5000 350.0000 329.8000 330.8000 342.7000 340.0000 336.1000 321.9000 337.8000 331.9000 292.3000 339.4000 341.1000 339.3000 329.2000 303.0000 314.9000 231.2000 269.7000 268.1000 313.7000 309.7000 230.6000 187.7000 236.9000 199.1000 262.9000 300.8000 303.6000 265.3000 281.9000 308.0000 316.8000 307.1000 306.1000 306.8000 306.5000 301.4000 287.3000 272.1000 266.2000 273.0000 232.0746 238.0737 241.4792 241.0449 235.3740 233.4168 223.2284 213.7540 212.5231 209.4026 206.2983 207.6876 201.1046 194.7707 190.1480 187.9832 184.5483 181.7034 176.3692 178.7000 174.9250 185.4392 181.7558 176.5980 167.1745 165.4193 176.5000 156.5000 159.1000 185.7000 196.0000 213.9000 212.0000 211.8000 210.7000 207.1000 202.1000 196.1000 186.4000 177.4000 180.6000 188.8000 188.9000 187.0000 188.8000 191.5000 195.9000 201.3000 207.5000 202.3000 199.1000 195.2000 193.8000 192.0000 188.3000 186.7000 185.0000 184.7000 182.5000 182.0000 184.1000 186.2000 186.9000 190.0000 196.6000 195.9000 192.5000 188.4000 185.1000 187.4000 187.7000 187.3000 190.9000 190.5000 188.3000 182.7000 164.7000 145.5000 165.4000 158.1000 113.7000 113.8000 137.1000 160.8000 163.8000 167.8000 169.2000 170.6000 169.8000 168.0000 166.1000 163.8000 163.1000 162.3000 163.8000 164.1000 164.0000 163.0000 161.4000 159.9000 156.2000 151.1000
506.5000 499.9000 487.3000 480.5000 480.2000 478.9000 496.9000 504.5000 520.2000 550.6000 549.5000 544.1000 529.5000 527.0000 531.9000 540.0000 543.9000 543.9000 559.7000 559.3000 546.6000 524.0000 496.4000 472.4000 462.1000 448.2000 432.4000 427.8000 424.7000 420.2000 398.6000 386.8000 378.4000 378.4000 391.7000 398.2000 397.7000 398.1000 396.1000 392.9000 385.7000 382.4000 376.1000 378.7000 386.0000 379.8000 373.6000 360.5000 347.4000 332.1000 340.6000 341.7000 338.4000 339.5000 305.7000 331.8000 350.7000 349.3000 342.3000 345.1000 351.1000 360.1000 361.4000 334.9000 323.8000 304.2000 325.3000 339.4000 340.0000 331.6000 300.8000 256.7000 288.6000 268.5000 276.4000 288.0000 328.4000 251.8000 320.5000 207.8000 212.4000 191.5000 278.3000 226.9000 186.1000 209.8000 251.3000 290.4000 243.1000 227.3000 291.1000 292.2000 319.3000 315.4000 318.5000 316.3000 313.3000 310.5000 289.5000 279.9000 272.6000 257.3086 257.3000 238.3380 231.2632 226.6227 223.9727 227.6167 234.0000 228.5000 222.8136 212.2239 203.5722 206.4000 207.7962 205.0302 199.5000 195.3411 191.6398 188.6989 187.0631 190.8867 183.9467 174.4843 171.6962 168.0805 162.2870 155.3739 160.6419 156.4243 160.8000 157.5000 173.9000 190.9000 206.9000 220.4000 219.7000 216.9000 214.8000 211.8000 206.4000 203.1000 200.1000 197.8000 191.1000 186.5000 187.7000 190.1000 191.6000 196.4000 207.0000 209.9000 208.7000 211.3000 209.9000 205.4000 201.6000 197.2000 193.9000 189.9000 187.6000 186.5000 186.0000 184.6000 188.2000 191.0000 190.7000 191.8000 193.8000 197.7000 197.4000 193.1000 190.9000 188.4000 187.2000 185.3000 175.3000 186.3000 189.2000 185.6000 179.1000 177.2000 172.2000 162.1000 123.2000 114.3000 118.0000 149.6000 169.4000 173.2000 174.9000 174.2000 173.5000 173.0000 172.5000 170.5000 168.1000 168.8000 168.8000 168.0000 166.5000 162.8000 159.6000 157.2000 155.5000 152.6000
490.5000 492.4000 481.3000 473.9000 469.7000 475.7000 486.8000 496.4000 522.5000 538.5000 535.7000 520.4000 514.3000 514.3000 527.1000 533.8000 541.1000 536.2000 535.4000 532.6000 520.7000 505.8000 487.0000 469.7000 461.9000 449.8000 439.3000 431.3000 420.7000 422.4000 412.5000 402.1000 390.1000 365.0000 385.7000 390.9000 384.3000 383.1000 393.1000 379.3000 367.9000 364.7000 364.4000 376.9000 386.9000 371.1000 366.6000 372.1000 361.8000 339.6000 322.4000 301.7000 327.0000 341.8000 296.3000 321.8000 347.1000 351.6000 330.0000 335.8000 351.8000 350.2000 367.3000 361.3000 346.1000 350.7000 263.3000 300.8000 327.1000 330.4000 330.8000 326.3000 293.4000 223.6000 203.7000 199.6000 216.0000 196.7000 195.6000 193.8000 237.5000 204.9000 199.3000 192.6000 220.9000 292.9000 271.3000 302.6000 297.1000 273.2000 300.9000 325.6000 323.6000 323.0000 319.2000 316.6000 312.3000 308.2000 293.4000 284.8000 272.0000 264.7000 282.1000 273.2000 232.0746 227.2862 226.0707 241.0000 231.3000 221.7000 217.4000 212.8699 231.9000 229.9000 227.4000 222.0000 216.9000 212.3000 197.8436 193.6574 187.1578 183.5047 183.1000 179.3022 175.5738 178.1733 169.6399 161.4906 153.7915 153.6408 161.9000 169.8000 183.0000 218.4000 229.7000 227.6000 217.1000 215.6000 215.4000 212.0000 210.1000 209.2000 206.9000 202.6000 198.4000 192.4000 191.0000 188.2000 197.8000 208.6000 219.9000 215.1000 218.9000 215.7000 211.8000 209.8000 205.4000 200.7000 196.9000 193.4000 193.3000 191.7000 189.8000 187.5000 188.7000 192.5000 195.9000 196.7000 195.8000 192.3000 195.1000 194.4000 190.8000 185.1000 180.4000 179.2000 173.7000 182.6000 186.7000 186.2000 183.8000 178.1000 171.2000 155.8000 123.3000 115.2000 122.4000 157.3000 169.5000 171.8000 174.5000 175.2000 175.0000 175.3000 175.4000 175.1000 175.0000 172.9000 172.9000 172.5000 168.2000 163.6000 159.1000 156.1000 153.2000 150.7000
483.7000 492.2000 484.3000 479.7000 473.1000 463.4000 470.4000 489.8000 515.5000 522.0000 516.9000 506.2000 494.1000 506.3000 523.1000 533.1000 530.3000 516.3000 507.3000 504.6000 495.4000 485.2000 469.6000 455.4000 453.1000 436.7000 433.2000 426.2000 407.4000 394.5000 412.1000 403.6000 389.6000 375.0000 353.7000 363.6000 365.6000 363.1000 367.3000 376.7000 368.6000 362.3000 356.1000 385.7000 389.8000 366.2000 334.6000 341.4000 348.7000 332.5000 295.3000 286.1000 329.2000 330.5000 310.2000 325.9000 325.1000 340.1000 299.7000 339.4000 341.4000 350.9000 365.6000 374.9000 365.8000 318.2000 298.8000 272.8000 261.8000 309.1000 261.7000 244.0000 202.9000 210.6000 217.0000 210.6000 199.8000 197.1000 206.3000 247.9000 260.9000 252.3000 297.7000 258.6000 273.9000 318.9000 297.2000 325.1000 309.5000 297.1000 309.1000 292.1000 320.2000 323.6000 319.5000 315.0000 305.7000 295.5000 283.3000 281.4000 280.5000 276.3000 281.8000 275.2000 257.7000 258.1000 271.3000 251.6000 240.2000 249.2000 251.5000 260.8000 243.8000 236.0000 231.7000 224.4000 205.6007 204.4760 195.3974 192.0709 188.1066 197.9000 198.2000 197.6000 187.0816 173.9268 155.6305 160.4000 157.4292 187.2000 189.8000 181.0000 172.8000 205.0000 210.2000 218.4000 210.2000 209.3000 211.2000 216.3000 213.3000 213.1000 208.1000 205.0000 203.2000 203.0000 198.9000 195.0000 189.5000 198.2000 199.9000 202.9000 208.8000 207.0000 206.0000 203.5000 205.5000 204.2000 201.5000 199.7000 200.0000 196.2000 193.5000 194.1000 192.7000 192.5000 195.5000 195.7000 190.8000 187.6000 177.9000 185.4000 190.2000 184.7000 178.0000 174.0000 168.3000 175.0000 180.3000 180.6000 177.9000 170.8000 162.6000 158.2000 118.6000 115.8000 122.7000 130.8000 151.9000 169.4000 173.9000 173.9000 173.5000 175.5000 177.5000 177.2000 177.5000 174.9000 172.4000 171.5000 168.1000 163.4000 158.4000 155.0000 151.3000 148.8000
457.0000 486.9000 484.7000 487.7000 480.5000 463.5000 462.4000 479.2000 495.1000 508.9000 510.7000 495.1000 494.1000 499.3000 509.9000 522.5000 521.0000 509.9000 496.0000 487.1000 478.4000 470.1000 458.1000 431.5000 442.1000 416.9000 423.1000 410.2000 390.7000 374.1000 391.7000 394.8000 381.5000 373.5000 357.1000 334.6000 357.8000 354.7000 354.6000 364.5000 360.5000 363.2000 352.0000 375.8000 369.1000 352.9000 332.0000 303.3000 345.2000 330.6000 297.4000 288.1000 319.2000 301.8000 272.2000 308.5000 287.6000 320.0000 280.6000 296.1000 334.8000 343.1000 367.8000 367.7000 340.9000 343.8000 283.6000 276.6000 226.9000 227.1000 244.3000 227.0000 204.0000 281.4000 279.2000 292.7000 300.7000 263.4000 246.0000 289.2000 276.0000 238.7000 247.2000 291.2000 328.6000 330.2000 327.7000 328.6000 304.7000 309.0000 323.2000 324.6000 322.9000 322.2000 316.8000 305.3000 294.2000 284.6000 279.8000 283.6000 290.4000 297.7000 290.9000 280.7000 272.8000 268.8000 267.3000 255.9000 261.2000 272.2000 269.2000 234.0274 232.6121 226.4890 215.9498 213.6949 204.6636 199.5682 200.8000 205.5000 207.7000 207.1000 204.7000 174.4307 171.3947 159.7287 161.6000 193.2000 209.6000 206.4000 193.0000 186.8000 180.2000 181.0000 187.5000 200.7000 208.7000 209.3000 208.0000 211.0000 211.8000 212.3000 210.7000 207.7000 204.9000 201.8000 199.0000 194.3000 190.2000 192.7000 194.7000 195.7000 196.5000 197.6000 198.2000 202.3000 206.0000 210.3000 207.8000 206.6000 206.1000 201.9000 197.8000 202.4000 199.3000 196.2000 190.7000 190.2000 188.2000 184.9000 180.4000 170.3000 177.1000 185.5000 182.2000 175.3000 167.3000 167.2000 171.3000 168.9000 167.4000 159.8000 145.0000 147.3000 118.8000 116.1000 132.0000 151.0000 163.3000 171.0000 172.5000 170.9000 169.8000 174.4000 178.1000 177.4000 174.5000 170.5000 167.7000 165.8000 164.5000 160.5000 157.2000 153.8000 150.7000 148.0000
457.6000 440.8000 465.5000 480.0000 469.2000 457.1000 471.7000 479.9000 472.8000 502.3000 511.2000 498.4000 487.2000 484.3000 501.5000 525.1000 523.4000 515.8000 506.4000 494.4000 487.9000 475.4000 465.5000 431.5000 407.9000 394.3000 385.4000 373.0000 365.9000 360.3000 381.3000 382.7000 376.2000 364.4000 353.7000 346.8000 321.3000 353.9000 335.1000 359.8000 364.3000 359.6000 340.5000 353.5000 344.6000 321.4000 330.1000 306.3000 327.9000 353.3000 306.0000 291.7000 343.5000 320.8000 258.8000 266.6000 278.8000 256.9000 324.9000 351.0000 353.0000 348.9000 331.8000 318.2000 291.8000 304.2000 278.9000 240.8000 210.8000 208.7000 206.3000 204.6000 216.0000 282.9000 316.3000 327.6000 295.5000 282.3000 325.9000 325.3000 270.1000 316.4000 330.8000 321.9000 295.0000 310.1000 321.2000 325.2000 320.8000 327.3000 329.1000 329.7000 328.0000 323.0000 311.9000 305.9000 309.1000 303.4000 307.6000 308.3000 306.4000 294.0000 292.8000 289.0000 279.0000 276.5000 266.7119 264.3000 267.8000 242.9498 245.5644 232.7084 225.2246 217.2653 213.0383 209.2613 203.1559 209.7000 218.6000 217.5000 217.0000 212.6000 206.4000 176.6592 162.5872 162.9000 180.0000 203.5000 200.9000 198.0000 193.5000 192.3000 198.3000 206.6000 205.8000 199.7000 200.9000 207.1000 211.9000 215.2000 217.9000 214.6000 211.3000 207.7000 203.8000 200.9000 195.9000 201.5000 211.6000 201.2000 200.3000 198.6000 197.1000 196.4000 197.2000 196.7000 206.8000 211.2000 212.2000 209.0000 205.5000 203.2000 204.9000 208.4000 201.7000 195.4000 191.8000 186.9000 178.0000 183.1000 181.8000 174.3000 169.7000 165.4000 183.5000 179.5000 168.4000 161.0000 166.1000 163.8000 153.0000 148.0000 137.5000 125.0000 119.8000 117.2000 120.2000 142.8000 157.0000 166.2000 167.6000 164.9000 167.2000 174.5000 178.2000 177.6000 173.7000 169.2000 165.1000 153.9000 155.3000 153.3000 151.5000 151.0000 150.0000 147.9000
445.0000 440.2000 432.1000 465.4000 463.7000 446.0000 472.8000 477.8000 461.4000 487.2000 511.6000 499.4000 484.9000 474.1000 497.5000 515.3000 510.1000 509.1000 498.4000 491.2000 487.8000 476.7000 459.3000 442.5000 426.8000 411.5000 381.7000 365.2000 354.9000 341.8000 353.2000 363.2000 370.3000 370.2000 363.6000 344.7000 311.6000 317.3000 367.3000 360.3000 354.2000 348.5000 347.9000 351.2000 351.2000 352.6000 346.2000 306.8000 314.8000 294.3000 290.9000 280.4000 279.7000 249.4000 257.3000 252.1000 260.3000 292.9000 343.4000 337.3000 363.8000 325.2000 319.7000 296.7000 255.7000 270.5000 274.7000 228.7000 208.8000 224.6000 225.5000 243.9000 309.9000 344.1000 335.0000 331.5000 328.1000 329.8000 335.8000 324.6000 289.4000 326.7000 323.5000 321.7000 325.6000 341.0000 346.3000 339.7000 342.5000 343.6000 339.8000 333.4000 324.1000 319.2000 314.7000 314.6000 314.5000 303.2000 301.5000 301.7000 309.2000 292.6000 275.3000 275.5000 284.8000 264.1240 263.3772 262.0000 268.0000 248.6544 234.6305 228.3559 223.3556 221.1898 214.3449 210.2000 210.9026 223.5000 224.2000 230.6000 220.8000 208.4000 169.5199 166.8309 163.4066 167.8398 189.5000 202.3000 206.4000 203.8000 204.1000 199.7000 200.8000 204.6000 205.6000 208.1000 208.9000 214.6000 218.7000 221.5000 218.5000 215.5000 208.6000 202.9000 203.1000 200.8000 211.0000 215.3000 210.4000 205.1000 202.2000 203.8000 203.9000 203.5000 202.1000 196.1000 187.7000 212.3000 216.2000 213.0000 207.1000 205.3000 203.4000 204.8000 195.8000 190.8000 190.0000 185.2000 178.0000 174.6000 178.1000 177.7000 170.5000 161.2000 165.3000 172.4000 177.4000 165.9000 154.6000 162.8000 165.0000 154.6000 148.7000 140.8000 119.8000 117.9000 118.6000 127.2000 145.5000 153.8000 157.0000 159.0000 163.2000 168.9000 175.7000 174.2000 172.1000 165.9000 159.8000 158.8000 153.0000 146.2000 140.8000 145.0000 144.8000 145.1000
443.7000 435.3000 425.3000 431.8000 448.8000 437.1000 464.9000 455.3000 449.7000 475.4000 501.9000 493.5000 477.4000 459.6000 489.4000 505.8000 497.3000 499.1000 495.3000 478.6000 472.6000 460.8000 445.3000 433.1000 422.8000 411.3000 391.0000 376.6000 365.5000 354.5000 335.7000 339.5000 368.0000 368.4000 354.1000 352.5000 311.0000 319.6000 331.2000 353.9000 344.9000 336.5000 326.4000 340.9000 350.3000 351.4000 337.0000 274.9000 293.7000 234.6000 233.2000 248.9000 254.4000 236.5000 228.3000 227.2000 227.9000 248.9000 287.1000 279.5000 332.1000 289.4000 326.4000 275.1000 215.0000 221.0000 211.5000 221.1000 286.3000 272.5000 238.5000 287.0000 342.5000 347.9000 348.0000 343.1000 332.2000 339.0000 337.1000 334.6000 315.9000 300.4000 324.2000 349.4000 353.6000 355.9000 354.1000 353.1000 346.5000 339.7000 332.8000 322.6000 312.5000 312.4000 319.2000 312.0000 314.9000 306.3000 293.1000 268.1000 289.3000 280.9000 267.0000 267.5000 258.9333 262.2828 254.2041 251.5177 241.8498 234.8425 229.0491 223.1885 223.2663 221.3145 217.8000 216.2907 226.2000 223.5000 221.1000 223.7000 211.1000 174.3217 172.9925 161.5970 180.7320 186.9000 203.8000 209.2000 224.4000 217.1000 207.6000 209.9000 208.9000 209.2000 217.3000 217.0000 216.4000 220.3000 229.6000 224.9000 218.2000 214.6000 209.1000 216.2000 211.7000 209.8000 209.4000 211.0000 210.2000 212.3000 212.2000 215.4000 215.0000 213.4000 212.3000 207.6000 193.8000 198.9000 213.4000 214.9000 210.3000 202.8000 199.2000 194.1000 191.1000 184.3000 176.7000 179.1000 173.9000 165.5000 166.2000 168.4000 169.4000 162.3000 158.7000 160.7000 162.4000 165.9000 168.1000 147.4000 159.1000 167.8000 165.7000 142.0000 121.5000 119.8000 119.4000 122.5000 127.0000 133.2000 142.7000 149.7000 152.1000 159.6000 164.1000 163.0000 165.1000 161.5000 152.3000 154.0000 152.6000 150.9000 145.5000 134.8000 136.6000 137.0000
432.8000 427.0000 421.6000 425.7000 441.2000 459.5000 430.4000 440.3000 462.8000 466.7000 483.5000 490.9000 456.6000 485.8000 506.4000 504.3000 492.1000 477.2000 482.1000 457.6000 440.7000 431.8000 427.9000 424.3000 408.4000 390.0000 367.7000 356.2000 353.6000 342.5000 335.9000 319.3000 339.7000 362.9000 355.9000 344.4000 325.9000 290.1000 335.0000 343.1000 308.9000 322.1000 341.4000 356.6000 354.1000 354.6000 339.4000 298.8000 238.1000 243.0000 282.6000 346.2000 277.4000 267.2000 256.4000 245.8000 229.5000 224.5000 223.2000 228.4000 234.7000 267.1000 279.8000 221.8000 254.8000 263.7000 277.7000 336.9000 326.8000 308.4000 280.4000 237.2000 317.8000 349.3000 350.1000 344.7000 341.9000 339.3000 337.1000 324.6000 300.9000 332.4000 357.8000 351.0000 348.2000 344.7000 343.6000 340.7000 334.2000 330.9000 317.4000 295.6000 287.5000 281.2000 293.4000 279.5000 317.5000 311.4000 291.6000 275.6000 260.3000 256.9000 254.0000 272.1000 260.3329 254.1843 249.1236 242.0524 241.0000 240.6000 229.0267 225.1680 221.2594 217.2684 219.3099 224.2000 222.6000 221.0000 216.9000 191.2955 178.9525 183.1613 166.8113 162.9883 168.4391 209.8000 206.5000 218.5000 218.7000 213.0000 211.8000 216.9000 213.2000 214.4000 222.6000 224.2000 223.0000 234.1000 224.6000 222.0000 219.6000 214.2000 224.7000 224.9000 217.3000 210.9000 213.9000 214.4000 214.6000 215.4000 220.2000 222.2000 221.6000 220.1000 216.1000 211.8000 189.6000 182.4000 212.7000 213.7000 211.5000 204.2000 196.0000 189.6000 181.6000 175.8000 172.1000 167.6000 165.8000 165.6000 162.3000 154.4000 159.3000 160.9000 146.8000 156.0000 153.0000 151.8000 161.7000 156.8000 139.3000 161.5000 159.3000 138.2000 119.7000 119.3000 120.0000 135.7000 138.8000 134.7000 134.5000 141.0000 150.9000 154.1000 154.0000 153.7000 155.0000 151.2000 148.3000 146.7000 146.2000 145.5000 139.5000 138.0000 130.3000 133.1000
440.7000 428.7000 424.5000 431.3000 426.2000 440.0000 445.9000 421.1000 481.8000 482.1000 483.6000 481.3000 455.5000 485.1000 496.0000 490.9000 482.9000 465.3000 455.3000 446.6000 435.8000 422.1000 419.2000 414.1000 396.4000 396.4000 393.9000 384.8000 371.5000 360.2000 351.3000 334.7000 310.4000 345.7000 339.8000 301.6000 299.7000 311.5000 330.6000 327.8000 329.2000 349.9000 350.5000 353.9000 356.6000 354.5000 339.5000 308.6000 237.8000 270.7000 334.5000 342.4000 314.3000 310.8000 314.4000 267.1000 266.7000 285.9000 247.7000 223.9000 219.6000 219.4000 218.4000 216.9000 315.7000 282.6000 249.0000 307.2000 333.0000 346.1000 281.4000 296.2000 255.1000 332.3000 347.0000 343.4000 345.6000 341.6000 330.8000 319.9000 348.6000 355.1000 349.7000 344.7000 340.3000 335.3000 332.1000 331.4000 323.6000 313.6000 321.3000 319.6000 309.4000 297.2000 290.5000 272.9000 310.7000 307.5000 288.6000 275.0000 262.7000 250.6000 240.1000 247.7000 276.9000 254.5469 248.4534 256.7000 250.0000 251.7000 249.4000 238.2000 229.6000 227.7000 227.5000 201.9943 210.1772 198.5805 209.2721 188.2863 176.3282 168.0341 168.3322 167.5000 203.7000 209.0000 214.5000 218.2000 217.2000 210.2000 208.6000 210.2000 213.0000 217.1000 223.2000 226.1000 228.1000 234.0000 225.0000 219.6000 215.7000 214.2000 215.5000 217.9000 216.5000 217.6000 220.1000 220.0000 220.7000 222.1000 224.3000 222.6000 222.1000 216.9000 209.2000 199.6000 180.6000 181.4000 216.3000 215.2000 210.9000 203.1000 193.9000 187.6000 181.3000 174.7000 167.7000 164.7000 162.1000 161.4000 154.6000 150.6000 151.9000 155.3000 152.9000 146.1000 148.6000 144.1000 145.0000 144.8000 140.8000 148.0000 145.1000 122.8000 120.8000 119.9000 123.3000 129.1000 139.3000 137.9000 133.7000 140.4000 142.8000 146.2000 148.5000 148.6000 147.5000 144.8000 143.4000 142.8000 142.2000 141.4000 138.3000 135.3000 131.4000 127.8000
435.2000 431.9000 433.3000 428.5000 410.2000 420.7000 439.1000 428.6000 454.8000 482.7000 484.9000 478.6000 470.8000 436.7000 444.8000 444.4000 459.9000 461.6000 447.0000 440.3000 430.9000 434.9000 419.7000 410.3000 397.7000 384.0000 371.5000 361.3000 354.3000 341.6000 345.1000 343.1000 316.2000 332.4000 315.1000 274.7000 269.1000 302.1000 301.0000 299.0000 343.9000 327.1000 301.7000 337.6000 348.8000 331.9000 282.0000 243.9000 239.5000 245.8000 361.8000 370.3000 334.5000 365.5000 350.7000 276.3000 297.9000 371.6000 287.8000 325.4000 295.7000 251.1000 265.8000 267.9000 293.8000 333.1000 306.7000 266.4000 307.7000 340.6000 319.8000 326.7000 302.1000 274.7000 294.0000 322.8000 315.4000 327.4000 338.2000 356.9000 362.5000 355.3000 347.6000 341.0000 336.7000 337.4000 336.7000 332.5000 331.1000 324.0000 323.9000 312.0000 301.5000 293.6000 289.4000 277.5000 259.4000 291.1000 285.7000 273.7000 266.9000 259.3000 251.3000 238.9000 249.1000 267.2000 256.1000 257.7000 249.9000 238.6000 239.1000 210.7330 232.6000 230.2000 224.8000 204.3913 191.4143 183.4584 182.0000 180.1000 187.8710 189.8000 194.0450 169.0797 185.7000 228.4000 217.1000 211.0000 204.5000 202.6000 210.5000 210.6000 213.9000 219.6000 227.1000 227.8000 232.1000 227.2000 223.4000 220.7000 218.4000 218.4000 219.5000 217.7000 219.9000 219.8000 222.2000 223.8000 224.2000 224.6000 223.5000 221.0000 215.0000 211.2000 186.3000 188.9000 180.9000 173.9000 188.7000 206.6000 198.3000 194.1000 193.5000 187.9000 182.0000 175.4000 171.2000 166.2000 168.8000 168.5000 167.7000 162.5000 154.7000 142.1000 148.7000 146.4000 135.3000 131.9000 131.2000 124.0000 123.8000 123.0000 122.2000 121.7000 123.6000 126.5000 136.2000 136.4000 142.5000 141.8000 139.2000 136.5000 140.1000 141.6000 141.9000 142.5000 142.4000 139.6000 136.7000 138.2000 138.7000 138.1000 137.9000 134.0000 126.8000 122.9000
443.6000 440.3000 432.3000 427.0000 414.1000 403.9000 417.0000 432.4000 413.4000 456.9000 462.6000 476.6000 464.8000 459.6000 436.8000 433.4000 413.2000 447.5000 453.7000 443.3000 434.6000 413.6000 395.1000 375.3000 363.3000 355.3000 348.2000 347.7000 345.7000 328.6000 316.4000 306.7000 300.2000 355.0000 336.8000 275.5000 327.9000 280.3000 260.3000 311.3000 303.4000 279.0000 285.5000 322.0000 295.5000 296.1000 256.2000 257.1000 246.6000 260.6000 310.5000 371.5000 374.4000 376.7000 351.5000 287.5000 283.4000 357.8000 325.3000 319.6000 343.3000 307.2000 360.4000 336.3000 301.9000 267.8000 260.6000 316.4000 341.1000 361.0000 373.8000 367.3000 357.0000 318.4000 302.8000 321.4000 344.9000 355.1000 363.5000 365.8000 365.4000 355.4000 347.5000 342.5000 339.8000 339.9000 337.2000 327.4000 319.1000 307.3000 313.0000 301.2000 297.6000 293.3000 272.4000 270.7000 263.3000 254.2000 288.7000 293.3000 288.2000 273.4000 260.4000 250.3000 222.7000 242.7000 249.2000 252.8000 248.4000 241.0000 215.1223 209.0854 207.9913 192.9322 189.8561 183.3751 189.6000 191.7000 199.5000 213.2000 198.1924 210.3525 238.9548 180.4775 171.1000 224.7000 213.9000 207.7000 203.5000 200.3000 207.1000 213.2000 218.2000 224.6000 244.3000 234.8000 233.7000 230.3000 228.7000 231.4000 231.7000 230.2000 228.2000 224.6000 226.5000 225.1000 224.6000 226.2000 225.2000 222.4000 219.6000 207.8000 212.7000 192.1000 177.1000 177.8000 172.1000 166.6000 163.8000 160.9000 158.3000 156.4000 155.0000 170.6000 179.7000 175.9000 172.7000 167.9000 168.6000 168.3000 163.8000 158.7000 156.0000 152.2000 144.7000 132.8000 128.2000 126.7000 125.6000 124.0000 123.8000 122.9000 123.5000 128.4000 126.2000 128.9000 142.1000 140.8000 144.6000 145.2000 142.7000 139.6000 138.7000 140.1000 140.1000 139.9000 138.9000 140.0000 140.8000 139.7000 132.6000 132.3000 129.6000 133.6000 140.6000 140.5000
432.5000 434.5000 430.0000 421.8000 412.7000 407.2000 399.0000 412.4000 416.3000 445.9000 447.6000 470.2000 465.7000 459.2000 454.9000 438.5000 420.8000 398.8000 411.7000 434.8000 425.8000 415.5000 406.1000 400.3000 398.9000 383.6000 375.6000 370.5000 366.2000 363.4000 355.9000 349.5000 333.0000 295.5000 295.8000 318.8000 303.0000 374.3000 342.8000 297.7000 305.6000 285.3000 295.0000 269.5000 247.7000 244.9000 244.1000 280.2000 255.5000 264.5000 345.9000 363.3000 381.6000 379.2000 341.3000 347.0000 366.3000 327.2000 329.5000 372.6000 379.0000 353.2000 350.2000 315.3000 290.1000 331.2000 277.0000 321.6000 355.9000 368.7000 366.9000 367.5000 367.6000 355.2000 340.1000 366.2000 371.5000 372.4000 368.6000 362.6000 353.7000 346.3000 343.0000 344.1000 326.4000 320.1000 308.6000 300.1000 292.7000 286.2000 293.4000 295.6000 290.1000 282.7000 273.7000 260.6000 244.2000 248.2000 283.9000 299.1000 292.6000 272.9000 256.9000 243.9000 236.0000 223.5000 224.8000 220.6000 199.8252 199.7000 212.2000 204.8000 192.0797 184.0443 187.6137 195.4106 210.1000 222.2000 225.5000 228.8000 231.3000 227.3000 209.9282 197.1502 172.0183 176.4000 202.1000 194.6000 191.1000 203.7000 207.6000 216.7000 220.5000 226.7000 231.3000 232.3000 236.6000 236.5000 233.2000 232.5000 232.6000 231.9000 230.0000 229.1000 230.2000 229.1000 228.5000 227.6000 221.5000 212.3000 199.3000 190.5000 189.3000 217.0000 214.6000 203.5000 195.5000 192.6000 192.2000 192.5000 190.9000 165.3000 169.9000 168.4000 152.2000 153.8000 157.0000 166.1000 168.4000 171.0000 164.8000 157.1000 149.6000 144.2000 137.9000 129.9000 127.3000 126.4000 125.3000 124.3000 125.4000 127.1000 138.9000 144.4000 141.8000 133.3000 143.2000 152.5000 153.5000 152.2000 151.5000 147.8000 147.5000 143.1000 141.6000 140.7000 139.6000 139.8000 139.8000 138.5000 133.2000 141.0000 147.2000 152.3000 154.0000 149.2000
425.1000 427.4000 423.4000 415.7000 413.8000 410.5000 400.7000 397.6000 426.5000 447.7000 462.9000 469.8000 476.0000 468.2000 448.5000 440.4000 428.4000 415.9000 390.9000 425.3000 413.3000 404.5000 399.9000 389.6000 386.2000 373.0000 360.5000 372.0000 378.0000 374.7000 369.3000 363.4000 357.1000 298.2000 297.1000 289.5000 369.5000 380.7000 370.8000 368.2000 360.1000 303.0000 321.4000 323.7000 254.0000 265.4000 276.0000 306.4000 331.8000 290.9000 323.0000 360.3000 379.5000 373.1000 362.4000 357.9000 356.8000 373.0000 366.1000 367.2000 367.8000 364.4000 370.8000 316.9000 297.7000 343.1000 326.0000 337.9000 361.0000 361.9000 358.0000 354.9000 368.2000 367.5000 367.6000 372.4000 370.3000 359.3000 351.8000 347.2000 340.1000 336.0000 323.7000 323.0000 314.8000 302.6000 292.8000 285.6000 278.9000 273.4000 274.4000 276.4000 274.7000 269.1000 260.9000 240.2000 272.3000 232.2000 259.9000 264.6000 245.0000 228.0000 217.7000 214.1000 211.8000 210.8000 211.3000 206.3000 223.1000 245.0000 230.0572 219.0226 207.7909 187.9126 216.4000 224.4000 234.1000 238.5000 239.8000 247.8000 238.5000 235.5000 232.3000 208.5000 175.3000 176.9000 183.0000 198.9000 195.9000 226.3000 219.3000 222.0000 232.2000 229.7000 235.1000 235.0000 236.4000 236.4000 237.6000 236.6000 233.4000 235.5000 237.3000 235.9000 236.0000 234.8000 233.3000 230.2000 225.7000 219.7000 213.1000 202.5000 189.9000 212.9000 213.3000 204.7000 199.5000 194.4000 179.1000 173.1000 168.9000 192.0000 190.5000 181.5000 177.3000 165.6000 157.6000 144.4000 154.8000 168.0000 163.7000 151.4000 146.4000 138.1000 128.5000 127.5000 128.3000 126.7000 133.2000 143.5000 141.7000 142.5000 154.5000 149.6000 142.2000 139.8000 156.0000 163.3000 163.1000 161.3000 159.8000 154.8000 153.1000 144.4000 152.1000 149.3000 144.6000 144.2000 141.0000 137.7000 134.5000 146.7000 152.8000 158.6000 160.2000 157.0000
418.4000 416.9000 413.1000 404.8000 404.7000 401.1000 400.6000 390.6000 416.0000 437.0000 453.8000 449.3000 456.9000 459.9000 442.0000 427.8000 415.9000 405.3000 394.3000 387.4000 386.0000 382.9000 377.2000 364.8000 346.8000 344.4000 347.2000 353.3000 385.3000 380.7000 377.6000 367.2000 303.7000 309.2000 376.6000 382.9000 388.3000 387.5000 382.8000 370.8000 349.8000 340.2000 350.1000 291.1000 278.8000 339.4000 336.5000 330.7000 335.2000 347.6000 352.5000 378.2000 384.4000 384.7000 376.7000 369.8000 374.4000 373.6000 362.4000 361.6000 373.7000 362.7000 338.8000 322.7000 374.5000 348.3000 332.5000 306.5000 327.5000 342.0000 350.5000 350.8000 351.4000 361.3000 360.7000 357.7000 352.9000 344.9000 343.5000 330.4000 317.6000 315.1000 307.8000 294.0000 290.8000 282.9000 279.0000 272.1000 266.6000 262.2000 274.7000 275.8000 270.2000 263.6000 257.3000 257.4000 230.7000 244.2000 230.8000 227.8000 220.2000 233.2000 238.1000 241.1000 247.4000 245.0000 241.0000 239.6000 250.7000 261.4000 235.1322 233.5000 240.8000 242.5000 249.3000 245.1000 254.5000 239.0000 234.7000 256.5000 211.3000 198.1000 177.0000 182.8000 203.2000 209.2000 205.2000 222.8000 210.9000 203.5000 221.1000 231.3000 232.1000 234.2000 237.5000 240.6000 239.9000 241.0000 241.4000 238.9000 242.2000 242.4000 242.0000 242.6000 241.1000 238.8000 235.1000 229.9000 226.2000 221.3000 211.0000 193.2000 210.9000 213.3000 207.9000 200.6000 187.1000 193.3000 195.0000 205.6000 207.6000 206.4000 199.2000 192.5000 187.6000 177.8000 176.9000 169.3000 151.2000 143.4000 136.0000 133.9000 131.2000 129.3000 128.1000 127.7000 144.0000 141.1000 160.9000 172.3000 162.8000 156.3000 162.0000 152.5000 140.7000 154.1000 168.3000 173.4000 174.6000 168.5000 166.5000 163.0000 158.4000 149.6000 160.6000 162.1000 156.1000 150.9000 146.6000 143.6000 138.6000 146.2000 152.7000 158.7000 162.4000 162.7000
415.8000 413.0000 414.2000 406.7000 405.6000 407.0000 406.4000 387.8000 391.2000 407.1000 424.8000 416.0000 426.6000 440.7000 443.7000 431.4000 410.8000 408.2000 409.9000 408.6000 402.2000 382.4000 367.0000 367.0000 374.6000 367.9000 358.3000 342.4000 347.1000 336.0000 346.6000 359.4000 292.7000 290.3000 361.1000 362.2000 385.3000 387.6000 382.2000 354.9000 368.9000 364.6000 350.5000 301.5000 262.5000 352.6000 368.2000 373.9000 363.3000 359.8000 366.4000 383.1000 382.8000 380.3000 381.9000 378.0000 374.1000 375.3000 375.1000 372.3000 368.0000 351.6000 328.0000 386.5000 388.4000 369.4000 361.7000 341.1000 325.4000 350.7000 348.6000 358.3000 365.9000 368.5000 359.0000 341.9000 327.5000 316.0000 315.3000 304.0000 294.7000 290.9000 287.4000 285.6000 280.1000 274.0000 269.3000 264.2000 258.3000 256.2000 256.6000 247.4000 241.7000 244.3000 242.8000 254.1000 250.3000 267.7000 249.3000 253.5000 259.3000 262.0000 260.3000 261.1000 262.6000 257.4000 251.5000 248.6000 250.2000 273.4000 264.1000 262.3000 243.6000 233.2000 229.3000 227.4000 223.4000 215.3000 200.9000 198.2000 183.3000 179.6000 201.7000 200.6000 201.5000 215.3000 223.8000 235.1000 222.0000 218.6000 212.7000 215.0000 219.7000 229.6000 253.2000 251.3000 248.9000 247.8000 245.7000 244.7000 246.1000 245.3000 244.2000 243.0000 240.0000 235.0000 228.6000 223.4000 220.2000 206.1000 196.1000 204.8000 219.9000 219.2000 212.0000 199.4000 212.2000 197.2000 216.0000 220.8000 219.4000 211.4000 207.4000 199.7000 188.2000 184.1000 180.8000 175.9000 174.6000 169.5000 155.3000 151.6000 129.0000 150.1000 169.8000 171.7000 170.9000 151.9000 172.2000 178.5000 177.6000 175.2000 171.7000 163.1000 146.9000 166.8000 174.8000 175.2000 173.2000 169.3000 167.4000 164.6000 155.0000 160.1000 165.8000 167.5000 163.5000 159.2000 153.6000 149.9000 144.6000 140.7000 150.6000 155.7000 160.1000 165.1000
424.3000 422.4000 419.3000 415.7000 413.6000 414.2000 412.8000 398.3000 382.5000 381.1000 387.4000 431.8000 423.6000 432.0000 436.5000 431.4000 424.8000 417.9000 414.7000 403.0000 389.2000 374.7000 376.9000 390.5000 389.8000 388.7000 384.7000 373.4000 346.2000 358.6000 317.3000 360.7000 354.5000 294.1000 360.1000 388.2000 385.9000 384.6000 377.1000 383.4000 381.6000 377.4000 370.3000 342.9000 294.3000 318.0000 331.3000 378.9000 353.9000 360.8000 370.7000 361.8000 359.6000 373.8000 383.5000 383.3000 384.6000 385.0000 384.1000 380.1000 373.8000 374.1000 355.5000 388.6000 387.3000 387.3000 368.2000 366.6000 345.7000 369.7000 368.1000 364.3000 351.3000 346.2000 339.1000 336.1000 319.9000 302.1000 293.7000 287.9000 285.1000 281.2000 282.3000 278.2000 275.7000 270.5000 264.5000 263.2000 256.5000 253.6000 257.0000 270.5000 266.7000 283.9000 265.1000 300.5000 278.9000 290.4000 282.2000 277.2000 278.3000 274.8000 273.7000 267.9000 260.9000 254.2000 247.9000 244.8000 231.0000 234.0000 232.5000 224.3000 209.8000 194.6000 189.0000 188.2000 186.8000 185.3000 184.3000 182.8000 181.6000 191.5000 206.6000 193.8000 208.3000 210.1000 216.5000 234.0000 229.0000 228.0000 223.6000 223.4000 225.7000 236.5000 246.7000 249.6000 248.9000 250.1000 251.4000 249.8000 248.8000 247.9000 246.3000 243.9000 239.3000 234.0000 226.3000 214.0000 203.0000 222.2000 225.6000 227.1000 225.9000 216.2000 206.7000 212.4000 208.9000 217.8000 222.7000 221.5000 217.7000 210.6000 205.2000 200.0000 197.9000 194.0000 189.9000 184.5000 180.2000 172.9000 150.1000 133.0000 131.6000 154.2000 177.0000 179.6000 173.4000 171.5000 179.7000 185.9000 185.7000 186.6000 182.2000 165.6000 161.6000 173.4000 178.3000 177.5000 173.7000 168.7000 165.3000 159.9000 161.8000 166.4000 169.6000 171.8000 169.6000 165.5000 157.9000 147.1000 143.0000 146.3000 143.7000 153.3000 158.7000 163.8000
422.3000 410.3000 406.9000 406.0000 403.3000 403.7000 404.3000 399.7000 392.6000 386.6000 375.5000 403.0000 425.2000 408.6000 405.4000 423.4000 424.3000 422.0000 411.0000 407.9000 403.1000 402.8000 401.7000 399.7000 394.1000 390.3000 383.0000 372.8000 367.2000 364.4000 358.1000 299.0000 341.2000 322.4000 329.8000 396.0000 386.9000 387.2000 386.3000 389.5000 385.7000 380.5000 372.1000 352.2000 317.0000 319.6000 275.3000 305.6000 299.1000 317.3000 330.6000 318.4000 324.3000 342.9000 376.3000 376.8000 383.2000 386.4000 387.8000 386.7000 386.0000 379.9000 370.4000 388.1000 392.3000 390.9000 386.5000 370.0000 381.4000 385.4000 375.0000 356.8000 345.1000 326.2000 316.1000 314.2000 309.6000 296.1000 287.3000 282.5000 278.0000 274.4000 270.1000 269.4000 271.3000 269.0000 260.4000 265.3000 266.6000 272.5000 278.5000 282.6000 290.7000 294.2000 288.2000 292.3000 298.0000 303.6000 303.3000 288.3000 282.0000 277.6000 272.5000 271.8000 257.1000 257.6000 234.9000 214.8000 209.5000 216.3000 201.1000 193.8000 191.3000 190.6000 209.9000 210.6000 211.3000 202.3000 199.9000 207.1000 221.8000 238.2000 215.2000 204.9000 190.1000 226.8000 227.1000 228.2000 233.1000 235.0000 234.7000 237.5000 240.5000 241.2000 247.2000 251.2000 251.3000 252.1000 253.8000 253.0000 252.1000 250.1000 245.8000 241.5000 235.3000 225.3000 217.9000 221.4000 220.2000 239.8000 237.3000 229.7000 217.8000 210.5000 214.6000 219.7000 215.6000 220.7000 223.5000 222.2000 218.6000 213.6000 211.2000 208.4000 207.6000 204.6000 194.4000 187.6000 180.5000 158.9000 138.6000 131.7000 132.5000 144.0000 161.5000 177.8000 183.6000 171.3000 191.6000 193.5000 191.4000 189.4000 180.4000 184.1000 166.9000 177.4000 183.9000 181.7000 177.7000 173.2000 167.1000 170.1000 164.5000 170.8000 173.5000 171.8000 167.8000 157.7000 162.5000 160.8000 155.1000 153.5000 150.1000 144.9000 155.3000 161.6000
